%Generated by HPGL2GCODE
(Start)
M03 S500
G4 P1
M03 S750
G4 P1
M03 S1000
G4 P2
(Initialize HP-GL/2-mode)
(PT0)
G21
G90
G94
F80.00
G00 Z1.0000
G00 X-0.3500Y81.3250
G01 Z-0.3000
G01 X-7.5000Y46.9750
G00 Z1.0000
G00 X-33.0500Y0.4000
G01 Z-0.3000
G01 X-50.8500Y0.3250
G00 Z1.0000
G00 X-0.3500Y81.3250
G01 Z-0.3000
G01 X-25.9000Y88.2000
G00 Z1.0000
G00 X-25.9000Y88.2000
G01 Z-0.3000
G01 X-53.6500Y86.0000
G00 Z1.0000
G00 X-51.9500Y45.1000
G01 Z-0.3000
G01 X-50.8750Y22.3000
G01 X-49.3750Y22.3000
G01 X-49.3750Y20.0500
G01 X-50.8750Y20.0500
G01 X-50.8500Y0.3250
G00 Z1.0000
G00 X-53.6500Y86.0000
G01 Z-0.3000
G01 X-52.1500Y47.3000
G00 Z1.0000
G00 X-14.5500Y0.3000
G01 Z-0.3000
G01 X-13.1000Y22.5750
G01 X-8.2000Y44.9750
G00 Z1.0000
G00 X-14.5500Y0.3000
G01 Z-0.3000
G01 X-31.7000Y0.4000
G00 Z1.0000
G00 X-24.6000Y14.5000
G01 Z-0.3000
G01 X-23.5750Y20.6250
G01 X-29.8000Y22.6750
G01 X-29.2250Y26.1250
G01 X-27.7500Y25.8750
G01 X-25.9000Y38.3750
G01 X-32.3250Y39.4500
G01 X-34.8000Y24.2250
G01 X-35.8000Y24.4000
G01 X-37.0000Y17.3000
G00 Z1.0000
G00 X-37.2000Y16.2000
G01 Z-0.3000
G01 X-38.4250Y9.0500
G01 X-33.1000Y8.2000
G00 Z1.0000
G00 X-24.8000Y13.1000
G01 Z-0.3000
G01 X-25.8500Y6.9250
G01 X-31.8000Y7.9000
G00 Z1.0000
G00 X-20.0000Y40.2500
G01 Z-0.3000
G01 X-17.1750Y39.6500
G01 X-16.9250Y40.8250
G01 X-12.9000Y39.9750
G01 X-10.9000Y49.1500
G00 Z1.0000
G00 X-10.6000Y50.6500
G01 Z-0.3000
G01 X-8.2250Y61.9750
G01 X-23.0750Y65.1500
G01 X-25.4750Y53.8250
G00 Z1.0000
G00 X-21.1000Y40.5000
G01 Z-0.3000
G01 X-24.1250Y41.1250
G01 X-23.9000Y42.2000
G01 X-27.7750Y43.0500
G01 X-25.7750Y52.3250
G00 Z1.0000
G00 X-36.0000Y62.0500
G01 Z-0.3000
G01 X-40.6500Y62.0500
G01 X-40.6500Y64.7000
G01 X-48.6000Y64.4500
G01 X-48.7000Y57.0500
G00 Z1.0000
G00 X-48.7500Y55.8500
G01 Z-0.3000
G01 X-48.8500Y49.2500
G01 X-41.0500Y49.2500
G01 X-41.0500Y51.6500
G01 X-36.4000Y51.6500
G00 Z1.0000
G00 X-34.7000Y62.0500
G01 Z-0.3000
G01 X-29.3000Y62.0500
G01 X-29.3000Y51.6500
G01 X-35.1000Y51.6500
G00 Z1.0000
G00 X-45.0000Y78.9500
G01 Z-0.3000
G01 X-45.0000Y77.4000
G01 X-41.9000Y77.4000
G01 X-41.9000Y73.8000
G01 X-37.3500Y73.8000
G00 Z1.0000
G00 X-36.3000Y86.1000
G01 Z-0.3000
G01 X-31.9000Y86.1000
G01 X-31.9000Y82.3000
G01 X-28.7000Y82.3000
G01 X-28.7000Y77.5000
G01 X-31.8000Y77.5000
G01 X-31.8000Y73.8000
G01 X-36.2000Y73.8000
G00 Z1.0000
G00 X-37.4500Y86.1000
G01 Z-0.3000
G01 X-42.0000Y86.1000
G01 X-42.0000Y82.2000
G01 X-45.0000Y82.2000
G01 X-45.0000Y79.9500
G00 Z1.0000
(Initialize HP-GL/2-mode)
(PT0)
G21
G90
G94
F80.00
G00 Z1.0000
G00 X-0.3500Y81.3250
G01 Z-0.6000
G01 X-7.5000Y46.9750
G00 Z1.0000
G00 X-33.0500Y0.4000
G01 Z-0.6000
G01 X-50.8500Y0.3250
G00 Z1.0000
G00 X-0.3500Y81.3250
G01 Z-0.6000
G01 X-25.9000Y88.2000
G00 Z1.0000
G00 X-25.9000Y88.2000
G01 Z-0.6000
G01 X-53.6500Y86.0000
G00 Z1.0000
G00 X-51.9500Y45.1000
G01 Z-0.6000
G01 X-50.8750Y22.3000
G01 X-49.3750Y22.3000
G01 X-49.3750Y20.0500
G01 X-50.8750Y20.0500
G01 X-50.8500Y0.3250
G00 Z1.0000
G00 X-53.6500Y86.0000
G01 Z-0.6000
G01 X-52.1500Y47.3000
G00 Z1.0000
G00 X-14.5500Y0.3000
G01 Z-0.6000
G01 X-13.1000Y22.5750
G01 X-8.2000Y44.9750
G00 Z1.0000
G00 X-14.5500Y0.3000
G01 Z-0.6000
G01 X-31.7000Y0.4000
G00 Z1.0000
G00 X-24.6000Y14.5000
G01 Z-0.6000
G01 X-23.5750Y20.6250
G01 X-29.8000Y22.6750
G01 X-29.2250Y26.1250
G01 X-27.7500Y25.8750
G01 X-25.9000Y38.3750
G01 X-32.3250Y39.4500
G01 X-34.8000Y24.2250
G01 X-35.8000Y24.4000
G01 X-37.0000Y17.3000
G00 Z1.0000
G00 X-37.2000Y16.2000
G01 Z-0.6000
G01 X-38.4250Y9.0500
G01 X-33.1000Y8.2000
G00 Z1.0000
G00 X-24.8000Y13.1000
G01 Z-0.6000
G01 X-25.8500Y6.9250
G01 X-31.8000Y7.9000
G00 Z1.0000
G00 X-20.0000Y40.2500
G01 Z-0.6000
G01 X-17.1750Y39.6500
G01 X-16.9250Y40.8250
G01 X-12.9000Y39.9750
G01 X-10.9000Y49.1500
G00 Z1.0000
G00 X-10.6000Y50.6500
G01 Z-0.6000
G01 X-8.2250Y61.9750
G01 X-23.0750Y65.1500
G01 X-25.4750Y53.8250
G00 Z1.0000
G00 X-21.1000Y40.5000
G01 Z-0.6000
G01 X-24.1250Y41.1250
G01 X-23.9000Y42.2000
G01 X-27.7750Y43.0500
G01 X-25.7750Y52.3250
G00 Z1.0000
G00 X-36.0000Y62.0500
G01 Z-0.6000
G01 X-40.6500Y62.0500
G01 X-40.6500Y64.7000
G01 X-48.6000Y64.4500
G01 X-48.7000Y57.0500
G00 Z1.0000
G00 X-48.7500Y55.8500
G01 Z-0.6000
G01 X-48.8500Y49.2500
G01 X-41.0500Y49.2500
G01 X-41.0500Y51.6500
G01 X-36.4000Y51.6500
G00 Z1.0000
G00 X-34.7000Y62.0500
G01 Z-0.6000
G01 X-29.3000Y62.0500
G01 X-29.3000Y51.6500
G01 X-35.1000Y51.6500
G00 Z1.0000
G00 X-45.0000Y78.9500
G01 Z-0.6000
G01 X-45.0000Y77.4000
G01 X-41.9000Y77.4000
G01 X-41.9000Y73.8000
G01 X-37.3500Y73.8000
G00 Z1.0000
G00 X-36.3000Y86.1000
G01 Z-0.6000
G01 X-31.9000Y86.1000
G01 X-31.9000Y82.3000
G01 X-28.7000Y82.3000
G01 X-28.7000Y77.5000
G01 X-31.8000Y77.5000
G01 X-31.8000Y73.8000
G01 X-36.2000Y73.8000
G00 Z1.0000
G00 X-37.4500Y86.1000
G01 Z-0.6000
G01 X-42.0000Y86.1000
G01 X-42.0000Y82.2000
G01 X-45.0000Y82.2000
G01 X-45.0000Y79.9500
G00 Z1.0000
(Initialize HP-GL/2-mode)
(PT0)
G21
G90
G94
F80.00
G00 Z1.0000
G00 X-0.3500Y81.3250
G01 Z-0.9000
G01 X-7.5000Y46.9750
G00 Z1.0000
G00 X-33.0500Y0.4000
G01 Z-0.9000
G01 X-50.8500Y0.3250
G00 Z1.0000
G00 X-0.3500Y81.3250
G01 Z-0.9000
G01 X-25.9000Y88.2000
G00 Z1.0000
G00 X-25.9000Y88.2000
G01 Z-0.9000
G01 X-53.6500Y86.0000
G00 Z1.0000
G00 X-51.9500Y45.1000
G01 Z-0.9000
G01 X-50.8750Y22.3000
G01 X-49.3750Y22.3000
G01 X-49.3750Y20.0500
G01 X-50.8750Y20.0500
G01 X-50.8500Y0.3250
G00 Z1.0000
G00 X-53.6500Y86.0000
G01 Z-0.9000
G01 X-52.1500Y47.3000
G00 Z1.0000
G00 X-14.5500Y0.3000
G01 Z-0.9000
G01 X-13.1000Y22.5750
G01 X-8.2000Y44.9750
G00 Z1.0000
G00 X-14.5500Y0.3000
G01 Z-0.9000
G01 X-31.7000Y0.4000
G00 Z1.0000
G00 X-24.6000Y14.5000
G01 Z-0.9000
G01 X-23.5750Y20.6250
G01 X-29.8000Y22.6750
G01 X-29.2250Y26.1250
G01 X-27.7500Y25.8750
G01 X-25.9000Y38.3750
G01 X-32.3250Y39.4500
G01 X-34.8000Y24.2250
G01 X-35.8000Y24.4000
G01 X-37.0000Y17.3000
G00 Z1.0000
G00 X-37.2000Y16.2000
G01 Z-0.9000
G01 X-38.4250Y9.0500
G01 X-33.1000Y8.2000
G00 Z1.0000
G00 X-24.8000Y13.1000
G01 Z-0.9000
G01 X-25.8500Y6.9250
G01 X-31.8000Y7.9000
G00 Z1.0000
G00 X-20.0000Y40.2500
G01 Z-0.9000
G01 X-17.1750Y39.6500
G01 X-16.9250Y40.8250
G01 X-12.9000Y39.9750
G01 X-10.9000Y49.1500
G00 Z1.0000
G00 X-10.6000Y50.6500
G01 Z-0.9000
G01 X-8.2250Y61.9750
G01 X-23.0750Y65.1500
G01 X-25.4750Y53.8250
G00 Z1.0000
G00 X-21.1000Y40.5000
G01 Z-0.9000
G01 X-24.1250Y41.1250
G01 X-23.9000Y42.2000
G01 X-27.7750Y43.0500
G01 X-25.7750Y52.3250
G00 Z1.0000
G00 X-36.0000Y62.0500
G01 Z-0.9000
G01 X-40.6500Y62.0500
G01 X-40.6500Y64.7000
G01 X-48.6000Y64.4500
G01 X-48.7000Y57.0500
G00 Z1.0000
G00 X-48.7500Y55.8500
G01 Z-0.9000
G01 X-48.8500Y49.2500
G01 X-41.0500Y49.2500
G01 X-41.0500Y51.6500
G01 X-36.4000Y51.6500
G00 Z1.0000
G00 X-34.7000Y62.0500
G01 Z-0.9000
G01 X-29.3000Y62.0500
G01 X-29.3000Y51.6500
G01 X-35.1000Y51.6500
G00 Z1.0000
G00 X-45.0000Y78.9500
G01 Z-0.9000
G01 X-45.0000Y77.4000
G01 X-41.9000Y77.4000
G01 X-41.9000Y73.8000
G01 X-37.3500Y73.8000
G00 Z1.0000
G00 X-36.3000Y86.1000
G01 Z-0.9000
G01 X-31.9000Y86.1000
G01 X-31.9000Y82.3000
G01 X-28.7000Y82.3000
G01 X-28.7000Y77.5000
G01 X-31.8000Y77.5000
G01 X-31.8000Y73.8000
G01 X-36.2000Y73.8000
G00 Z1.0000
G00 X-37.4500Y86.1000
G01 Z-0.9000
G01 X-42.0000Y86.1000
G01 X-42.0000Y82.2000
G01 X-45.0000Y82.2000
G01 X-45.0000Y79.9500
G00 Z1.0000
(Initialize HP-GL/2-mode)
(PT0)
G21
G90
G94
F80.00
G00 Z1.0000
G00 X-0.3500Y81.3250
G01 Z-1.2000
G01 X-7.5000Y46.9750
G00 Z1.0000
G00 X-33.0500Y0.4000
G01 Z-1.2000
G01 X-50.8500Y0.3250
G00 Z1.0000
G00 X-0.3500Y81.3250
G01 Z-1.2000
G01 X-25.9000Y88.2000
G00 Z1.0000
G00 X-25.9000Y88.2000
G01 Z-1.2000
G01 X-53.6500Y86.0000
G00 Z1.0000
G00 X-51.9500Y45.1000
G01 Z-1.2000
G01 X-50.8750Y22.3000
G01 X-49.3750Y22.3000
G01 X-49.3750Y20.0500
G01 X-50.8750Y20.0500
G01 X-50.8500Y0.3250
G00 Z1.0000
G00 X-53.6500Y86.0000
G01 Z-1.2000
G01 X-52.1500Y47.3000
G00 Z1.0000
G00 X-14.5500Y0.3000
G01 Z-1.2000
G01 X-13.1000Y22.5750
G01 X-8.2000Y44.9750
G00 Z1.0000
G00 X-14.5500Y0.3000
G01 Z-1.2000
G01 X-31.7000Y0.4000
G00 Z1.0000
G00 X-24.6000Y14.5000
G01 Z-1.2000
G01 X-23.5750Y20.6250
G01 X-29.8000Y22.6750
G01 X-29.2250Y26.1250
G01 X-27.7500Y25.8750
G01 X-25.9000Y38.3750
G01 X-32.3250Y39.4500
G01 X-34.8000Y24.2250
G01 X-35.8000Y24.4000
G01 X-37.0000Y17.3000
G00 Z1.0000
G00 X-37.2000Y16.2000
G01 Z-1.2000
G01 X-38.4250Y9.0500
G01 X-33.1000Y8.2000
G00 Z1.0000
G00 X-24.8000Y13.1000
G01 Z-1.2000
G01 X-25.8500Y6.9250
G01 X-31.8000Y7.9000
G00 Z1.0000
G00 X-20.0000Y40.2500
G01 Z-1.2000
G01 X-17.1750Y39.6500
G01 X-16.9250Y40.8250
G01 X-12.9000Y39.9750
G01 X-10.9000Y49.1500
G00 Z1.0000
G00 X-10.6000Y50.6500
G01 Z-1.2000
G01 X-8.2250Y61.9750
G01 X-23.0750Y65.1500
G01 X-25.4750Y53.8250
G00 Z1.0000
G00 X-21.1000Y40.5000
G01 Z-1.2000
G01 X-24.1250Y41.1250
G01 X-23.9000Y42.2000
G01 X-27.7750Y43.0500
G01 X-25.7750Y52.3250
G00 Z1.0000
G00 X-36.0000Y62.0500
G01 Z-1.2000
G01 X-40.6500Y62.0500
G01 X-40.6500Y64.7000
G01 X-48.6000Y64.4500
G01 X-48.7000Y57.0500
G00 Z1.0000
G00 X-48.7500Y55.8500
G01 Z-1.2000
G01 X-48.8500Y49.2500
G01 X-41.0500Y49.2500
G01 X-41.0500Y51.6500
G01 X-36.4000Y51.6500
G00 Z1.0000
G00 X-34.7000Y62.0500
G01 Z-1.2000
G01 X-29.3000Y62.0500
G01 X-29.3000Y51.6500
G01 X-35.1000Y51.6500
G00 Z1.0000
G00 X-45.0000Y78.9500
G01 Z-1.2000
G01 X-45.0000Y77.4000
G01 X-41.9000Y77.4000
G01 X-41.9000Y73.8000
G01 X-37.3500Y73.8000
G00 Z1.0000
G00 X-36.3000Y86.1000
G01 Z-1.2000
G01 X-31.9000Y86.1000
G01 X-31.9000Y82.3000
G01 X-28.7000Y82.3000
G01 X-28.7000Y77.5000
G01 X-31.8000Y77.5000
G01 X-31.8000Y73.8000
G01 X-36.2000Y73.8000
G00 Z1.0000
G00 X-37.4500Y86.1000
G01 Z-1.2000
G01 X-42.0000Y86.1000
G01 X-42.0000Y82.2000
G01 X-45.0000Y82.2000
G01 X-45.0000Y79.9500
G00 Z1.0000
(Initialize HP-GL/2-mode)
(PT0)
G21
G90
G94
F80.00
G00 Z1.0000
G00 X-0.3500Y81.3250
G01 Z-1.5000
G01 X-7.5000Y46.9750
G00 Z1.0000
G00 X-33.0500Y0.4000
G01 Z-1.5000
G01 X-50.8500Y0.3250
G00 Z1.0000
G00 X-0.3500Y81.3250
G01 Z-1.5000
G01 X-25.9000Y88.2000
G00 Z1.0000
G00 X-25.9000Y88.2000
G01 Z-1.5000
G01 X-53.6500Y86.0000
G00 Z1.0000
G00 X-51.9500Y45.1000
G01 Z-1.5000
G01 X-50.8750Y22.3000
G01 X-49.3750Y22.3000
G01 X-49.3750Y20.0500
G01 X-50.8750Y20.0500
G01 X-50.8500Y0.3250
G00 Z1.0000
G00 X-53.6500Y86.0000
G01 Z-1.5000
G01 X-52.1500Y47.3000
G00 Z1.0000
G00 X-14.5500Y0.3000
G01 Z-1.5000
G01 X-13.1000Y22.5750
G01 X-8.2000Y44.9750
G00 Z1.0000
G00 X-14.5500Y0.3000
G01 Z-1.5000
G01 X-31.7000Y0.4000
G00 Z1.0000
G00 X-24.6000Y14.5000
G01 Z-1.5000
G01 X-23.5750Y20.6250
G01 X-29.8000Y22.6750
G01 X-29.2250Y26.1250
G01 X-27.7500Y25.8750
G01 X-25.9000Y38.3750
G01 X-32.3250Y39.4500
G01 X-34.8000Y24.2250
G01 X-35.8000Y24.4000
G01 X-37.0000Y17.3000
G00 Z1.0000
G00 X-37.2000Y16.2000
G01 Z-1.5000
G01 X-38.4250Y9.0500
G01 X-33.1000Y8.2000
G00 Z1.0000
G00 X-24.8000Y13.1000
G01 Z-1.5000
G01 X-25.8500Y6.9250
G01 X-31.8000Y7.9000
G00 Z1.0000
G00 X-20.0000Y40.2500
G01 Z-1.5000
G01 X-17.1750Y39.6500
G01 X-16.9250Y40.8250
G01 X-12.9000Y39.9750
G01 X-10.9000Y49.1500
G00 Z1.0000
G00 X-10.6000Y50.6500
G01 Z-1.5000
G01 X-8.2250Y61.9750
G01 X-23.0750Y65.1500
G01 X-25.4750Y53.8250
G00 Z1.0000
G00 X-21.1000Y40.5000
G01 Z-1.5000
G01 X-24.1250Y41.1250
G01 X-23.9000Y42.2000
G01 X-27.7750Y43.0500
G01 X-25.7750Y52.3250
G00 Z1.0000
G00 X-36.0000Y62.0500
G01 Z-1.5000
G01 X-40.6500Y62.0500
G01 X-40.6500Y64.7000
G01 X-48.6000Y64.4500
G01 X-48.7000Y57.0500
G00 Z1.0000
G00 X-48.7500Y55.8500
G01 Z-1.5000
G01 X-48.8500Y49.2500
G01 X-41.0500Y49.2500
G01 X-41.0500Y51.6500
G01 X-36.4000Y51.6500
G00 Z1.0000
G00 X-34.7000Y62.0500
G01 Z-1.5000
G01 X-29.3000Y62.0500
G01 X-29.3000Y51.6500
G01 X-35.1000Y51.6500
G00 Z1.0000
G00 X-45.0000Y78.9500
G01 Z-1.5000
G01 X-45.0000Y77.4000
G01 X-41.9000Y77.4000
G01 X-41.9000Y73.8000
G01 X-37.3500Y73.8000
G00 Z1.0000
G00 X-36.3000Y86.1000
G01 Z-1.5000
G01 X-31.9000Y86.1000
G01 X-31.9000Y82.3000
G01 X-28.7000Y82.3000
G01 X-28.7000Y77.5000
G01 X-31.8000Y77.5000
G01 X-31.8000Y73.8000
G01 X-36.2000Y73.8000
G00 Z1.0000
G00 X-37.4500Y86.1000
G01 Z-1.5000
G01 X-42.0000Y86.1000
G01 X-42.0000Y82.2000
G01 X-45.0000Y82.2000
G01 X-45.0000Y79.9500
G00 Z1.0000
(Ende)
G80
G90
G00 Z10 X0 Y0
M05
M09
M30