%Generated by HPGL2GCODE
(Start)
M03 S500
G4 P1
M03 S750
G4 P1
M03 S1000
G4 P2
(Initialize HP-GL/2-mode)
(PT0)
G21
G90
G94
F80.00
G00 Z1.0000
G00 X25.0000Y35.6750
G01 Z-0.2500
G01 X22.8750Y22.6500
G01 X21.6750Y22.8500
G01 X21.2250Y20.3000
G01 X27.5000Y19.2500
G00 Z1.0000
G00 X25.0000Y35.6750
G01 Z-0.2500
G01 X18.6000Y36.7500
G01 X16.1000Y21.5500
G00 Z1.0000
G00 X16.1000Y21.5500
G01 Z-0.2500
G01 X15.1250Y21.7000
G01 X12.5000Y6.3500
G01 X25.0500Y4.2500
G01 X27.5000Y19.2500
G00 Z1.0000
(Initialize HP-GL/2-mode)
(PT0)
G21
G90
G94
F80.00
G00 Z1.0000
G00 X25.0000Y35.6750
G01 Z-0.5000
G01 X22.8750Y22.6500
G01 X21.6750Y22.8500
G01 X21.2250Y20.3000
G01 X27.5000Y19.2500
G00 Z1.0000
G00 X25.0000Y35.6750
G01 Z-0.5000
G01 X18.6000Y36.7500
G01 X16.1000Y21.5500
G00 Z1.0000
G00 X16.1000Y21.5500
G01 Z-0.5000
G01 X15.1250Y21.7000
G01 X12.5000Y6.3500
G01 X25.0500Y4.2500
G01 X27.5000Y19.2500
G00 Z1.0000
(Initialize HP-GL/2-mode)
(PT0)
G21
G90
G94
F80.00
G00 Z1.0000
G00 X25.0000Y35.6750
G01 Z-0.7500
G01 X22.8750Y22.6500
G01 X21.6750Y22.8500
G01 X21.2250Y20.3000
G01 X27.5000Y19.2500
G00 Z1.0000
G00 X25.0000Y35.6750
G01 Z-0.7500
G01 X18.6000Y36.7500
G01 X16.1000Y21.5500
G00 Z1.0000
G00 X16.1000Y21.5500
G01 Z-0.7500
G01 X15.1250Y21.7000
G01 X12.5000Y6.3500
G01 X25.0500Y4.2500
G01 X27.5000Y19.2500
G00 Z1.0000
(Initialize HP-GL/2-mode)
(PT0)
G21
G90
G94
F80.00
G00 Z1.0000
G00 X25.0000Y35.6750
G01 Z-1.0000
G01 X22.8750Y22.6500
G01 X21.6750Y22.8500
G01 X21.2250Y20.3000
G01 X27.5000Y19.2500
G00 Z1.0000
G00 X25.0000Y35.6750
G01 Z-1.0000
G01 X18.6000Y36.7500
G01 X16.1000Y21.5500
G00 Z1.0000
G00 X16.1000Y21.5500
G01 Z-1.0000
G01 X15.1250Y21.7000
G01 X12.5000Y6.3500
G01 X25.0500Y4.2500
G01 X27.5000Y19.2500
G00 Z1.0000
(Initialize HP-GL/2-mode)
(PT0)
G21
G90
G94
F80.00
G00 Z1.0000
G00 X25.0000Y35.6750
G01 Z-1.2500
G01 X22.8750Y22.6500
G01 X21.6750Y22.8500
G01 X21.2250Y20.3000
G01 X27.5000Y19.2500
G00 Z1.0000
G00 X25.0000Y35.6750
G01 Z-1.2500
G01 X18.6000Y36.7500
G01 X16.1000Y21.5500
G00 Z1.0000
G00 X16.1000Y21.5500
G01 Z-1.2500
G01 X15.1250Y21.7000
G01 X12.5000Y6.3500
G01 X25.0500Y4.2500
G01 X27.5000Y19.2500
G00 Z1.0000
(Initialize HP-GL/2-mode)
(PT0)
G21
G90
G94
F80.00
G00 Z1.0000
G00 X25.0000Y35.6750
G01 Z-1.5000
G01 X22.8750Y22.6500
G01 X21.6750Y22.8500
G01 X21.2250Y20.3000
G01 X27.5000Y19.2500
G00 Z1.0000
G00 X25.0000Y35.6750
G01 Z-1.5000
G01 X18.6000Y36.7500
G01 X16.1000Y21.5500
G00 Z1.0000
G00 X16.1000Y21.5500
G01 Z-1.5000
G01 X15.1250Y21.7000
G01 X12.5000Y6.3500
G01 X25.0500Y4.2500
G01 X27.5000Y19.2500
G00 Z1.0000
(Ende)
G80
G90
G00 Z10 X0 Y0
M05
M09
M30