%Generated by HPGL2GCODE
(Start)
M03 S500
G4 P1
M03 S750
G4 P1
M03 S1000
G4 P2
(Initialize HP-GL/2-mode)
(PT0)
G21
G90
G94
F80.00
G00 Z1.0000
G00 X15.7750Y37.3250
G01 Z-0.3000
G01 X17.6250Y24.8250
G01 X19.1000Y25.0750
G01 X19.6750Y21.6250
G01 X13.4500Y19.5500
G00 Z1.0000
G00 X15.7750Y37.3250
G01 Z-0.3000
G01 X22.1750Y38.4000
G01 X24.6750Y23.1750
G00 Z1.0000
G00 X24.6750Y23.1750
G01 Z-0.3000
G01 X25.6750Y23.3250
G01 X28.3000Y7.9750
G01 X15.7250Y5.8750
G01 X13.4500Y19.5500
G00 Z1.0000
(Initialize HP-GL/2-mode)
(PT0)
G21
G90
G94
F80.00
G00 Z1.0000
G00 X15.7750Y37.3250
G01 Z-0.6000
G01 X17.6250Y24.8250
G01 X19.1000Y25.0750
G01 X19.6750Y21.6250
G01 X13.4500Y19.5500
G00 Z1.0000
G00 X15.7750Y37.3250
G01 Z-0.6000
G01 X22.1750Y38.4000
G01 X24.6750Y23.1750
G00 Z1.0000
G00 X24.6750Y23.1750
G01 Z-0.6000
G01 X25.6750Y23.3250
G01 X28.3000Y7.9750
G01 X15.7250Y5.8750
G01 X13.4500Y19.5500
G00 Z1.0000
(Initialize HP-GL/2-mode)
(PT0)
G21
G90
G94
F80.00
G00 Z1.0000
G00 X15.7750Y37.3250
G01 Z-0.9000
G01 X17.6250Y24.8250
G01 X19.1000Y25.0750
G01 X19.6750Y21.6250
G01 X13.4500Y19.5500
G00 Z1.0000
G00 X15.7750Y37.3250
G01 Z-0.9000
G01 X22.1750Y38.4000
G01 X24.6750Y23.1750
G00 Z1.0000
G00 X24.6750Y23.1750
G01 Z-0.9000
G01 X25.6750Y23.3250
G01 X28.3000Y7.9750
G01 X15.7250Y5.8750
G01 X13.4500Y19.5500
G00 Z1.0000
(Initialize HP-GL/2-mode)
(PT0)
G21
G90
G94
F80.00
G00 Z1.0000
G00 X15.7750Y37.3250
G01 Z-1.2000
G01 X17.6250Y24.8250
G01 X19.1000Y25.0750
G01 X19.6750Y21.6250
G01 X13.4500Y19.5500
G00 Z1.0000
G00 X15.7750Y37.3250
G01 Z-1.2000
G01 X22.1750Y38.4000
G01 X24.6750Y23.1750
G00 Z1.0000
G00 X24.6750Y23.1750
G01 Z-1.2000
G01 X25.6750Y23.3250
G01 X28.3000Y7.9750
G01 X15.7250Y5.8750
G01 X13.4500Y19.5500
G00 Z1.0000
(Initialize HP-GL/2-mode)
(PT0)
G21
G90
G94
F80.00
G00 Z1.0000
G00 X15.7750Y37.3250
G01 Z-1.5000
G01 X17.6250Y24.8250
G01 X19.1000Y25.0750
G01 X19.6750Y21.6250
G01 X13.4500Y19.5500
G00 Z1.0000
G00 X15.7750Y37.3250
G01 Z-1.5000
G01 X22.1750Y38.4000
G01 X24.6750Y23.1750
G00 Z1.0000
G00 X24.6750Y23.1750
G01 Z-1.5000
G01 X25.6750Y23.3250
G01 X28.3000Y7.9750
G01 X15.7250Y5.8750
G01 X13.4500Y19.5500
G00 Z1.0000
(Ende)
G80
G90
G00 Z10 X0 Y0
M05
M09
M30