%Generated by HPGL2GCODE
(Start)
M03 S500
G4 P1
M03 S750
G4 P1
M03 S1000
G4 P2
(Initialize HP-GL/2-mode)
(PT0)
G21
G90
G94
F80.00
G00 Z1.0000
G00 X27.5250Y43.2000
G01 Z-0.2500
G01 X25.3750Y30.1750
G01 X24.2000Y30.3750
G01 X23.7250Y27.8250
G01 X30.0250Y26.7500
G00 Z1.0000
G00 X27.5250Y43.2000
G01 Z-0.2500
G01 X21.1250Y44.2750
G01 X18.6250Y29.0500
G00 Z1.0000
G00 X18.6250Y29.0500
G01 Z-0.2500
G01 X17.6250Y29.2250
G01 X15.0000Y13.8750
G01 X27.5750Y11.7500
G01 X30.0250Y26.7500
G00 Z1.0000
(Initialize HP-GL/2-mode)
(PT0)
G21
G90
G94
F80.00
G00 Z1.0000
G00 X27.5250Y43.2000
G01 Z-0.5000
G01 X25.3750Y30.1750
G01 X24.2000Y30.3750
G01 X23.7250Y27.8250
G01 X30.0250Y26.7500
G00 Z1.0000
G00 X27.5250Y43.2000
G01 Z-0.5000
G01 X21.1250Y44.2750
G01 X18.6250Y29.0500
G00 Z1.0000
G00 X18.6250Y29.0500
G01 Z-0.5000
G01 X17.6250Y29.2250
G01 X15.0000Y13.8750
G01 X27.5750Y11.7500
G01 X30.0250Y26.7500
G00 Z1.0000
(Initialize HP-GL/2-mode)
(PT0)
G21
G90
G94
F80.00
G00 Z1.0000
G00 X27.5250Y43.2000
G01 Z-0.7500
G01 X25.3750Y30.1750
G01 X24.2000Y30.3750
G01 X23.7250Y27.8250
G01 X30.0250Y26.7500
G00 Z1.0000
G00 X27.5250Y43.2000
G01 Z-0.7500
G01 X21.1250Y44.2750
G01 X18.6250Y29.0500
G00 Z1.0000
G00 X18.6250Y29.0500
G01 Z-0.7500
G01 X17.6250Y29.2250
G01 X15.0000Y13.8750
G01 X27.5750Y11.7500
G01 X30.0250Y26.7500
G00 Z1.0000
(Initialize HP-GL/2-mode)
(PT0)
G21
G90
G94
F80.00
G00 Z1.0000
G00 X27.5250Y43.2000
G01 Z-1.0000
G01 X25.3750Y30.1750
G01 X24.2000Y30.3750
G01 X23.7250Y27.8250
G01 X30.0250Y26.7500
G00 Z1.0000
G00 X27.5250Y43.2000
G01 Z-1.0000
G01 X21.1250Y44.2750
G01 X18.6250Y29.0500
G00 Z1.0000
G00 X18.6250Y29.0500
G01 Z-1.0000
G01 X17.6250Y29.2250
G01 X15.0000Y13.8750
G01 X27.5750Y11.7500
G01 X30.0250Y26.7500
G00 Z1.0000
(Initialize HP-GL/2-mode)
(PT0)
G21
G90
G94
F80.00
G00 Z1.0000
G00 X27.5250Y43.2000
G01 Z-1.2500
G01 X25.3750Y30.1750
G01 X24.2000Y30.3750
G01 X23.7250Y27.8250
G01 X30.0250Y26.7500
G00 Z1.0000
G00 X27.5250Y43.2000
G01 Z-1.2500
G01 X21.1250Y44.2750
G01 X18.6250Y29.0500
G00 Z1.0000
G00 X18.6250Y29.0500
G01 Z-1.2500
G01 X17.6250Y29.2250
G01 X15.0000Y13.8750
G01 X27.5750Y11.7500
G01 X30.0250Y26.7500
G00 Z1.0000
(Initialize HP-GL/2-mode)
(PT0)
G21
G90
G94
F80.00
G00 Z1.0000
G00 X27.5250Y43.2000
G01 Z-1.5000
G01 X25.3750Y30.1750
G01 X24.2000Y30.3750
G01 X23.7250Y27.8250
G01 X30.0250Y26.7500
G00 Z1.0000
G00 X27.5250Y43.2000
G01 Z-1.5000
G01 X21.1250Y44.2750
G01 X18.6250Y29.0500
G00 Z1.0000
G00 X18.6250Y29.0500
G01 Z-1.5000
G01 X17.6250Y29.2250
G01 X15.0000Y13.8750
G01 X27.5750Y11.7500
G01 X30.0250Y26.7500
G00 Z1.0000
(Ende)
G80
G90
G00 Z10 X0 Y0
M05
M09
M30