%Generated by HPGL2GCODE
(Start)
M03 S500
G4 P1
M03 S750
G4 P1
M03 S1000
G4 P2
(Initialize HP-GL/2-mode)
(PT0)
G21
G90
G94
F80.00
G00 Z1.0000
G00 X36.3750Y40.4500
G01 Z-0.2667
G01 X37.5750Y27.3000
G01 X36.3750Y27.2000
G01 X36.5500Y24.6000
G01 X42.9000Y25.1500
G00 Z1.0000
G00 X36.3750Y40.4500
G01 Z-0.2667
G01 X29.9000Y39.9000
G01 X31.3000Y24.5250
G00 Z1.0000
G00 X31.3000Y24.5250
G01 Z-0.2667
G01 X30.3000Y24.4500
G01 X31.6000Y8.9250
G01 X44.3000Y10.0250
G01 X42.9000Y25.1500
G00 Z1.0000
(Initialize HP-GL/2-mode)
(PT0)
G21
G90
G94
F80.00
G00 Z1.0000
G00 X36.3750Y40.4500
G01 Z-0.5333
G01 X37.5750Y27.3000
G01 X36.3750Y27.2000
G01 X36.5500Y24.6000
G01 X42.9000Y25.1500
G00 Z1.0000
G00 X36.3750Y40.4500
G01 Z-0.5333
G01 X29.9000Y39.9000
G01 X31.3000Y24.5250
G00 Z1.0000
G00 X31.3000Y24.5250
G01 Z-0.5333
G01 X30.3000Y24.4500
G01 X31.6000Y8.9250
G01 X44.3000Y10.0250
G01 X42.9000Y25.1500
G00 Z1.0000
(Initialize HP-GL/2-mode)
(PT0)
G21
G90
G94
F80.00
G00 Z1.0000
G00 X36.3750Y40.4500
G01 Z-0.8000
G01 X37.5750Y27.3000
G01 X36.3750Y27.2000
G01 X36.5500Y24.6000
G01 X42.9000Y25.1500
G00 Z1.0000
G00 X36.3750Y40.4500
G01 Z-0.8000
G01 X29.9000Y39.9000
G01 X31.3000Y24.5250
G00 Z1.0000
G00 X31.3000Y24.5250
G01 Z-0.8000
G01 X30.3000Y24.4500
G01 X31.6000Y8.9250
G01 X44.3000Y10.0250
G01 X42.9000Y25.1500
G00 Z1.0000
(Initialize HP-GL/2-mode)
(PT0)
G21
G90
G94
F80.00
G00 Z1.0000
G00 X36.3750Y40.4500
G01 Z-1.0667
G01 X37.5750Y27.3000
G01 X36.3750Y27.2000
G01 X36.5500Y24.6000
G01 X42.9000Y25.1500
G00 Z1.0000
G00 X36.3750Y40.4500
G01 Z-1.0667
G01 X29.9000Y39.9000
G01 X31.3000Y24.5250
G00 Z1.0000
G00 X31.3000Y24.5250
G01 Z-1.0667
G01 X30.3000Y24.4500
G01 X31.6000Y8.9250
G01 X44.3000Y10.0250
G01 X42.9000Y25.1500
G00 Z1.0000
(Initialize HP-GL/2-mode)
(PT0)
G21
G90
G94
F80.00
G00 Z1.0000
G00 X36.3750Y40.4500
G01 Z-1.3333
G01 X37.5750Y27.3000
G01 X36.3750Y27.2000
G01 X36.5500Y24.6000
G01 X42.9000Y25.1500
G00 Z1.0000
G00 X36.3750Y40.4500
G01 Z-1.3333
G01 X29.9000Y39.9000
G01 X31.3000Y24.5250
G00 Z1.0000
G00 X31.3000Y24.5250
G01 Z-1.3333
G01 X30.3000Y24.4500
G01 X31.6000Y8.9250
G01 X44.3000Y10.0250
G01 X42.9000Y25.1500
G00 Z1.0000
(Initialize HP-GL/2-mode)
(PT0)
G21
G90
G94
F80.00
G00 Z1.0000
G00 X36.3750Y40.4500
G01 Z-1.6000
G01 X37.5750Y27.3000
G01 X36.3750Y27.2000
G01 X36.5500Y24.6000
G01 X42.9000Y25.1500
G00 Z1.0000
G00 X36.3750Y40.4500
G01 Z-1.6000
G01 X29.9000Y39.9000
G01 X31.3000Y24.5250
G00 Z1.0000
G00 X31.3000Y24.5250
G01 Z-1.6000
G01 X30.3000Y24.4500
G01 X31.6000Y8.9250
G01 X44.3000Y10.0250
G01 X42.9000Y25.1500
G00 Z1.0000
(Ende)
G80
G90
G00 Z10 X0 Y0
M05
M09
M30