%Generated by HPGL2GCODE
(Start)
M03 S500
G4 P1
M03 S750
G4 P1
M03 S1000
G4 P2
(Initialize HP-GL/2-mode)
(PT0)
G21
G90
G94
F80.00
G00 Z1.0000
G00 X27.0000Y35.6750
G01 Z-0.2500
G01 X24.8750Y22.6500
G01 X23.6750Y22.8500
G01 X23.2250Y20.3000
G01 X29.5000Y19.2500
G00 Z1.0000
G00 X27.0000Y35.6750
G01 Z-0.2500
G01 X20.6000Y36.7500
G01 X18.1000Y21.5500
G00 Z1.0000
G00 X18.1000Y21.5500
G01 Z-0.2500
G01 X17.1250Y21.7000
G01 X14.5000Y6.3500
G01 X27.0500Y4.2500
G01 X29.5000Y19.2500
G00 Z1.0000
(Initialize HP-GL/2-mode)
(PT0)
G21
G90
G94
F80.00
G00 Z1.0000
G00 X27.0000Y35.6750
G01 Z-0.5000
G01 X24.8750Y22.6500
G01 X23.6750Y22.8500
G01 X23.2250Y20.3000
G01 X29.5000Y19.2500
G00 Z1.0000
G00 X27.0000Y35.6750
G01 Z-0.5000
G01 X20.6000Y36.7500
G01 X18.1000Y21.5500
G00 Z1.0000
G00 X18.1000Y21.5500
G01 Z-0.5000
G01 X17.1250Y21.7000
G01 X14.5000Y6.3500
G01 X27.0500Y4.2500
G01 X29.5000Y19.2500
G00 Z1.0000
(Initialize HP-GL/2-mode)
(PT0)
G21
G90
G94
F80.00
G00 Z1.0000
G00 X27.0000Y35.6750
G01 Z-0.7500
G01 X24.8750Y22.6500
G01 X23.6750Y22.8500
G01 X23.2250Y20.3000
G01 X29.5000Y19.2500
G00 Z1.0000
G00 X27.0000Y35.6750
G01 Z-0.7500
G01 X20.6000Y36.7500
G01 X18.1000Y21.5500
G00 Z1.0000
G00 X18.1000Y21.5500
G01 Z-0.7500
G01 X17.1250Y21.7000
G01 X14.5000Y6.3500
G01 X27.0500Y4.2500
G01 X29.5000Y19.2500
G00 Z1.0000
(Initialize HP-GL/2-mode)
(PT0)
G21
G90
G94
F80.00
G00 Z1.0000
G00 X27.0000Y35.6750
G01 Z-1.0000
G01 X24.8750Y22.6500
G01 X23.6750Y22.8500
G01 X23.2250Y20.3000
G01 X29.5000Y19.2500
G00 Z1.0000
G00 X27.0000Y35.6750
G01 Z-1.0000
G01 X20.6000Y36.7500
G01 X18.1000Y21.5500
G00 Z1.0000
G00 X18.1000Y21.5500
G01 Z-1.0000
G01 X17.1250Y21.7000
G01 X14.5000Y6.3500
G01 X27.0500Y4.2500
G01 X29.5000Y19.2500
G00 Z1.0000
(Initialize HP-GL/2-mode)
(PT0)
G21
G90
G94
F80.00
G00 Z1.0000
G00 X27.0000Y35.6750
G01 Z-1.2500
G01 X24.8750Y22.6500
G01 X23.6750Y22.8500
G01 X23.2250Y20.3000
G01 X29.5000Y19.2500
G00 Z1.0000
G00 X27.0000Y35.6750
G01 Z-1.2500
G01 X20.6000Y36.7500
G01 X18.1000Y21.5500
G00 Z1.0000
G00 X18.1000Y21.5500
G01 Z-1.2500
G01 X17.1250Y21.7000
G01 X14.5000Y6.3500
G01 X27.0500Y4.2500
G01 X29.5000Y19.2500
G00 Z1.0000
(Initialize HP-GL/2-mode)
(PT0)
G21
G90
G94
F80.00
G00 Z1.0000
G00 X27.0000Y35.6750
G01 Z-1.5000
G01 X24.8750Y22.6500
G01 X23.6750Y22.8500
G01 X23.2250Y20.3000
G01 X29.5000Y19.2500
G00 Z1.0000
G00 X27.0000Y35.6750
G01 Z-1.5000
G01 X20.6000Y36.7500
G01 X18.1000Y21.5500
G00 Z1.0000
G00 X18.1000Y21.5500
G01 Z-1.5000
G01 X17.1250Y21.7000
G01 X14.5000Y6.3500
G01 X27.0500Y4.2500
G01 X29.5000Y19.2500
G00 Z1.0000
(Ende)
G80
G90
G00 Z10 X0 Y0
M05
M09
M30