%Generated by HPGL2GCODE
(Start)
M03 S500
G4 P1
M03 S750
G4 P1
M03 S1000
G4 P2
(Initialize HP-GL/2-mode)
(PT0)
G21
G90
G94
F80.00
G00 Z1.0000
G00 X37.1500Y24.2000
G01 Z-0.3000
G01 X50.9250Y25.7750
G01 X51.1750Y32.3500
G01 X54.6500Y32.7500
G01 X54.8250Y31.2500
G01 X67.3500Y32.9250
G01 X66.6250Y39.3750
G01 X51.3000Y37.5750
G01 X51.1750Y38.5750
G01 X35.7000Y36.8750
G01 X37.1250Y24.2000
G00 Z1.0000
G00 X95.8000Y45.5000
G01 Z-0.3000
G01 X49.5000Y43.6000
G01 X49.6000Y41.5000
G01 X46.7000Y41.4000
G01 X46.6000Y43.4000
G01 X27.4250Y42.4250
G01 X29.0500Y21.4750
G01 X64.2000Y25.1000
G01 X64.6000Y21.7000
G01 X99.0000Y24.9000
G01 X95.8000Y45.5000
G00 Z1.0000
(Initialize HP-GL/2-mode)
(PT0)
G21
G90
G94
F80.00
G00 Z1.0000
G00 X37.1500Y24.2000
G01 Z-0.6000
G01 X50.9250Y25.7750
G01 X51.1750Y32.3500
G01 X54.6500Y32.7500
G01 X54.8250Y31.2500
G01 X67.3500Y32.9250
G01 X66.6250Y39.3750
G01 X51.3000Y37.5750
G01 X51.1750Y38.5750
G01 X35.7000Y36.8750
G01 X37.1250Y24.2000
G00 Z1.0000
G00 X95.8000Y45.5000
G01 Z-0.6000
G01 X49.5000Y43.6000
G01 X49.6000Y41.5000
G01 X46.7000Y41.4000
G01 X46.6000Y43.4000
G01 X27.4250Y42.4250
G01 X29.0500Y21.4750
G01 X64.2000Y25.1000
G01 X64.6000Y21.7000
G01 X99.0000Y24.9000
G01 X95.8000Y45.5000
G00 Z1.0000
(Initialize HP-GL/2-mode)
(PT0)
G21
G90
G94
F80.00
G00 Z1.0000
G00 X37.1500Y24.2000
G01 Z-0.9000
G01 X50.9250Y25.7750
G01 X51.1750Y32.3500
G01 X54.6500Y32.7500
G01 X54.8250Y31.2500
G01 X67.3500Y32.9250
G01 X66.6250Y39.3750
G01 X51.3000Y37.5750
G01 X51.1750Y38.5750
G01 X35.7000Y36.8750
G01 X37.1250Y24.2000
G00 Z1.0000
G00 X95.8000Y45.5000
G01 Z-0.9000
G01 X49.5000Y43.6000
G01 X49.6000Y41.5000
G01 X46.7000Y41.4000
G01 X46.6000Y43.4000
G01 X27.4250Y42.4250
G01 X29.0500Y21.4750
G01 X64.2000Y25.1000
G01 X64.6000Y21.7000
G01 X99.0000Y24.9000
G01 X95.8000Y45.5000
G00 Z1.0000
(Initialize HP-GL/2-mode)
(PT0)
G21
G90
G94
F80.00
G00 Z1.0000
G00 X37.1500Y24.2000
G01 Z-1.2000
G01 X50.9250Y25.7750
G01 X51.1750Y32.3500
G01 X54.6500Y32.7500
G01 X54.8250Y31.2500
G01 X67.3500Y32.9250
G01 X66.6250Y39.3750
G01 X51.3000Y37.5750
G01 X51.1750Y38.5750
G01 X35.7000Y36.8750
G01 X37.1250Y24.2000
G00 Z1.0000
G00 X95.8000Y45.5000
G01 Z-1.2000
G01 X49.5000Y43.6000
G01 X49.6000Y41.5000
G01 X46.7000Y41.4000
G01 X46.6000Y43.4000
G01 X27.4250Y42.4250
G01 X29.0500Y21.4750
G01 X64.2000Y25.1000
G01 X64.6000Y21.7000
G01 X99.0000Y24.9000
G01 X95.8000Y45.5000
G00 Z1.0000
(Initialize HP-GL/2-mode)
(PT0)
G21
G90
G94
F80.00
G00 Z1.0000
G00 X37.1500Y24.2000
G01 Z-1.5000
G01 X50.9250Y25.7750
G01 X51.1750Y32.3500
G01 X54.6500Y32.7500
G01 X54.8250Y31.2500
G01 X67.3500Y32.9250
G01 X66.6250Y39.3750
G01 X51.3000Y37.5750
G01 X51.1750Y38.5750
G01 X35.7000Y36.8750
G01 X37.1250Y24.2000
G00 Z1.0000
G00 X95.8000Y45.5000
G01 Z-1.5000
G01 X49.5000Y43.6000
G01 X49.6000Y41.5000
G01 X46.7000Y41.4000
G01 X46.6000Y43.4000
G01 X27.4250Y42.4250
G01 X29.0500Y21.4750
G01 X64.2000Y25.1000
G01 X64.6000Y21.7000
G01 X99.0000Y24.9000
G01 X95.8000Y45.5000
G00 Z1.0000
(Ende)
G80
G90
G00 Z10 X0 Y0
M05
M09
M30