%Generated by HPGL2GCODE
(Start)
M03 S500
G4 P1
M03 S750
G4 P1
M03 S1000
G4 P2
(Initialize HP-GL/2-mode)
(PT0)
G21
G90
G94
F80.00
G00 Z1.0000
G00 X43.5500Y23.9250
G01 Z-0.2800
G01 X42.5750Y24.0000
G00 Z1.0000
G00 X37.4500Y40.0000
G01 Z-0.2800
G01 X36.2500Y26.8500
G01 X37.4500Y26.7500
G01 X37.2500Y24.1750
G01 X31.4000Y24.6750
G00 Z1.0000
G00 X37.4500Y40.0000
G01 Z-0.2800
G01 X43.9250Y39.4500
G01 X42.5750Y24.0000
G00 Z1.0000
G00 X43.5500Y23.9250
G01 Z-0.2800
G01 X42.2000Y8.4750
G01 X30.0250Y9.5250
G01 X31.4000Y24.6750
G00 Z1.0000
(Initialize HP-GL/2-mode)
(PT0)
G21
G90
G94
F80.00
G00 Z1.0000
G00 X43.5500Y23.9250
G01 Z-0.5600
G01 X42.5750Y24.0000
G00 Z1.0000
G00 X37.4500Y40.0000
G01 Z-0.5600
G01 X36.2500Y26.8500
G01 X37.4500Y26.7500
G01 X37.2500Y24.1750
G01 X31.4000Y24.6750
G00 Z1.0000
G00 X37.4500Y40.0000
G01 Z-0.5600
G01 X43.9250Y39.4500
G01 X42.5750Y24.0000
G00 Z1.0000
G00 X43.5500Y23.9250
G01 Z-0.5600
G01 X42.2000Y8.4750
G01 X30.0250Y9.5250
G01 X31.4000Y24.6750
G00 Z1.0000
(Initialize HP-GL/2-mode)
(PT0)
G21
G90
G94
F80.00
G00 Z1.0000
G00 X43.5500Y23.9250
G01 Z-0.8400
G01 X42.5750Y24.0000
G00 Z1.0000
G00 X37.4500Y40.0000
G01 Z-0.8400
G01 X36.2500Y26.8500
G01 X37.4500Y26.7500
G01 X37.2500Y24.1750
G01 X31.4000Y24.6750
G00 Z1.0000
G00 X37.4500Y40.0000
G01 Z-0.8400
G01 X43.9250Y39.4500
G01 X42.5750Y24.0000
G00 Z1.0000
G00 X43.5500Y23.9250
G01 Z-0.8400
G01 X42.2000Y8.4750
G01 X30.0250Y9.5250
G01 X31.4000Y24.6750
G00 Z1.0000
(Initialize HP-GL/2-mode)
(PT0)
G21
G90
G94
F80.00
G00 Z1.0000
G00 X43.5500Y23.9250
G01 Z-1.1200
G01 X42.5750Y24.0000
G00 Z1.0000
G00 X37.4500Y40.0000
G01 Z-1.1200
G01 X36.2500Y26.8500
G01 X37.4500Y26.7500
G01 X37.2500Y24.1750
G01 X31.4000Y24.6750
G00 Z1.0000
G00 X37.4500Y40.0000
G01 Z-1.1200
G01 X43.9250Y39.4500
G01 X42.5750Y24.0000
G00 Z1.0000
G00 X43.5500Y23.9250
G01 Z-1.1200
G01 X42.2000Y8.4750
G01 X30.0250Y9.5250
G01 X31.4000Y24.6750
G00 Z1.0000
(Initialize HP-GL/2-mode)
(PT0)
G21
G90
G94
F80.00
G00 Z1.0000
G00 X43.5500Y23.9250
G01 Z-1.4000
G01 X42.5750Y24.0000
G00 Z1.0000
G00 X37.4500Y40.0000
G01 Z-1.4000
G01 X36.2500Y26.8500
G01 X37.4500Y26.7500
G01 X37.2500Y24.1750
G01 X31.4000Y24.6750
G00 Z1.0000
G00 X37.4500Y40.0000
G01 Z-1.4000
G01 X43.9250Y39.4500
G01 X42.5750Y24.0000
G00 Z1.0000
G00 X43.5500Y23.9250
G01 Z-1.4000
G01 X42.2000Y8.4750
G01 X30.0250Y9.5250
G01 X31.4000Y24.6750
G00 Z1.0000
(Ende)
G80
G90
G00 Z10 X0 Y0
M05
M09
M30