%Generated by HPGL2GCODE
(Start)
M03 S500
G4 P1
M03 S750
G4 P1
M03 S1000
G4 P2
(Initialize HP-GL/2-mode)
(PT0)
G21
G90
G94
F80.00
G00 Z1.0000
G00 X30.3750Y24.3250
G01 Z-0.2800
G01 X31.3750Y24.4000
G00 Z1.0000
G00 X36.5000Y40.4000
G01 Z-0.2800
G01 X37.6750Y27.2500
G01 X36.4750Y27.1500
G01 X36.6750Y24.5750
G01 X42.5250Y25.0750
G00 Z1.0000
G00 X36.5000Y40.4000
G01 Z-0.2800
G01 X30.0250Y39.8500
G01 X31.3750Y24.4000
G00 Z1.0000
G00 X30.3750Y24.3250
G01 Z-0.2800
G01 X31.7250Y8.8750
G01 X43.9250Y9.9250
G01 X42.5250Y25.0750
G00 Z1.0000
(Initialize HP-GL/2-mode)
(PT0)
G21
G90
G94
F80.00
G00 Z1.0000
G00 X30.3750Y24.3250
G01 Z-0.5600
G01 X31.3750Y24.4000
G00 Z1.0000
G00 X36.5000Y40.4000
G01 Z-0.5600
G01 X37.6750Y27.2500
G01 X36.4750Y27.1500
G01 X36.6750Y24.5750
G01 X42.5250Y25.0750
G00 Z1.0000
G00 X36.5000Y40.4000
G01 Z-0.5600
G01 X30.0250Y39.8500
G01 X31.3750Y24.4000
G00 Z1.0000
G00 X30.3750Y24.3250
G01 Z-0.5600
G01 X31.7250Y8.8750
G01 X43.9250Y9.9250
G01 X42.5250Y25.0750
G00 Z1.0000
(Initialize HP-GL/2-mode)
(PT0)
G21
G90
G94
F80.00
G00 Z1.0000
G00 X30.3750Y24.3250
G01 Z-0.8400
G01 X31.3750Y24.4000
G00 Z1.0000
G00 X36.5000Y40.4000
G01 Z-0.8400
G01 X37.6750Y27.2500
G01 X36.4750Y27.1500
G01 X36.6750Y24.5750
G01 X42.5250Y25.0750
G00 Z1.0000
G00 X36.5000Y40.4000
G01 Z-0.8400
G01 X30.0250Y39.8500
G01 X31.3750Y24.4000
G00 Z1.0000
G00 X30.3750Y24.3250
G01 Z-0.8400
G01 X31.7250Y8.8750
G01 X43.9250Y9.9250
G01 X42.5250Y25.0750
G00 Z1.0000
(Initialize HP-GL/2-mode)
(PT0)
G21
G90
G94
F80.00
G00 Z1.0000
G00 X30.3750Y24.3250
G01 Z-1.1200
G01 X31.3750Y24.4000
G00 Z1.0000
G00 X36.5000Y40.4000
G01 Z-1.1200
G01 X37.6750Y27.2500
G01 X36.4750Y27.1500
G01 X36.6750Y24.5750
G01 X42.5250Y25.0750
G00 Z1.0000
G00 X36.5000Y40.4000
G01 Z-1.1200
G01 X30.0250Y39.8500
G01 X31.3750Y24.4000
G00 Z1.0000
G00 X30.3750Y24.3250
G01 Z-1.1200
G01 X31.7250Y8.8750
G01 X43.9250Y9.9250
G01 X42.5250Y25.0750
G00 Z1.0000
(Initialize HP-GL/2-mode)
(PT0)
G21
G90
G94
F80.00
G00 Z1.0000
G00 X30.3750Y24.3250
G01 Z-1.4000
G01 X31.3750Y24.4000
G00 Z1.0000
G00 X36.5000Y40.4000
G01 Z-1.4000
G01 X37.6750Y27.2500
G01 X36.4750Y27.1500
G01 X36.6750Y24.5750
G01 X42.5250Y25.0750
G00 Z1.0000
G00 X36.5000Y40.4000
G01 Z-1.4000
G01 X30.0250Y39.8500
G01 X31.3750Y24.4000
G00 Z1.0000
G00 X30.3750Y24.3250
G01 Z-1.4000
G01 X31.7250Y8.8750
G01 X43.9250Y9.9250
G01 X42.5250Y25.0750
G00 Z1.0000
(Ende)
G80
G90
G00 Z10 X0 Y0
M05
M09
M30