%Generated by HPGL2GCODE
(Start)
M03 S500
G4 P1
M03 S750
G4 P1
M03 S1000
G4 P2
(Initialize HP-GL/2-mode)
(PT0)
G21
G90
G94
F80.00
G00 Z1.0000
G00 X52.0000Y6.5000
G01 Z-0.3000
G01 X48.0000Y6.5000
G01 X46.0000Y6.0000
G01 X31.0000Y6.0000
G01 X22.0000Y13.0000
G01 X11.0000Y13.0000
G01 X6.0000Y8.5000
G01 X4.5000Y8.0000
G01 X1.0000Y5.0000
G01 X4.5000Y1.0000
G01 X7.5000Y4.5000
G01 X8.0000Y6.0000
G01 X11.0000Y8.5000
G01 X22.0000Y8.5000
G01 X31.0000Y1.5000
G01 X46.0000Y1.5000
G01 X48.0000Y1.0000
G01 X52.0000Y1.0000
G01 X52.5000Y2.5000
G01 X52.5000Y5.0000
G01 X52.0000Y6.5000
G00 Z1.0000
G00 X31.6000Y9.8000
G01 Z-0.3000
G01 X36.9000Y9.8000
G01 X37.6000Y8.0000
G01 X37.0000Y6.0000
G01 X31.6000Y6.0000
G01 X31.0000Y8.0000
G01 X31.6000Y9.8000
G00 Z1.0000
G00 X39.7000Y9.8000
G01 Z-0.3000
G01 X45.0000Y9.8000
G01 X45.7000Y8.0000
G01 X45.1000Y6.0000
G01 X39.7000Y6.0000
G01 X39.1000Y8.0000
G01 X39.7000Y9.8000
G00 Z1.0000
(Initialize HP-GL/2-mode)
(PT0)
G21
G90
G94
F80.00
G00 Z1.0000
G00 X52.0000Y6.5000
G01 Z-0.6000
G01 X48.0000Y6.5000
G01 X46.0000Y6.0000
G01 X31.0000Y6.0000
G01 X22.0000Y13.0000
G01 X11.0000Y13.0000
G01 X6.0000Y8.5000
G01 X4.5000Y8.0000
G01 X1.0000Y5.0000
G01 X4.5000Y1.0000
G01 X7.5000Y4.5000
G01 X8.0000Y6.0000
G01 X11.0000Y8.5000
G01 X22.0000Y8.5000
G01 X31.0000Y1.5000
G01 X46.0000Y1.5000
G01 X48.0000Y1.0000
G01 X52.0000Y1.0000
G01 X52.5000Y2.5000
G01 X52.5000Y5.0000
G01 X52.0000Y6.5000
G00 Z1.0000
G00 X31.6000Y9.8000
G01 Z-0.6000
G01 X36.9000Y9.8000
G01 X37.6000Y8.0000
G01 X37.0000Y6.0000
G01 X31.6000Y6.0000
G01 X31.0000Y8.0000
G01 X31.6000Y9.8000
G00 Z1.0000
G00 X39.7000Y9.8000
G01 Z-0.6000
G01 X45.0000Y9.8000
G01 X45.7000Y8.0000
G01 X45.1000Y6.0000
G01 X39.7000Y6.0000
G01 X39.1000Y8.0000
G01 X39.7000Y9.8000
G00 Z1.0000
(Initialize HP-GL/2-mode)
(PT0)
G21
G90
G94
F80.00
G00 Z1.0000
G00 X52.0000Y6.5000
G01 Z-0.9000
G01 X48.0000Y6.5000
G01 X46.0000Y6.0000
G01 X31.0000Y6.0000
G01 X22.0000Y13.0000
G01 X11.0000Y13.0000
G01 X6.0000Y8.5000
G01 X4.5000Y8.0000
G01 X1.0000Y5.0000
G01 X4.5000Y1.0000
G01 X7.5000Y4.5000
G01 X8.0000Y6.0000
G01 X11.0000Y8.5000
G01 X22.0000Y8.5000
G01 X31.0000Y1.5000
G01 X46.0000Y1.5000
G01 X48.0000Y1.0000
G01 X52.0000Y1.0000
G01 X52.5000Y2.5000
G01 X52.5000Y5.0000
G01 X52.0000Y6.5000
G00 Z1.0000
G00 X31.6000Y9.8000
G01 Z-0.9000
G01 X36.9000Y9.8000
G01 X37.6000Y8.0000
G01 X37.0000Y6.0000
G01 X31.6000Y6.0000
G01 X31.0000Y8.0000
G01 X31.6000Y9.8000
G00 Z1.0000
G00 X39.7000Y9.8000
G01 Z-0.9000
G01 X45.0000Y9.8000
G01 X45.7000Y8.0000
G01 X45.1000Y6.0000
G01 X39.7000Y6.0000
G01 X39.1000Y8.0000
G01 X39.7000Y9.8000
G00 Z1.0000
(Initialize HP-GL/2-mode)
(PT0)
G21
G90
G94
F80.00
G00 Z1.0000
G00 X52.0000Y6.5000
G01 Z-1.2000
G01 X48.0000Y6.5000
G01 X46.0000Y6.0000
G01 X31.0000Y6.0000
G01 X22.0000Y13.0000
G01 X11.0000Y13.0000
G01 X6.0000Y8.5000
G01 X4.5000Y8.0000
G01 X1.0000Y5.0000
G01 X4.5000Y1.0000
G01 X7.5000Y4.5000
G01 X8.0000Y6.0000
G01 X11.0000Y8.5000
G01 X22.0000Y8.5000
G01 X31.0000Y1.5000
G01 X46.0000Y1.5000
G01 X48.0000Y1.0000
G01 X52.0000Y1.0000
G01 X52.5000Y2.5000
G01 X52.5000Y5.0000
G01 X52.0000Y6.5000
G00 Z1.0000
G00 X31.6000Y9.8000
G01 Z-1.2000
G01 X36.9000Y9.8000
G01 X37.6000Y8.0000
G01 X37.0000Y6.0000
G01 X31.6000Y6.0000
G01 X31.0000Y8.0000
G01 X31.6000Y9.8000
G00 Z1.0000
G00 X39.7000Y9.8000
G01 Z-1.2000
G01 X45.0000Y9.8000
G01 X45.7000Y8.0000
G01 X45.1000Y6.0000
G01 X39.7000Y6.0000
G01 X39.1000Y8.0000
G01 X39.7000Y9.8000
G00 Z1.0000
(Initialize HP-GL/2-mode)
(PT0)
G21
G90
G94
F80.00
G00 Z1.0000
G00 X52.0000Y6.5000
G01 Z-1.5000
G01 X48.0000Y6.5000
G01 X46.0000Y6.0000
G01 X31.0000Y6.0000
G01 X22.0000Y13.0000
G01 X11.0000Y13.0000
G01 X6.0000Y8.5000
G01 X4.5000Y8.0000
G01 X1.0000Y5.0000
G01 X4.5000Y1.0000
G01 X7.5000Y4.5000
G01 X8.0000Y6.0000
G01 X11.0000Y8.5000
G01 X22.0000Y8.5000
G01 X31.0000Y1.5000
G01 X46.0000Y1.5000
G01 X48.0000Y1.0000
G01 X52.0000Y1.0000
G01 X52.5000Y2.5000
G01 X52.5000Y5.0000
G01 X52.0000Y6.5000
G00 Z1.0000
G00 X31.6000Y9.8000
G01 Z-1.5000
G01 X36.9000Y9.8000
G01 X37.6000Y8.0000
G01 X37.0000Y6.0000
G01 X31.6000Y6.0000
G01 X31.0000Y8.0000
G01 X31.6000Y9.8000
G00 Z1.0000
G00 X39.7000Y9.8000
G01 Z-1.5000
G01 X45.0000Y9.8000
G01 X45.7000Y8.0000
G01 X45.1000Y6.0000
G01 X39.7000Y6.0000
G01 X39.1000Y8.0000
G01 X39.7000Y9.8000
G00 Z1.0000
(Ende)
G80
G90
G00 Z10 X0 Y0
M05
M09
M30