%Generated by HPGL2GCODE
(Start)
M03 S500
G4 P1
M03 S750
G4 P1
M03 S1000
G4 P2
(Initialize HP-GL/2-mode)
(PT0)
G21
G90
G94
F80.00
G00 Z1.0000
G00 X0.0000Y54.0000
G01 Z-0.2800
G01 X90.0000Y54.0000
G00 Z1.0000
G00 X90.0000Y54.0000
G01 Z-0.2800
G01 X90.0000Y21.5000
G00 Z1.0000
G00 X0.0000Y54.0000
G01 Z-0.2800
G01 X0.0000Y23.5000
G00 Z1.0000
G00 X0.0000Y23.5000
G01 Z-0.2800
G01 X9.0000Y0.5000
G00 Z1.0000
G00 X9.0000Y0.5000
G01 Z-0.2800
G01 X90.0000Y21.5000
G00 Z1.0000
G00 X64.3750Y32.9500
G01 Z-0.2800
G01 X64.4750Y33.9500
G00 Z1.0000
G00 X49.6000Y41.7750
G01 Z-0.2800
G01 X62.7500Y40.6500
G01 X62.6500Y39.4500
G01 X65.2250Y39.2000
G01 X65.7500Y45.0500
G00 Z1.0000
G00 X49.6000Y41.7750
G01 Z-0.2800
G01 X49.0250Y35.3000
G01 X58.8500Y34.3500
G01 X58.6500Y31.9500
G01 X61.2500Y31.7500
G01 X61.4500Y34.1000
G01 X64.4750Y33.9500
G00 Z1.0000
G00 X64.3750Y32.9500
G01 Z-0.2800
G01 X79.8250Y31.6000
G01 X80.9000Y43.7750
G01 X65.7500Y45.0500
G00 Z1.0000
(Initialize HP-GL/2-mode)
(PT0)
G21
G90
G94
F80.00
G00 Z1.0000
G00 X0.0000Y54.0000
G01 Z-0.5600
G01 X90.0000Y54.0000
G00 Z1.0000
G00 X90.0000Y54.0000
G01 Z-0.5600
G01 X90.0000Y21.5000
G00 Z1.0000
G00 X0.0000Y54.0000
G01 Z-0.5600
G01 X0.0000Y23.5000
G00 Z1.0000
G00 X0.0000Y23.5000
G01 Z-0.5600
G01 X9.0000Y0.5000
G00 Z1.0000
G00 X9.0000Y0.5000
G01 Z-0.5600
G01 X90.0000Y21.5000
G00 Z1.0000
G00 X64.3750Y32.9500
G01 Z-0.5600
G01 X64.4750Y33.9500
G00 Z1.0000
G00 X49.6000Y41.7750
G01 Z-0.5600
G01 X62.7500Y40.6500
G01 X62.6500Y39.4500
G01 X65.2250Y39.2000
G01 X65.7500Y45.0500
G00 Z1.0000
G00 X49.6000Y41.7750
G01 Z-0.5600
G01 X49.0250Y35.3000
G01 X58.8500Y34.3500
G01 X58.6500Y31.9500
G01 X61.2500Y31.7500
G01 X61.4500Y34.1000
G01 X64.4750Y33.9500
G00 Z1.0000
G00 X64.3750Y32.9500
G01 Z-0.5600
G01 X79.8250Y31.6000
G01 X80.9000Y43.7750
G01 X65.7500Y45.0500
G00 Z1.0000
(Initialize HP-GL/2-mode)
(PT0)
G21
G90
G94
F80.00
G00 Z1.0000
G00 X0.0000Y54.0000
G01 Z-0.8400
G01 X90.0000Y54.0000
G00 Z1.0000
G00 X90.0000Y54.0000
G01 Z-0.8400
G01 X90.0000Y21.5000
G00 Z1.0000
G00 X0.0000Y54.0000
G01 Z-0.8400
G01 X0.0000Y23.5000
G00 Z1.0000
G00 X0.0000Y23.5000
G01 Z-0.8400
G01 X9.0000Y0.5000
G00 Z1.0000
G00 X9.0000Y0.5000
G01 Z-0.8400
G01 X90.0000Y21.5000
G00 Z1.0000
G00 X64.3750Y32.9500
G01 Z-0.8400
G01 X64.4750Y33.9500
G00 Z1.0000
G00 X49.6000Y41.7750
G01 Z-0.8400
G01 X62.7500Y40.6500
G01 X62.6500Y39.4500
G01 X65.2250Y39.2000
G01 X65.7500Y45.0500
G00 Z1.0000
G00 X49.6000Y41.7750
G01 Z-0.8400
G01 X49.0250Y35.3000
G01 X58.8500Y34.3500
G01 X58.6500Y31.9500
G01 X61.2500Y31.7500
G01 X61.4500Y34.1000
G01 X64.4750Y33.9500
G00 Z1.0000
G00 X64.3750Y32.9500
G01 Z-0.8400
G01 X79.8250Y31.6000
G01 X80.9000Y43.7750
G01 X65.7500Y45.0500
G00 Z1.0000
(Initialize HP-GL/2-mode)
(PT0)
G21
G90
G94
F80.00
G00 Z1.0000
G00 X0.0000Y54.0000
G01 Z-1.1200
G01 X90.0000Y54.0000
G00 Z1.0000
G00 X90.0000Y54.0000
G01 Z-1.1200
G01 X90.0000Y21.5000
G00 Z1.0000
G00 X0.0000Y54.0000
G01 Z-1.1200
G01 X0.0000Y23.5000
G00 Z1.0000
G00 X0.0000Y23.5000
G01 Z-1.1200
G01 X9.0000Y0.5000
G00 Z1.0000
G00 X9.0000Y0.5000
G01 Z-1.1200
G01 X90.0000Y21.5000
G00 Z1.0000
G00 X64.3750Y32.9500
G01 Z-1.1200
G01 X64.4750Y33.9500
G00 Z1.0000
G00 X49.6000Y41.7750
G01 Z-1.1200
G01 X62.7500Y40.6500
G01 X62.6500Y39.4500
G01 X65.2250Y39.2000
G01 X65.7500Y45.0500
G00 Z1.0000
G00 X49.6000Y41.7750
G01 Z-1.1200
G01 X49.0250Y35.3000
G01 X58.8500Y34.3500
G01 X58.6500Y31.9500
G01 X61.2500Y31.7500
G01 X61.4500Y34.1000
G01 X64.4750Y33.9500
G00 Z1.0000
G00 X64.3750Y32.9500
G01 Z-1.1200
G01 X79.8250Y31.6000
G01 X80.9000Y43.7750
G01 X65.7500Y45.0500
G00 Z1.0000
(Initialize HP-GL/2-mode)
(PT0)
G21
G90
G94
F80.00
G00 Z1.0000
G00 X0.0000Y54.0000
G01 Z-1.4000
G01 X90.0000Y54.0000
G00 Z1.0000
G00 X90.0000Y54.0000
G01 Z-1.4000
G01 X90.0000Y21.5000
G00 Z1.0000
G00 X0.0000Y54.0000
G01 Z-1.4000
G01 X0.0000Y23.5000
G00 Z1.0000
G00 X0.0000Y23.5000
G01 Z-1.4000
G01 X9.0000Y0.5000
G00 Z1.0000
G00 X9.0000Y0.5000
G01 Z-1.4000
G01 X90.0000Y21.5000
G00 Z1.0000
G00 X64.3750Y32.9500
G01 Z-1.4000
G01 X64.4750Y33.9500
G00 Z1.0000
G00 X49.6000Y41.7750
G01 Z-1.4000
G01 X62.7500Y40.6500
G01 X62.6500Y39.4500
G01 X65.2250Y39.2000
G01 X65.7500Y45.0500
G00 Z1.0000
G00 X49.6000Y41.7750
G01 Z-1.4000
G01 X49.0250Y35.3000
G01 X58.8500Y34.3500
G01 X58.6500Y31.9500
G01 X61.2500Y31.7500
G01 X61.4500Y34.1000
G01 X64.4750Y33.9500
G00 Z1.0000
G00 X64.3750Y32.9500
G01 Z-1.4000
G01 X79.8250Y31.6000
G01 X80.9000Y43.7750
G01 X65.7500Y45.0500
G00 Z1.0000
(Ende)
G80
G90
G00 Z10 X0 Y0
M05
M09
M30