%Generated by HPGL2GCODE
(Start)
M03 S500
G4 P1
M03 S750
G4 P1
M03 S1000
G4 P2
(Initialize HP-GL/2-mode)
(PT0)
G21
G90
G94
F80.00
G00 Z1.0000
G00 X90.0000Y54.0000
G01 Z-0.2000
G01 X0.0000Y54.0000
G00 Z1.0000
G00 X0.0000Y54.0000
G01 Z-0.2000
G01 X0.0000Y21.5000
G00 Z1.0000
G00 X90.0000Y54.0000
G01 Z-0.2000
G01 X90.0000Y23.5000
G00 Z1.0000
G00 X90.0000Y23.5000
G01 Z-0.2000
G01 X81.0000Y0.5000
G00 Z1.0000
G00 X81.0000Y0.5000
G01 Z-0.2000
G01 X0.0000Y21.5000
G00 Z1.0000
G00 X26.6250Y32.5250
G01 Z-0.2000
G01 X26.5500Y33.5250
G00 Z1.0000
G00 X41.4250Y41.3500
G01 Z-0.2000
G01 X25.9750Y40.0000
G01 X25.8500Y41.5000
G00 Z1.0000
G00 X41.4250Y41.3500
G01 Z-0.2000
G01 X41.9750Y34.8750
G01 X32.0500Y33.9500
G01 X32.3500Y31.6500
G01 X29.7500Y31.3500
G01 X29.5500Y33.7000
G01 X26.5500Y33.5250
G00 Z1.0000
G00 X26.6250Y32.5250
G01 Z-0.2000
G01 X11.1750Y31.1750
G01 X10.4000Y40.1500
G01 X25.8500Y41.5000
G00 Z1.0000
G00 X10.3500Y41.6000
G01 Z-0.2000
G01 X25.0000Y42.9000
G01 X24.9500Y44.7000
G01 X10.2000Y43.4000
G01 X10.3500Y41.6000
G00 Z1.0000
(Initialize HP-GL/2-mode)
(PT0)
G21
G90
G94
F80.00
G00 Z1.0000
G00 X90.0000Y54.0000
G01 Z-0.4000
G01 X0.0000Y54.0000
G00 Z1.0000
G00 X0.0000Y54.0000
G01 Z-0.4000
G01 X0.0000Y21.5000
G00 Z1.0000
G00 X90.0000Y54.0000
G01 Z-0.4000
G01 X90.0000Y23.5000
G00 Z1.0000
G00 X90.0000Y23.5000
G01 Z-0.4000
G01 X81.0000Y0.5000
G00 Z1.0000
G00 X81.0000Y0.5000
G01 Z-0.4000
G01 X0.0000Y21.5000
G00 Z1.0000
G00 X26.6250Y32.5250
G01 Z-0.4000
G01 X26.5500Y33.5250
G00 Z1.0000
G00 X41.4250Y41.3500
G01 Z-0.4000
G01 X25.9750Y40.0000
G01 X25.8500Y41.5000
G00 Z1.0000
G00 X41.4250Y41.3500
G01 Z-0.4000
G01 X41.9750Y34.8750
G01 X32.0500Y33.9500
G01 X32.3500Y31.6500
G01 X29.7500Y31.3500
G01 X29.5500Y33.7000
G01 X26.5500Y33.5250
G00 Z1.0000
G00 X26.6250Y32.5250
G01 Z-0.4000
G01 X11.1750Y31.1750
G01 X10.4000Y40.1500
G01 X25.8500Y41.5000
G00 Z1.0000
G00 X10.3500Y41.6000
G01 Z-0.4000
G01 X25.0000Y42.9000
G01 X24.9500Y44.7000
G01 X10.2000Y43.4000
G01 X10.3500Y41.6000
G00 Z1.0000
(Initialize HP-GL/2-mode)
(PT0)
G21
G90
G94
F80.00
G00 Z1.0000
G00 X90.0000Y54.0000
G01 Z-0.6000
G01 X0.0000Y54.0000
G00 Z1.0000
G00 X0.0000Y54.0000
G01 Z-0.6000
G01 X0.0000Y21.5000
G00 Z1.0000
G00 X90.0000Y54.0000
G01 Z-0.6000
G01 X90.0000Y23.5000
G00 Z1.0000
G00 X90.0000Y23.5000
G01 Z-0.6000
G01 X81.0000Y0.5000
G00 Z1.0000
G00 X81.0000Y0.5000
G01 Z-0.6000
G01 X0.0000Y21.5000
G00 Z1.0000
G00 X26.6250Y32.5250
G01 Z-0.6000
G01 X26.5500Y33.5250
G00 Z1.0000
G00 X41.4250Y41.3500
G01 Z-0.6000
G01 X25.9750Y40.0000
G01 X25.8500Y41.5000
G00 Z1.0000
G00 X41.4250Y41.3500
G01 Z-0.6000
G01 X41.9750Y34.8750
G01 X32.0500Y33.9500
G01 X32.3500Y31.6500
G01 X29.7500Y31.3500
G01 X29.5500Y33.7000
G01 X26.5500Y33.5250
G00 Z1.0000
G00 X26.6250Y32.5250
G01 Z-0.6000
G01 X11.1750Y31.1750
G01 X10.4000Y40.1500
G01 X25.8500Y41.5000
G00 Z1.0000
G00 X10.3500Y41.6000
G01 Z-0.6000
G01 X25.0000Y42.9000
G01 X24.9500Y44.7000
G01 X10.2000Y43.4000
G01 X10.3500Y41.6000
G00 Z1.0000
(Initialize HP-GL/2-mode)
(PT0)
G21
G90
G94
F80.00
G00 Z1.0000
G00 X90.0000Y54.0000
G01 Z-0.8000
G01 X0.0000Y54.0000
G00 Z1.0000
G00 X0.0000Y54.0000
G01 Z-0.8000
G01 X0.0000Y21.5000
G00 Z1.0000
G00 X90.0000Y54.0000
G01 Z-0.8000
G01 X90.0000Y23.5000
G00 Z1.0000
G00 X90.0000Y23.5000
G01 Z-0.8000
G01 X81.0000Y0.5000
G00 Z1.0000
G00 X81.0000Y0.5000
G01 Z-0.8000
G01 X0.0000Y21.5000
G00 Z1.0000
G00 X26.6250Y32.5250
G01 Z-0.8000
G01 X26.5500Y33.5250
G00 Z1.0000
G00 X41.4250Y41.3500
G01 Z-0.8000
G01 X25.9750Y40.0000
G01 X25.8500Y41.5000
G00 Z1.0000
G00 X41.4250Y41.3500
G01 Z-0.8000
G01 X41.9750Y34.8750
G01 X32.0500Y33.9500
G01 X32.3500Y31.6500
G01 X29.7500Y31.3500
G01 X29.5500Y33.7000
G01 X26.5500Y33.5250
G00 Z1.0000
G00 X26.6250Y32.5250
G01 Z-0.8000
G01 X11.1750Y31.1750
G01 X10.4000Y40.1500
G01 X25.8500Y41.5000
G00 Z1.0000
G00 X10.3500Y41.6000
G01 Z-0.8000
G01 X25.0000Y42.9000
G01 X24.9500Y44.7000
G01 X10.2000Y43.4000
G01 X10.3500Y41.6000
G00 Z1.0000
(Initialize HP-GL/2-mode)
(PT0)
G21
G90
G94
F80.00
G00 Z1.0000
G00 X90.0000Y54.0000
G01 Z-1.0000
G01 X0.0000Y54.0000
G00 Z1.0000
G00 X0.0000Y54.0000
G01 Z-1.0000
G01 X0.0000Y21.5000
G00 Z1.0000
G00 X90.0000Y54.0000
G01 Z-1.0000
G01 X90.0000Y23.5000
G00 Z1.0000
G00 X90.0000Y23.5000
G01 Z-1.0000
G01 X81.0000Y0.5000
G00 Z1.0000
G00 X81.0000Y0.5000
G01 Z-1.0000
G01 X0.0000Y21.5000
G00 Z1.0000
G00 X26.6250Y32.5250
G01 Z-1.0000
G01 X26.5500Y33.5250
G00 Z1.0000
G00 X41.4250Y41.3500
G01 Z-1.0000
G01 X25.9750Y40.0000
G01 X25.8500Y41.5000
G00 Z1.0000
G00 X41.4250Y41.3500
G01 Z-1.0000
G01 X41.9750Y34.8750
G01 X32.0500Y33.9500
G01 X32.3500Y31.6500
G01 X29.7500Y31.3500
G01 X29.5500Y33.7000
G01 X26.5500Y33.5250
G00 Z1.0000
G00 X26.6250Y32.5250
G01 Z-1.0000
G01 X11.1750Y31.1750
G01 X10.4000Y40.1500
G01 X25.8500Y41.5000
G00 Z1.0000
G00 X10.3500Y41.6000
G01 Z-1.0000
G01 X25.0000Y42.9000
G01 X24.9500Y44.7000
G01 X10.2000Y43.4000
G01 X10.3500Y41.6000
G00 Z1.0000
(Initialize HP-GL/2-mode)
(PT0)
G21
G90
G94
F80.00
G00 Z1.0000
G00 X90.0000Y54.0000
G01 Z-1.2000
G01 X0.0000Y54.0000
G00 Z1.0000
G00 X0.0000Y54.0000
G01 Z-1.2000
G01 X0.0000Y21.5000
G00 Z1.0000
G00 X90.0000Y54.0000
G01 Z-1.2000
G01 X90.0000Y23.5000
G00 Z1.0000
G00 X90.0000Y23.5000
G01 Z-1.2000
G01 X81.0000Y0.5000
G00 Z1.0000
G00 X81.0000Y0.5000
G01 Z-1.2000
G01 X0.0000Y21.5000
G00 Z1.0000
G00 X26.6250Y32.5250
G01 Z-1.2000
G01 X26.5500Y33.5250
G00 Z1.0000
G00 X41.4250Y41.3500
G01 Z-1.2000
G01 X25.9750Y40.0000
G01 X25.8500Y41.5000
G00 Z1.0000
G00 X41.4250Y41.3500
G01 Z-1.2000
G01 X41.9750Y34.8750
G01 X32.0500Y33.9500
G01 X32.3500Y31.6500
G01 X29.7500Y31.3500
G01 X29.5500Y33.7000
G01 X26.5500Y33.5250
G00 Z1.0000
G00 X26.6250Y32.5250
G01 Z-1.2000
G01 X11.1750Y31.1750
G01 X10.4000Y40.1500
G01 X25.8500Y41.5000
G00 Z1.0000
G00 X10.3500Y41.6000
G01 Z-1.2000
G01 X25.0000Y42.9000
G01 X24.9500Y44.7000
G01 X10.2000Y43.4000
G01 X10.3500Y41.6000
G00 Z1.0000
(Initialize HP-GL/2-mode)
(PT0)
G21
G90
G94
F80.00
G00 Z1.0000
G00 X90.0000Y54.0000
G01 Z-1.4000
G01 X0.0000Y54.0000
G00 Z1.0000
G00 X0.0000Y54.0000
G01 Z-1.4000
G01 X0.0000Y21.5000
G00 Z1.0000
G00 X90.0000Y54.0000
G01 Z-1.4000
G01 X90.0000Y23.5000
G00 Z1.0000
G00 X90.0000Y23.5000
G01 Z-1.4000
G01 X81.0000Y0.5000
G00 Z1.0000
G00 X81.0000Y0.5000
G01 Z-1.4000
G01 X0.0000Y21.5000
G00 Z1.0000
G00 X26.6250Y32.5250
G01 Z-1.4000
G01 X26.5500Y33.5250
G00 Z1.0000
G00 X41.4250Y41.3500
G01 Z-1.4000
G01 X25.9750Y40.0000
G01 X25.8500Y41.5000
G00 Z1.0000
G00 X41.4250Y41.3500
G01 Z-1.4000
G01 X41.9750Y34.8750
G01 X32.0500Y33.9500
G01 X32.3500Y31.6500
G01 X29.7500Y31.3500
G01 X29.5500Y33.7000
G01 X26.5500Y33.5250
G00 Z1.0000
G00 X26.6250Y32.5250
G01 Z-1.4000
G01 X11.1750Y31.1750
G01 X10.4000Y40.1500
G01 X25.8500Y41.5000
G00 Z1.0000
G00 X10.3500Y41.6000
G01 Z-1.4000
G01 X25.0000Y42.9000
G01 X24.9500Y44.7000
G01 X10.2000Y43.4000
G01 X10.3500Y41.6000
G00 Z1.0000
(Initialize HP-GL/2-mode)
(PT0)
G21
G90
G94
F80.00
G00 Z1.0000
G00 X90.0000Y54.0000
G01 Z-1.6000
G01 X0.0000Y54.0000
G00 Z1.0000
G00 X0.0000Y54.0000
G01 Z-1.6000
G01 X0.0000Y21.5000
G00 Z1.0000
G00 X90.0000Y54.0000
G01 Z-1.6000
G01 X90.0000Y23.5000
G00 Z1.0000
G00 X90.0000Y23.5000
G01 Z-1.6000
G01 X81.0000Y0.5000
G00 Z1.0000
G00 X81.0000Y0.5000
G01 Z-1.6000
G01 X0.0000Y21.5000
G00 Z1.0000
G00 X26.6250Y32.5250
G01 Z-1.6000
G01 X26.5500Y33.5250
G00 Z1.0000
G00 X41.4250Y41.3500
G01 Z-1.6000
G01 X25.9750Y40.0000
G01 X25.8500Y41.5000
G00 Z1.0000
G00 X41.4250Y41.3500
G01 Z-1.6000
G01 X41.9750Y34.8750
G01 X32.0500Y33.9500
G01 X32.3500Y31.6500
G01 X29.7500Y31.3500
G01 X29.5500Y33.7000
G01 X26.5500Y33.5250
G00 Z1.0000
G00 X26.6250Y32.5250
G01 Z-1.6000
G01 X11.1750Y31.1750
G01 X10.4000Y40.1500
G01 X25.8500Y41.5000
G00 Z1.0000
G00 X10.3500Y41.6000
G01 Z-1.6000
G01 X25.0000Y42.9000
G01 X24.9500Y44.7000
G01 X10.2000Y43.4000
G01 X10.3500Y41.6000
G00 Z1.0000
(Ende)
G80
G90
G00 Z10 X0 Y0
M05
M09
M30