%Generated by HPGL2GCODE
(Start)
M03 S500
G4 P1
M03 S750
G4 P1
M03 S1000
G4 P2
(Initialize HP-GL/2-mode)
(PT0)
G21
G90
G94
F80.00
G00 Z1.0000
G00 X97.0750Y47.0750
G01 Z-0.3000
G01 X77.0000Y49.0000
G01 X28.6000Y40.3250
G01 X28.8000Y38.8500
G01 X26.5500Y38.5500
G01 X26.3750Y40.0250
G01 X0.8500Y36.6500
G01 X1.4000Y12.7000
G01 X41.7000Y7.0250
G01 X41.5750Y2.4000
G01 X68.9750Y0.0750
G01 X98.8250Y1.7500
G01 X101.8000Y21.8250
G01 X96.8000Y23.9500
G01 X96.3500Y22.7750
G01 X96.5000Y21.5750
G01 X96.1000Y20.5250
G01 X94.4500Y20.2750
G01 X93.3500Y21.4750
G01 X91.2500Y21.2500
G01 X89.6750Y21.8250
G01 X88.9250Y22.6500
G01 X88.7750Y23.7750
G01 X88.9500Y24.9750
G01 X87.8500Y26.4500
G01 X86.3500Y27.8750
G01 X86.9750Y29.3250
G01 X88.2500Y29.9250
G01 X89.4500Y29.0000
G01 X90.3000Y27.6250
G01 X91.0250Y27.0750
G01 X93.6750Y27.3250
G01 X95.1000Y27.4500
G01 X96.3000Y26.9000
G01 X96.7750Y25.3500
G01 X101.5000Y27.7500
G01 X97.1750Y47.0750
G00 Z1.0000
(Initialize HP-GL/2-mode)
(PT0)
G21
G90
G94
F80.00
G00 Z1.0000
G00 X97.0750Y47.0750
G01 Z-0.6000
G01 X77.0000Y49.0000
G01 X28.6000Y40.3250
G01 X28.8000Y38.8500
G01 X26.5500Y38.5500
G01 X26.3750Y40.0250
G01 X0.8500Y36.6500
G01 X1.4000Y12.7000
G01 X41.7000Y7.0250
G01 X41.5750Y2.4000
G01 X68.9750Y0.0750
G01 X98.8250Y1.7500
G01 X101.8000Y21.8250
G01 X96.8000Y23.9500
G01 X96.3500Y22.7750
G01 X96.5000Y21.5750
G01 X96.1000Y20.5250
G01 X94.4500Y20.2750
G01 X93.3500Y21.4750
G01 X91.2500Y21.2500
G01 X89.6750Y21.8250
G01 X88.9250Y22.6500
G01 X88.7750Y23.7750
G01 X88.9500Y24.9750
G01 X87.8500Y26.4500
G01 X86.3500Y27.8750
G01 X86.9750Y29.3250
G01 X88.2500Y29.9250
G01 X89.4500Y29.0000
G01 X90.3000Y27.6250
G01 X91.0250Y27.0750
G01 X93.6750Y27.3250
G01 X95.1000Y27.4500
G01 X96.3000Y26.9000
G01 X96.7750Y25.3500
G01 X101.5000Y27.7500
G01 X97.1750Y47.0750
G00 Z1.0000
(Initialize HP-GL/2-mode)
(PT0)
G21
G90
G94
F80.00
G00 Z1.0000
G00 X97.0750Y47.0750
G01 Z-0.9000
G01 X77.0000Y49.0000
G01 X28.6000Y40.3250
G01 X28.8000Y38.8500
G01 X26.5500Y38.5500
G01 X26.3750Y40.0250
G01 X0.8500Y36.6500
G01 X1.4000Y12.7000
G01 X41.7000Y7.0250
G01 X41.5750Y2.4000
G01 X68.9750Y0.0750
G01 X98.8250Y1.7500
G01 X101.8000Y21.8250
G01 X96.8000Y23.9500
G01 X96.3500Y22.7750
G01 X96.5000Y21.5750
G01 X96.1000Y20.5250
G01 X94.4500Y20.2750
G01 X93.3500Y21.4750
G01 X91.2500Y21.2500
G01 X89.6750Y21.8250
G01 X88.9250Y22.6500
G01 X88.7750Y23.7750
G01 X88.9500Y24.9750
G01 X87.8500Y26.4500
G01 X86.3500Y27.8750
G01 X86.9750Y29.3250
G01 X88.2500Y29.9250
G01 X89.4500Y29.0000
G01 X90.3000Y27.6250
G01 X91.0250Y27.0750
G01 X93.6750Y27.3250
G01 X95.1000Y27.4500
G01 X96.3000Y26.9000
G01 X96.7750Y25.3500
G01 X101.5000Y27.7500
G01 X97.1750Y47.0750
G00 Z1.0000
(Initialize HP-GL/2-mode)
(PT0)
G21
G90
G94
F80.00
G00 Z1.0000
G00 X97.0750Y47.0750
G01 Z-1.2000
G01 X77.0000Y49.0000
G01 X28.6000Y40.3250
G01 X28.8000Y38.8500
G01 X26.5500Y38.5500
G01 X26.3750Y40.0250
G01 X0.8500Y36.6500
G01 X1.4000Y12.7000
G01 X41.7000Y7.0250
G01 X41.5750Y2.4000
G01 X68.9750Y0.0750
G01 X98.8250Y1.7500
G01 X101.8000Y21.8250
G01 X96.8000Y23.9500
G01 X96.3500Y22.7750
G01 X96.5000Y21.5750
G01 X96.1000Y20.5250
G01 X94.4500Y20.2750
G01 X93.3500Y21.4750
G01 X91.2500Y21.2500
G01 X89.6750Y21.8250
G01 X88.9250Y22.6500
G01 X88.7750Y23.7750
G01 X88.9500Y24.9750
G01 X87.8500Y26.4500
G01 X86.3500Y27.8750
G01 X86.9750Y29.3250
G01 X88.2500Y29.9250
G01 X89.4500Y29.0000
G01 X90.3000Y27.6250
G01 X91.0250Y27.0750
G01 X93.6750Y27.3250
G01 X95.1000Y27.4500
G01 X96.3000Y26.9000
G01 X96.7750Y25.3500
G01 X101.5000Y27.7500
G01 X97.1750Y47.0750
G00 Z1.0000
(Initialize HP-GL/2-mode)
(PT0)
G21
G90
G94
F80.00
G00 Z1.0000
G00 X97.0750Y47.0750
G01 Z-1.5000
G01 X77.0000Y49.0000
G01 X28.6000Y40.3250
G01 X28.8000Y38.8500
G01 X26.5500Y38.5500
G01 X26.3750Y40.0250
G01 X0.8500Y36.6500
G01 X1.4000Y12.7000
G01 X41.7000Y7.0250
G01 X41.5750Y2.4000
G01 X68.9750Y0.0750
G01 X98.8250Y1.7500
G01 X101.8000Y21.8250
G01 X96.8000Y23.9500
G01 X96.3500Y22.7750
G01 X96.5000Y21.5750
G01 X96.1000Y20.5250
G01 X94.4500Y20.2750
G01 X93.3500Y21.4750
G01 X91.2500Y21.2500
G01 X89.6750Y21.8250
G01 X88.9250Y22.6500
G01 X88.7750Y23.7750
G01 X88.9500Y24.9750
G01 X87.8500Y26.4500
G01 X86.3500Y27.8750
G01 X86.9750Y29.3250
G01 X88.2500Y29.9250
G01 X89.4500Y29.0000
G01 X90.3000Y27.6250
G01 X91.0250Y27.0750
G01 X93.6750Y27.3250
G01 X95.1000Y27.4500
G01 X96.3000Y26.9000
G01 X96.7750Y25.3500
G01 X101.5000Y27.7500
G01 X97.1750Y47.0750
G00 Z1.0000
(Ende)
G80
G90
G00 Z10 X0 Y0
M05
M09
M30