%Generated by HPGL2GCODE
(Start)
M03 S500
G4 P1
M03 S750
G4 P1
M03 S1000
G4 P2
(Initialize HP-GL/2-mode)
(PT0)
G21
G90
G94
F80.00
G00 Z1.0000
G00 X0.7000Y81.6250
G01 Z-0.2800
G01 X26.2250Y88.5000
G00 Z1.0000
G00 X26.2250Y88.5000
G01 Z-0.2800
G01 X54.0000Y86.3000
G00 Z1.0000
G00 X14.8750Y0.6000
G01 Z-0.2800
G01 X13.4500Y22.8750
G01 X0.7000Y81.6250
G00 Z1.0000
G00 X14.8750Y0.6000
G01 Z-0.2800
G01 X51.2000Y0.6250
G01 X51.2000Y20.3500
G01 X49.7000Y20.3500
G01 X49.7000Y22.6000
G01 X51.2000Y22.6000
G01 X54.0000Y86.3000
G00 Z1.0000
G00 X26.1750Y6.5250
G01 Z-0.2800
G01 X23.9000Y20.2000
G01 X30.1500Y22.2500
G01 X29.5750Y25.7250
G01 X28.0750Y25.4750
G01 X26.2250Y37.9500
G01 X32.6500Y39.0250
G01 X35.1500Y23.8250
G01 X36.1250Y23.9750
G01 X38.7500Y8.6250
G01 X26.1750Y6.5250
G00 Z1.0000
G00 X30.3250Y51.9500
G01 Z-0.2800
G01 X42.0250Y51.9500
G01 X41.9250Y49.4500
G01 X44.1250Y47.2000
G01 X44.1250Y44.2000
G01 X49.7250Y44.2000
G01 X49.8250Y49.5500
G01 X49.5750Y64.7500
G01 X41.6250Y65.0000
G01 X41.6250Y62.3500
G01 X30.2750Y62.3500
G01 X30.3250Y51.9500
G00 Z1.0000
G00 X45.3250Y77.7000
G01 Z-0.2800
G01 X42.2250Y77.7000
G01 X42.2250Y74.1000
G01 X32.1250Y74.1000
G01 X32.1250Y77.8000
G01 X29.0250Y77.8000
G01 X29.0250Y82.6000
G01 X32.2250Y82.6000
G01 X32.2250Y86.4000
G01 X42.3250Y86.4000
G01 X42.3250Y82.5000
G01 X45.3250Y82.5000
G01 X45.3250Y77.7000
G00 Z1.0000
G00 X26.3500Y41.5000
G01 Z-0.2800
G01 X25.4000Y45.0250
G01 X26.5500Y45.3000
G01 X21.8500Y67.3750
G01 X9.4500Y64.7250
G01 X14.1500Y42.7000
G01 X15.3250Y42.9250
G01 X16.3000Y39.2500
G01 X26.3500Y41.5000
G00 Z1.0000
(Initialize HP-GL/2-mode)
(PT0)
G21
G90
G94
F80.00
G00 Z1.0000
G00 X0.7000Y81.6250
G01 Z-0.5600
G01 X26.2250Y88.5000
G00 Z1.0000
G00 X26.2250Y88.5000
G01 Z-0.5600
G01 X54.0000Y86.3000
G00 Z1.0000
G00 X14.8750Y0.6000
G01 Z-0.5600
G01 X13.4500Y22.8750
G01 X0.7000Y81.6250
G00 Z1.0000
G00 X14.8750Y0.6000
G01 Z-0.5600
G01 X51.2000Y0.6250
G01 X51.2000Y20.3500
G01 X49.7000Y20.3500
G01 X49.7000Y22.6000
G01 X51.2000Y22.6000
G01 X54.0000Y86.3000
G00 Z1.0000
G00 X26.1750Y6.5250
G01 Z-0.5600
G01 X23.9000Y20.2000
G01 X30.1500Y22.2500
G01 X29.5750Y25.7250
G01 X28.0750Y25.4750
G01 X26.2250Y37.9500
G01 X32.6500Y39.0250
G01 X35.1500Y23.8250
G01 X36.1250Y23.9750
G01 X38.7500Y8.6250
G01 X26.1750Y6.5250
G00 Z1.0000
G00 X30.3250Y51.9500
G01 Z-0.5600
G01 X42.0250Y51.9500
G01 X41.9250Y49.4500
G01 X44.1250Y47.2000
G01 X44.1250Y44.2000
G01 X49.7250Y44.2000
G01 X49.8250Y49.5500
G01 X49.5750Y64.7500
G01 X41.6250Y65.0000
G01 X41.6250Y62.3500
G01 X30.2750Y62.3500
G01 X30.3250Y51.9500
G00 Z1.0000
G00 X45.3250Y77.7000
G01 Z-0.5600
G01 X42.2250Y77.7000
G01 X42.2250Y74.1000
G01 X32.1250Y74.1000
G01 X32.1250Y77.8000
G01 X29.0250Y77.8000
G01 X29.0250Y82.6000
G01 X32.2250Y82.6000
G01 X32.2250Y86.4000
G01 X42.3250Y86.4000
G01 X42.3250Y82.5000
G01 X45.3250Y82.5000
G01 X45.3250Y77.7000
G00 Z1.0000
G00 X26.3500Y41.5000
G01 Z-0.5600
G01 X25.4000Y45.0250
G01 X26.5500Y45.3000
G01 X21.8500Y67.3750
G01 X9.4500Y64.7250
G01 X14.1500Y42.7000
G01 X15.3250Y42.9250
G01 X16.3000Y39.2500
G01 X26.3500Y41.5000
G00 Z1.0000
(Initialize HP-GL/2-mode)
(PT0)
G21
G90
G94
F80.00
G00 Z1.0000
G00 X0.7000Y81.6250
G01 Z-0.8400
G01 X26.2250Y88.5000
G00 Z1.0000
G00 X26.2250Y88.5000
G01 Z-0.8400
G01 X54.0000Y86.3000
G00 Z1.0000
G00 X14.8750Y0.6000
G01 Z-0.8400
G01 X13.4500Y22.8750
G01 X0.7000Y81.6250
G00 Z1.0000
G00 X14.8750Y0.6000
G01 Z-0.8400
G01 X51.2000Y0.6250
G01 X51.2000Y20.3500
G01 X49.7000Y20.3500
G01 X49.7000Y22.6000
G01 X51.2000Y22.6000
G01 X54.0000Y86.3000
G00 Z1.0000
G00 X26.1750Y6.5250
G01 Z-0.8400
G01 X23.9000Y20.2000
G01 X30.1500Y22.2500
G01 X29.5750Y25.7250
G01 X28.0750Y25.4750
G01 X26.2250Y37.9500
G01 X32.6500Y39.0250
G01 X35.1500Y23.8250
G01 X36.1250Y23.9750
G01 X38.7500Y8.6250
G01 X26.1750Y6.5250
G00 Z1.0000
G00 X30.3250Y51.9500
G01 Z-0.8400
G01 X42.0250Y51.9500
G01 X41.9250Y49.4500
G01 X44.1250Y47.2000
G01 X44.1250Y44.2000
G01 X49.7250Y44.2000
G01 X49.8250Y49.5500
G01 X49.5750Y64.7500
G01 X41.6250Y65.0000
G01 X41.6250Y62.3500
G01 X30.2750Y62.3500
G01 X30.3250Y51.9500
G00 Z1.0000
G00 X45.3250Y77.7000
G01 Z-0.8400
G01 X42.2250Y77.7000
G01 X42.2250Y74.1000
G01 X32.1250Y74.1000
G01 X32.1250Y77.8000
G01 X29.0250Y77.8000
G01 X29.0250Y82.6000
G01 X32.2250Y82.6000
G01 X32.2250Y86.4000
G01 X42.3250Y86.4000
G01 X42.3250Y82.5000
G01 X45.3250Y82.5000
G01 X45.3250Y77.7000
G00 Z1.0000
G00 X26.3500Y41.5000
G01 Z-0.8400
G01 X25.4000Y45.0250
G01 X26.5500Y45.3000
G01 X21.8500Y67.3750
G01 X9.4500Y64.7250
G01 X14.1500Y42.7000
G01 X15.3250Y42.9250
G01 X16.3000Y39.2500
G01 X26.3500Y41.5000
G00 Z1.0000
(Initialize HP-GL/2-mode)
(PT0)
G21
G90
G94
F80.00
G00 Z1.0000
G00 X0.7000Y81.6250
G01 Z-1.1200
G01 X26.2250Y88.5000
G00 Z1.0000
G00 X26.2250Y88.5000
G01 Z-1.1200
G01 X54.0000Y86.3000
G00 Z1.0000
G00 X14.8750Y0.6000
G01 Z-1.1200
G01 X13.4500Y22.8750
G01 X0.7000Y81.6250
G00 Z1.0000
G00 X14.8750Y0.6000
G01 Z-1.1200
G01 X51.2000Y0.6250
G01 X51.2000Y20.3500
G01 X49.7000Y20.3500
G01 X49.7000Y22.6000
G01 X51.2000Y22.6000
G01 X54.0000Y86.3000
G00 Z1.0000
G00 X26.1750Y6.5250
G01 Z-1.1200
G01 X23.9000Y20.2000
G01 X30.1500Y22.2500
G01 X29.5750Y25.7250
G01 X28.0750Y25.4750
G01 X26.2250Y37.9500
G01 X32.6500Y39.0250
G01 X35.1500Y23.8250
G01 X36.1250Y23.9750
G01 X38.7500Y8.6250
G01 X26.1750Y6.5250
G00 Z1.0000
G00 X30.3250Y51.9500
G01 Z-1.1200
G01 X42.0250Y51.9500
G01 X41.9250Y49.4500
G01 X44.1250Y47.2000
G01 X44.1250Y44.2000
G01 X49.7250Y44.2000
G01 X49.8250Y49.5500
G01 X49.5750Y64.7500
G01 X41.6250Y65.0000
G01 X41.6250Y62.3500
G01 X30.2750Y62.3500
G01 X30.3250Y51.9500
G00 Z1.0000
G00 X45.3250Y77.7000
G01 Z-1.1200
G01 X42.2250Y77.7000
G01 X42.2250Y74.1000
G01 X32.1250Y74.1000
G01 X32.1250Y77.8000
G01 X29.0250Y77.8000
G01 X29.0250Y82.6000
G01 X32.2250Y82.6000
G01 X32.2250Y86.4000
G01 X42.3250Y86.4000
G01 X42.3250Y82.5000
G01 X45.3250Y82.5000
G01 X45.3250Y77.7000
G00 Z1.0000
G00 X26.3500Y41.5000
G01 Z-1.1200
G01 X25.4000Y45.0250
G01 X26.5500Y45.3000
G01 X21.8500Y67.3750
G01 X9.4500Y64.7250
G01 X14.1500Y42.7000
G01 X15.3250Y42.9250
G01 X16.3000Y39.2500
G01 X26.3500Y41.5000
G00 Z1.0000
(Initialize HP-GL/2-mode)
(PT0)
G21
G90
G94
F80.00
G00 Z1.0000
G00 X0.7000Y81.6250
G01 Z-1.4000
G01 X26.2250Y88.5000
G00 Z1.0000
G00 X26.2250Y88.5000
G01 Z-1.4000
G01 X54.0000Y86.3000
G00 Z1.0000
G00 X14.8750Y0.6000
G01 Z-1.4000
G01 X13.4500Y22.8750
G01 X0.7000Y81.6250
G00 Z1.0000
G00 X14.8750Y0.6000
G01 Z-1.4000
G01 X51.2000Y0.6250
G01 X51.2000Y20.3500
G01 X49.7000Y20.3500
G01 X49.7000Y22.6000
G01 X51.2000Y22.6000
G01 X54.0000Y86.3000
G00 Z1.0000
G00 X26.1750Y6.5250
G01 Z-1.4000
G01 X23.9000Y20.2000
G01 X30.1500Y22.2500
G01 X29.5750Y25.7250
G01 X28.0750Y25.4750
G01 X26.2250Y37.9500
G01 X32.6500Y39.0250
G01 X35.1500Y23.8250
G01 X36.1250Y23.9750
G01 X38.7500Y8.6250
G01 X26.1750Y6.5250
G00 Z1.0000
G00 X30.3250Y51.9500
G01 Z-1.4000
G01 X42.0250Y51.9500
G01 X41.9250Y49.4500
G01 X44.1250Y47.2000
G01 X44.1250Y44.2000
G01 X49.7250Y44.2000
G01 X49.8250Y49.5500
G01 X49.5750Y64.7500
G01 X41.6250Y65.0000
G01 X41.6250Y62.3500
G01 X30.2750Y62.3500
G01 X30.3250Y51.9500
G00 Z1.0000
G00 X45.3250Y77.7000
G01 Z-1.4000
G01 X42.2250Y77.7000
G01 X42.2250Y74.1000
G01 X32.1250Y74.1000
G01 X32.1250Y77.8000
G01 X29.0250Y77.8000
G01 X29.0250Y82.6000
G01 X32.2250Y82.6000
G01 X32.2250Y86.4000
G01 X42.3250Y86.4000
G01 X42.3250Y82.5000
G01 X45.3250Y82.5000
G01 X45.3250Y77.7000
G00 Z1.0000
G00 X26.3500Y41.5000
G01 Z-1.4000
G01 X25.4000Y45.0250
G01 X26.5500Y45.3000
G01 X21.8500Y67.3750
G01 X9.4500Y64.7250
G01 X14.1500Y42.7000
G01 X15.3250Y42.9250
G01 X16.3000Y39.2500
G01 X26.3500Y41.5000
G00 Z1.0000
(Ende)
G80
G90
G00 Z10 X0 Y0
M05
M09
M30