%Generated by HPGL2GCODE
(Start)
M03 S500
G4 P1
M03 S750
G4 P1
M03 S1000
G4 P2
(Initialize HP-GL/2-mode)
(PT0)
G21
G90
G94
F80.00
G00 Z1.0000
G00 X-0.3500Y80.6250
G01 Z-0.3000
G01 X8.4000Y41.3750
G01 X12.4000Y21.8750
G01 X13.8250Y-0.4000
G00 Z1.0000
G00 X13.8250Y-0.4000
G01 Z-0.3000
G01 X50.1500Y-0.3750
G00 Z1.0000
G00 X-0.3500Y80.6250
G01 Z-0.3000
G01 X25.1750Y87.5000
G00 Z1.0000
G00 X25.1750Y87.5000
G01 Z-0.3000
G01 X52.9500Y85.3000
G00 Z1.0000
G00 X52.9500Y85.3000
G01 Z-0.3000
G01 X50.1500Y22.6000
G01 X48.6500Y22.6000
G01 X48.6500Y20.3500
G01 X50.1500Y20.3500
G01 X50.1500Y-0.3750
G00 Z1.0000
(Initialize HP-GL/2-mode)
(PT0)
G21
G90
G94
F80.00
G00 Z1.0000
G00 X-0.3500Y80.6250
G01 Z-0.6000
G01 X8.4000Y41.3750
G01 X12.4000Y21.8750
G01 X13.8250Y-0.4000
G00 Z1.0000
G00 X13.8250Y-0.4000
G01 Z-0.6000
G01 X50.1500Y-0.3750
G00 Z1.0000
G00 X-0.3500Y80.6250
G01 Z-0.6000
G01 X25.1750Y87.5000
G00 Z1.0000
G00 X25.1750Y87.5000
G01 Z-0.6000
G01 X52.9500Y85.3000
G00 Z1.0000
G00 X52.9500Y85.3000
G01 Z-0.6000
G01 X50.1500Y22.6000
G01 X48.6500Y22.6000
G01 X48.6500Y20.3500
G01 X50.1500Y20.3500
G01 X50.1500Y-0.3750
G00 Z1.0000
(Initialize HP-GL/2-mode)
(PT0)
G21
G90
G94
F80.00
G00 Z1.0000
G00 X-0.3500Y80.6250
G01 Z-0.9000
G01 X8.4000Y41.3750
G01 X12.4000Y21.8750
G01 X13.8250Y-0.4000
G00 Z1.0000
G00 X13.8250Y-0.4000
G01 Z-0.9000
G01 X50.1500Y-0.3750
G00 Z1.0000
G00 X-0.3500Y80.6250
G01 Z-0.9000
G01 X25.1750Y87.5000
G00 Z1.0000
G00 X25.1750Y87.5000
G01 Z-0.9000
G01 X52.9500Y85.3000
G00 Z1.0000
G00 X52.9500Y85.3000
G01 Z-0.9000
G01 X50.1500Y22.6000
G01 X48.6500Y22.6000
G01 X48.6500Y20.3500
G01 X50.1500Y20.3500
G01 X50.1500Y-0.3750
G00 Z1.0000
(Initialize HP-GL/2-mode)
(PT0)
G21
G90
G94
F80.00
G00 Z1.0000
G00 X-0.3500Y80.6250
G01 Z-1.2000
G01 X8.4000Y41.3750
G01 X12.4000Y21.8750
G01 X13.8250Y-0.4000
G00 Z1.0000
G00 X13.8250Y-0.4000
G01 Z-1.2000
G01 X50.1500Y-0.3750
G00 Z1.0000
G00 X-0.3500Y80.6250
G01 Z-1.2000
G01 X25.1750Y87.5000
G00 Z1.0000
G00 X25.1750Y87.5000
G01 Z-1.2000
G01 X52.9500Y85.3000
G00 Z1.0000
G00 X52.9500Y85.3000
G01 Z-1.2000
G01 X50.1500Y22.6000
G01 X48.6500Y22.6000
G01 X48.6500Y20.3500
G01 X50.1500Y20.3500
G01 X50.1500Y-0.3750
G00 Z1.0000
(Initialize HP-GL/2-mode)
(PT0)
G21
G90
G94
F80.00
G00 Z1.0000
G00 X-0.3500Y80.6250
G01 Z-1.5000
G01 X8.4000Y41.3750
G01 X12.4000Y21.8750
G01 X13.8250Y-0.4000
G00 Z1.0000
G00 X13.8250Y-0.4000
G01 Z-1.5000
G01 X50.1500Y-0.3750
G00 Z1.0000
G00 X-0.3500Y80.6250
G01 Z-1.5000
G01 X25.1750Y87.5000
G00 Z1.0000
G00 X25.1750Y87.5000
G01 Z-1.5000
G01 X52.9500Y85.3000
G00 Z1.0000
G00 X52.9500Y85.3000
G01 Z-1.5000
G01 X50.1500Y22.6000
G01 X48.6500Y22.6000
G01 X48.6500Y20.3500
G01 X50.1500Y20.3500
G01 X50.1500Y-0.3750
G00 Z1.0000
(Ende)
G80
G90
G00 Z10 X0 Y0
M05
M09
M30