%Generated by HPGL2GCODE
(Start)
M03 S500
G4 P1
M03 S750
G4 P1
M03 S1000
G4 P2
(Initialize HP-GL/2-mode)
(PT0)
G21
G90
G94
F80.00
G00 Z1.0000
G00 X51.0000Y4.5000
G01 Z-0.3000
G01 X30.0000Y4.5000
G01 X21.0000Y11.5000
G01 X10.0000Y11.5000
G01 X5.0000Y7.0000
G01 X3.5000Y6.5000
G01 X0.0000Y3.5000
G01 X3.5000Y-0.5000
G01 X6.5000Y3.0000
G01 X7.0000Y4.5000
G01 X10.0000Y7.0000
G01 X21.0000Y7.0000
G01 X30.0000Y0.0000
G01 X51.0000Y0.0000
G01 X51.0000Y4.5000
G00 Z1.0000
(Initialize HP-GL/2-mode)
(PT0)
G21
G90
G94
F80.00
G00 Z1.0000
G00 X51.0000Y4.5000
G01 Z-0.6000
G01 X30.0000Y4.5000
G01 X21.0000Y11.5000
G01 X10.0000Y11.5000
G01 X5.0000Y7.0000
G01 X3.5000Y6.5000
G01 X0.0000Y3.5000
G01 X3.5000Y-0.5000
G01 X6.5000Y3.0000
G01 X7.0000Y4.5000
G01 X10.0000Y7.0000
G01 X21.0000Y7.0000
G01 X30.0000Y0.0000
G01 X51.0000Y0.0000
G01 X51.0000Y4.5000
G00 Z1.0000
(Initialize HP-GL/2-mode)
(PT0)
G21
G90
G94
F80.00
G00 Z1.0000
G00 X51.0000Y4.5000
G01 Z-0.9000
G01 X30.0000Y4.5000
G01 X21.0000Y11.5000
G01 X10.0000Y11.5000
G01 X5.0000Y7.0000
G01 X3.5000Y6.5000
G01 X0.0000Y3.5000
G01 X3.5000Y-0.5000
G01 X6.5000Y3.0000
G01 X7.0000Y4.5000
G01 X10.0000Y7.0000
G01 X21.0000Y7.0000
G01 X30.0000Y0.0000
G01 X51.0000Y0.0000
G01 X51.0000Y4.5000
G00 Z1.0000
(Initialize HP-GL/2-mode)
(PT0)
G21
G90
G94
F80.00
G00 Z1.0000
G00 X51.0000Y4.5000
G01 Z-1.2000
G01 X30.0000Y4.5000
G01 X21.0000Y11.5000
G01 X10.0000Y11.5000
G01 X5.0000Y7.0000
G01 X3.5000Y6.5000
G01 X0.0000Y3.5000
G01 X3.5000Y-0.5000
G01 X6.5000Y3.0000
G01 X7.0000Y4.5000
G01 X10.0000Y7.0000
G01 X21.0000Y7.0000
G01 X30.0000Y0.0000
G01 X51.0000Y0.0000
G01 X51.0000Y4.5000
G00 Z1.0000
(Initialize HP-GL/2-mode)
(PT0)
G21
G90
G94
F80.00
G00 Z1.0000
G00 X51.0000Y4.5000
G01 Z-1.5000
G01 X30.0000Y4.5000
G01 X21.0000Y11.5000
G01 X10.0000Y11.5000
G01 X5.0000Y7.0000
G01 X3.5000Y6.5000
G01 X0.0000Y3.5000
G01 X3.5000Y-0.5000
G01 X6.5000Y3.0000
G01 X7.0000Y4.5000
G01 X10.0000Y7.0000
G01 X21.0000Y7.0000
G01 X30.0000Y0.0000
G01 X51.0000Y0.0000
G01 X51.0000Y4.5000
G00 Z1.0000
(Ende)
G80
G90
G00 Z10 X0 Y0
M05
M09
M30