%Generated by HPGL2GCODE
(Start)
M03 S500
G4 P1
M03 S750
G4 P1
M03 S1000
G4 P2
(Initialize HP-GL/2-mode)
(PT0)
G21
G90
G94
F80.00
G00 Z1.0000
G00 X8.8500Y3.8750
G01 Z-0.3000
G01 X22.6750Y4.8250
G01 X23.2000Y11.3750
G01 X26.7000Y11.6250
G01 X26.8000Y10.1250
G01 X39.4000Y11.2500
G01 X38.9250Y17.7250
G01 X23.5500Y16.6000
G01 X23.4750Y17.6000
G01 X7.9500Y16.5750
G01 X8.8250Y3.8750
G00 Z1.0000
G00 X68.5000Y22.5000
G01 Z-0.3000
G01 X22.1500Y22.6250
G01 X22.1750Y20.5250
G01 X19.2750Y20.5500
G01 X19.2500Y22.5500
G01 X0.0500Y22.4250
G01 X0.7750Y1.4250
G01 X36.0500Y3.5000
G01 X36.3000Y0.0750
G01 X70.8000Y1.7750
G01 X68.5000Y22.5000
G00 Z1.0000
G00 X45.9250Y19.5250
G01 Z-0.3000
G01 X58.7750Y20.0750
G01 X59.4250Y5.0000
G01 X46.6000Y4.4250
G01 X45.9250Y19.5250
G00 Z1.0000
(Initialize HP-GL/2-mode)
(PT0)
G21
G90
G94
F80.00
G00 Z1.0000
G00 X8.8500Y3.8750
G01 Z-0.6000
G01 X22.6750Y4.8250
G01 X23.2000Y11.3750
G01 X26.7000Y11.6250
G01 X26.8000Y10.1250
G01 X39.4000Y11.2500
G01 X38.9250Y17.7250
G01 X23.5500Y16.6000
G01 X23.4750Y17.6000
G01 X7.9500Y16.5750
G01 X8.8250Y3.8750
G00 Z1.0000
G00 X68.5000Y22.5000
G01 Z-0.6000
G01 X22.1500Y22.6250
G01 X22.1750Y20.5250
G01 X19.2750Y20.5500
G01 X19.2500Y22.5500
G01 X0.0500Y22.4250
G01 X0.7750Y1.4250
G01 X36.0500Y3.5000
G01 X36.3000Y0.0750
G01 X70.8000Y1.7750
G01 X68.5000Y22.5000
G00 Z1.0000
G00 X45.9250Y19.5250
G01 Z-0.6000
G01 X58.7750Y20.0750
G01 X59.4250Y5.0000
G01 X46.6000Y4.4250
G01 X45.9250Y19.5250
G00 Z1.0000
(Initialize HP-GL/2-mode)
(PT0)
G21
G90
G94
F80.00
G00 Z1.0000
G00 X8.8500Y3.8750
G01 Z-0.9000
G01 X22.6750Y4.8250
G01 X23.2000Y11.3750
G01 X26.7000Y11.6250
G01 X26.8000Y10.1250
G01 X39.4000Y11.2500
G01 X38.9250Y17.7250
G01 X23.5500Y16.6000
G01 X23.4750Y17.6000
G01 X7.9500Y16.5750
G01 X8.8250Y3.8750
G00 Z1.0000
G00 X68.5000Y22.5000
G01 Z-0.9000
G01 X22.1500Y22.6250
G01 X22.1750Y20.5250
G01 X19.2750Y20.5500
G01 X19.2500Y22.5500
G01 X0.0500Y22.4250
G01 X0.7750Y1.4250
G01 X36.0500Y3.5000
G01 X36.3000Y0.0750
G01 X70.8000Y1.7750
G01 X68.5000Y22.5000
G00 Z1.0000
G00 X45.9250Y19.5250
G01 Z-0.9000
G01 X58.7750Y20.0750
G01 X59.4250Y5.0000
G01 X46.6000Y4.4250
G01 X45.9250Y19.5250
G00 Z1.0000
(Initialize HP-GL/2-mode)
(PT0)
G21
G90
G94
F80.00
G00 Z1.0000
G00 X8.8500Y3.8750
G01 Z-1.2000
G01 X22.6750Y4.8250
G01 X23.2000Y11.3750
G01 X26.7000Y11.6250
G01 X26.8000Y10.1250
G01 X39.4000Y11.2500
G01 X38.9250Y17.7250
G01 X23.5500Y16.6000
G01 X23.4750Y17.6000
G01 X7.9500Y16.5750
G01 X8.8250Y3.8750
G00 Z1.0000
G00 X68.5000Y22.5000
G01 Z-1.2000
G01 X22.1500Y22.6250
G01 X22.1750Y20.5250
G01 X19.2750Y20.5500
G01 X19.2500Y22.5500
G01 X0.0500Y22.4250
G01 X0.7750Y1.4250
G01 X36.0500Y3.5000
G01 X36.3000Y0.0750
G01 X70.8000Y1.7750
G01 X68.5000Y22.5000
G00 Z1.0000
G00 X45.9250Y19.5250
G01 Z-1.2000
G01 X58.7750Y20.0750
G01 X59.4250Y5.0000
G01 X46.6000Y4.4250
G01 X45.9250Y19.5250
G00 Z1.0000
(Initialize HP-GL/2-mode)
(PT0)
G21
G90
G94
F80.00
G00 Z1.0000
G00 X8.8500Y3.8750
G01 Z-1.5000
G01 X22.6750Y4.8250
G01 X23.2000Y11.3750
G01 X26.7000Y11.6250
G01 X26.8000Y10.1250
G01 X39.4000Y11.2500
G01 X38.9250Y17.7250
G01 X23.5500Y16.6000
G01 X23.4750Y17.6000
G01 X7.9500Y16.5750
G01 X8.8250Y3.8750
G00 Z1.0000
G00 X68.5000Y22.5000
G01 Z-1.5000
G01 X22.1500Y22.6250
G01 X22.1750Y20.5250
G01 X19.2750Y20.5500
G01 X19.2500Y22.5500
G01 X0.0500Y22.4250
G01 X0.7750Y1.4250
G01 X36.0500Y3.5000
G01 X36.3000Y0.0750
G01 X70.8000Y1.7750
G01 X68.5000Y22.5000
G00 Z1.0000
G00 X45.9250Y19.5250
G01 Z-1.5000
G01 X58.7750Y20.0750
G01 X59.4250Y5.0000
G01 X46.6000Y4.4250
G01 X45.9250Y19.5250
G00 Z1.0000
(Ende)
G80
G90
G00 Z10 X0 Y0
M05
M09
M30