%Generated by HPGL2GCODE
(Start)
M03 S500
G4 P1
M03 S750
G4 P1
M03 S1000
G4 P2
(Initialize HP-GL/2-mode)
(PT0)
G21
G90
G94
F80.00
G00 Z1.0000
G00 X2.5000Y0.3500
G01 Z-0.3000
G01 X0.3500Y27.6250
G00 Z1.0000
G00 X0.3500Y27.6250
G01 Z-0.3000
G01 X7.7750Y55.0000
G00 Z1.0000
G00 X100.3250Y10.2750
G01 Z-0.3000
G01 X59.7750Y6.7250
G01 X59.6750Y2.1000
G01 X2.5000Y0.3500
G00 Z1.0000
G00 X100.3250Y10.2750
G01 Z-0.3000
G01 X102.1250Y34.1750
G01 X76.8250Y38.8750
G01 X76.5500Y37.4000
G01 X74.3500Y37.8000
G01 X74.6250Y39.2750
G01 X7.7750Y55.0250
G00 Z1.0000
G00 X46.6000Y23.2250
G01 Z-0.3000
G01 X48.7250Y34.7250
G01 X51.1500Y34.1750
G01 X53.7750Y35.9500
G01 X56.7250Y35.4000
G01 X57.7500Y40.9250
G01 X52.5000Y41.9750
G01 X37.5000Y44.5000
G01 X35.8250Y36.7250
G01 X38.4250Y36.2500
G01 X36.3500Y25.0750
G01 X46.6000Y23.2250
G00 Z1.0000
G00 X17.6750Y46.7000
G01 Z-0.3000
G01 X17.1250Y43.6500
G01 X20.6500Y43.0000
G01 X18.8250Y33.0750
G01 X15.1750Y33.7500
G01 X14.6000Y30.7000
G01 X9.9000Y31.5750
G01 X10.4750Y34.7000
G01 X6.7250Y35.4000
G01 X8.5750Y45.3250
G01 X12.4000Y44.6250
G01 X12.9500Y47.5750
G01 X17.6750Y46.7000
G00 Z1.0000
G00 X85.9000Y13.9250
G01 Z-0.3000
G01 X72.1250Y15.5000
G01 X71.8750Y22.0750
G01 X68.4000Y22.4750
G01 X68.2250Y20.9750
G01 X55.7000Y22.6500
G01 X56.4250Y29.1000
G01 X71.7500Y27.3000
G01 X71.8750Y28.3000
G01 X87.3500Y26.6000
G01 X85.9250Y13.9250
G00 Z1.0000
G00 X12.5500Y28.4000
G01 Z-0.3000
G01 X8.9500Y29.7000
G01 X7.5250Y29.9000
G01 X6.3000Y29.4250
G01 X5.7500Y27.9000
G01 X5.6500Y26.5000
G01 X6.0500Y25.3000
G01 X5.8250Y24.1000
G01 X6.1750Y23.0500
G01 X7.8000Y22.7000
G01 X8.9750Y23.8500
G01 X11.0500Y23.5000
G01 X12.6500Y24.0000
G01 X13.4500Y24.8000
G01 X13.6500Y25.9000
G01 X13.5500Y27.1000
G01 X13.0500Y27.8000
G01 X12.5500Y28.4000
G00 Z1.0000
(Initialize HP-GL/2-mode)
(PT0)
G21
G90
G94
F80.00
G00 Z1.0000
G00 X2.5000Y0.3500
G01 Z-0.6000
G01 X0.3500Y27.6250
G00 Z1.0000
G00 X0.3500Y27.6250
G01 Z-0.6000
G01 X7.7750Y55.0000
G00 Z1.0000
G00 X100.3250Y10.2750
G01 Z-0.6000
G01 X59.7750Y6.7250
G01 X59.6750Y2.1000
G01 X2.5000Y0.3500
G00 Z1.0000
G00 X100.3250Y10.2750
G01 Z-0.6000
G01 X102.1250Y34.1750
G01 X76.8250Y38.8750
G01 X76.5500Y37.4000
G01 X74.3500Y37.8000
G01 X74.6250Y39.2750
G01 X7.7750Y55.0250
G00 Z1.0000
G00 X46.6000Y23.2250
G01 Z-0.6000
G01 X48.7250Y34.7250
G01 X51.1500Y34.1750
G01 X53.7750Y35.9500
G01 X56.7250Y35.4000
G01 X57.7500Y40.9250
G01 X52.5000Y41.9750
G01 X37.5000Y44.5000
G01 X35.8250Y36.7250
G01 X38.4250Y36.2500
G01 X36.3500Y25.0750
G01 X46.6000Y23.2250
G00 Z1.0000
G00 X17.6750Y46.7000
G01 Z-0.6000
G01 X17.1250Y43.6500
G01 X20.6500Y43.0000
G01 X18.8250Y33.0750
G01 X15.1750Y33.7500
G01 X14.6000Y30.7000
G01 X9.9000Y31.5750
G01 X10.4750Y34.7000
G01 X6.7250Y35.4000
G01 X8.5750Y45.3250
G01 X12.4000Y44.6250
G01 X12.9500Y47.5750
G01 X17.6750Y46.7000
G00 Z1.0000
G00 X85.9000Y13.9250
G01 Z-0.6000
G01 X72.1250Y15.5000
G01 X71.8750Y22.0750
G01 X68.4000Y22.4750
G01 X68.2250Y20.9750
G01 X55.7000Y22.6500
G01 X56.4250Y29.1000
G01 X71.7500Y27.3000
G01 X71.8750Y28.3000
G01 X87.3500Y26.6000
G01 X85.9250Y13.9250
G00 Z1.0000
G00 X12.5500Y28.4000
G01 Z-0.6000
G01 X8.9500Y29.7000
G01 X7.5250Y29.9000
G01 X6.3000Y29.4250
G01 X5.7500Y27.9000
G01 X5.6500Y26.5000
G01 X6.0500Y25.3000
G01 X5.8250Y24.1000
G01 X6.1750Y23.0500
G01 X7.8000Y22.7000
G01 X8.9750Y23.8500
G01 X11.0500Y23.5000
G01 X12.6500Y24.0000
G01 X13.4500Y24.8000
G01 X13.6500Y25.9000
G01 X13.5500Y27.1000
G01 X13.0500Y27.8000
G01 X12.5500Y28.4000
G00 Z1.0000
(Initialize HP-GL/2-mode)
(PT0)
G21
G90
G94
F80.00
G00 Z1.0000
G00 X2.5000Y0.3500
G01 Z-0.9000
G01 X0.3500Y27.6250
G00 Z1.0000
G00 X0.3500Y27.6250
G01 Z-0.9000
G01 X7.7750Y55.0000
G00 Z1.0000
G00 X100.3250Y10.2750
G01 Z-0.9000
G01 X59.7750Y6.7250
G01 X59.6750Y2.1000
G01 X2.5000Y0.3500
G00 Z1.0000
G00 X100.3250Y10.2750
G01 Z-0.9000
G01 X102.1250Y34.1750
G01 X76.8250Y38.8750
G01 X76.5500Y37.4000
G01 X74.3500Y37.8000
G01 X74.6250Y39.2750
G01 X7.7750Y55.0250
G00 Z1.0000
G00 X46.6000Y23.2250
G01 Z-0.9000
G01 X48.7250Y34.7250
G01 X51.1500Y34.1750
G01 X53.7750Y35.9500
G01 X56.7250Y35.4000
G01 X57.7500Y40.9250
G01 X52.5000Y41.9750
G01 X37.5000Y44.5000
G01 X35.8250Y36.7250
G01 X38.4250Y36.2500
G01 X36.3500Y25.0750
G01 X46.6000Y23.2250
G00 Z1.0000
G00 X17.6750Y46.7000
G01 Z-0.9000
G01 X17.1250Y43.6500
G01 X20.6500Y43.0000
G01 X18.8250Y33.0750
G01 X15.1750Y33.7500
G01 X14.6000Y30.7000
G01 X9.9000Y31.5750
G01 X10.4750Y34.7000
G01 X6.7250Y35.4000
G01 X8.5750Y45.3250
G01 X12.4000Y44.6250
G01 X12.9500Y47.5750
G01 X17.6750Y46.7000
G00 Z1.0000
G00 X85.9000Y13.9250
G01 Z-0.9000
G01 X72.1250Y15.5000
G01 X71.8750Y22.0750
G01 X68.4000Y22.4750
G01 X68.2250Y20.9750
G01 X55.7000Y22.6500
G01 X56.4250Y29.1000
G01 X71.7500Y27.3000
G01 X71.8750Y28.3000
G01 X87.3500Y26.6000
G01 X85.9250Y13.9250
G00 Z1.0000
G00 X12.5500Y28.4000
G01 Z-0.9000
G01 X8.9500Y29.7000
G01 X7.5250Y29.9000
G01 X6.3000Y29.4250
G01 X5.7500Y27.9000
G01 X5.6500Y26.5000
G01 X6.0500Y25.3000
G01 X5.8250Y24.1000
G01 X6.1750Y23.0500
G01 X7.8000Y22.7000
G01 X8.9750Y23.8500
G01 X11.0500Y23.5000
G01 X12.6500Y24.0000
G01 X13.4500Y24.8000
G01 X13.6500Y25.9000
G01 X13.5500Y27.1000
G01 X13.0500Y27.8000
G01 X12.5500Y28.4000
G00 Z1.0000
(Initialize HP-GL/2-mode)
(PT0)
G21
G90
G94
F80.00
G00 Z1.0000
G00 X2.5000Y0.3500
G01 Z-1.2000
G01 X0.3500Y27.6250
G00 Z1.0000
G00 X0.3500Y27.6250
G01 Z-1.2000
G01 X7.7750Y55.0000
G00 Z1.0000
G00 X100.3250Y10.2750
G01 Z-1.2000
G01 X59.7750Y6.7250
G01 X59.6750Y2.1000
G01 X2.5000Y0.3500
G00 Z1.0000
G00 X100.3250Y10.2750
G01 Z-1.2000
G01 X102.1250Y34.1750
G01 X76.8250Y38.8750
G01 X76.5500Y37.4000
G01 X74.3500Y37.8000
G01 X74.6250Y39.2750
G01 X7.7750Y55.0250
G00 Z1.0000
G00 X46.6000Y23.2250
G01 Z-1.2000
G01 X48.7250Y34.7250
G01 X51.1500Y34.1750
G01 X53.7750Y35.9500
G01 X56.7250Y35.4000
G01 X57.7500Y40.9250
G01 X52.5000Y41.9750
G01 X37.5000Y44.5000
G01 X35.8250Y36.7250
G01 X38.4250Y36.2500
G01 X36.3500Y25.0750
G01 X46.6000Y23.2250
G00 Z1.0000
G00 X17.6750Y46.7000
G01 Z-1.2000
G01 X17.1250Y43.6500
G01 X20.6500Y43.0000
G01 X18.8250Y33.0750
G01 X15.1750Y33.7500
G01 X14.6000Y30.7000
G01 X9.9000Y31.5750
G01 X10.4750Y34.7000
G01 X6.7250Y35.4000
G01 X8.5750Y45.3250
G01 X12.4000Y44.6250
G01 X12.9500Y47.5750
G01 X17.6750Y46.7000
G00 Z1.0000
G00 X85.9000Y13.9250
G01 Z-1.2000
G01 X72.1250Y15.5000
G01 X71.8750Y22.0750
G01 X68.4000Y22.4750
G01 X68.2250Y20.9750
G01 X55.7000Y22.6500
G01 X56.4250Y29.1000
G01 X71.7500Y27.3000
G01 X71.8750Y28.3000
G01 X87.3500Y26.6000
G01 X85.9250Y13.9250
G00 Z1.0000
G00 X12.5500Y28.4000
G01 Z-1.2000
G01 X8.9500Y29.7000
G01 X7.5250Y29.9000
G01 X6.3000Y29.4250
G01 X5.7500Y27.9000
G01 X5.6500Y26.5000
G01 X6.0500Y25.3000
G01 X5.8250Y24.1000
G01 X6.1750Y23.0500
G01 X7.8000Y22.7000
G01 X8.9750Y23.8500
G01 X11.0500Y23.5000
G01 X12.6500Y24.0000
G01 X13.4500Y24.8000
G01 X13.6500Y25.9000
G01 X13.5500Y27.1000
G01 X13.0500Y27.8000
G01 X12.5500Y28.4000
G00 Z1.0000
(Initialize HP-GL/2-mode)
(PT0)
G21
G90
G94
F80.00
G00 Z1.0000
G00 X2.5000Y0.3500
G01 Z-1.5000
G01 X0.3500Y27.6250
G00 Z1.0000
G00 X0.3500Y27.6250
G01 Z-1.5000
G01 X7.7750Y55.0000
G00 Z1.0000
G00 X100.3250Y10.2750
G01 Z-1.5000
G01 X59.7750Y6.7250
G01 X59.6750Y2.1000
G01 X2.5000Y0.3500
G00 Z1.0000
G00 X100.3250Y10.2750
G01 Z-1.5000
G01 X102.1250Y34.1750
G01 X76.8250Y38.8750
G01 X76.5500Y37.4000
G01 X74.3500Y37.8000
G01 X74.6250Y39.2750
G01 X7.7750Y55.0250
G00 Z1.0000
G00 X46.6000Y23.2250
G01 Z-1.5000
G01 X48.7250Y34.7250
G01 X51.1500Y34.1750
G01 X53.7750Y35.9500
G01 X56.7250Y35.4000
G01 X57.7500Y40.9250
G01 X52.5000Y41.9750
G01 X37.5000Y44.5000
G01 X35.8250Y36.7250
G01 X38.4250Y36.2500
G01 X36.3500Y25.0750
G01 X46.6000Y23.2250
G00 Z1.0000
G00 X17.6750Y46.7000
G01 Z-1.5000
G01 X17.1250Y43.6500
G01 X20.6500Y43.0000
G01 X18.8250Y33.0750
G01 X15.1750Y33.7500
G01 X14.6000Y30.7000
G01 X9.9000Y31.5750
G01 X10.4750Y34.7000
G01 X6.7250Y35.4000
G01 X8.5750Y45.3250
G01 X12.4000Y44.6250
G01 X12.9500Y47.5750
G01 X17.6750Y46.7000
G00 Z1.0000
G00 X85.9000Y13.9250
G01 Z-1.5000
G01 X72.1250Y15.5000
G01 X71.8750Y22.0750
G01 X68.4000Y22.4750
G01 X68.2250Y20.9750
G01 X55.7000Y22.6500
G01 X56.4250Y29.1000
G01 X71.7500Y27.3000
G01 X71.8750Y28.3000
G01 X87.3500Y26.6000
G01 X85.9250Y13.9250
G00 Z1.0000
G00 X12.5500Y28.4000
G01 Z-1.5000
G01 X8.9500Y29.7000
G01 X7.5250Y29.9000
G01 X6.3000Y29.4250
G01 X5.7500Y27.9000
G01 X5.6500Y26.5000
G01 X6.0500Y25.3000
G01 X5.8250Y24.1000
G01 X6.1750Y23.0500
G01 X7.8000Y22.7000
G01 X8.9750Y23.8500
G01 X11.0500Y23.5000
G01 X12.6500Y24.0000
G01 X13.4500Y24.8000
G01 X13.6500Y25.9000
G01 X13.5500Y27.1000
G01 X13.0500Y27.8000
G01 X12.5500Y28.4000
G00 Z1.0000
(Ende)
G80
G90
G00 Z10 X0 Y0
M05
M09
M30