%Generated by HPGL2GCODE
(Start)
M03 S500
G4 P1
M03 S750
G4 P1
M03 S1000
G4 P2
(Initialize HP-GL/2-mode)
(PT0)
G21
G90
G94
F80.00
G00 Z1.0000
G00 X54.5250Y86.5250
G01 Z-0.2500
G01 X38.8250Y7.4750
G00 Z1.0000
G00 X38.8250Y7.4750
G01 Z-0.2500
G01 X0.5250Y7.5250
G00 Z1.0000
G00 X54.5250Y86.5250
G01 Z-0.2500
G01 X28.9750Y92.6500
G00 Z1.0000
G00 X28.9750Y92.6500
G01 Z-0.2500
G01 X0.4750Y91.2000
G00 Z1.0000
G00 X0.4750Y91.2000
G01 Z-0.2500
G01 X0.5000Y28.5000
G01 X3.0000Y28.5000
G01 X3.0000Y26.2500
G01 X0.5000Y26.2500
G01 X0.5250Y7.5250
G00 Z1.0000
(Initialize HP-GL/2-mode)
(PT0)
G21
G90
G94
F80.00
G00 Z1.0000
G00 X54.5250Y86.5250
G01 Z-0.5000
G01 X38.8250Y7.4750
G00 Z1.0000
G00 X38.8250Y7.4750
G01 Z-0.5000
G01 X0.5250Y7.5250
G00 Z1.0000
G00 X54.5250Y86.5250
G01 Z-0.5000
G01 X28.9750Y92.6500
G00 Z1.0000
G00 X28.9750Y92.6500
G01 Z-0.5000
G01 X0.4750Y91.2000
G00 Z1.0000
G00 X0.4750Y91.2000
G01 Z-0.5000
G01 X0.5000Y28.5000
G01 X3.0000Y28.5000
G01 X3.0000Y26.2500
G01 X0.5000Y26.2500
G01 X0.5250Y7.5250
G00 Z1.0000
(Initialize HP-GL/2-mode)
(PT0)
G21
G90
G94
F80.00
G00 Z1.0000
G00 X54.5250Y86.5250
G01 Z-0.7500
G01 X38.8250Y7.4750
G00 Z1.0000
G00 X38.8250Y7.4750
G01 Z-0.7500
G01 X0.5250Y7.5250
G00 Z1.0000
G00 X54.5250Y86.5250
G01 Z-0.7500
G01 X28.9750Y92.6500
G00 Z1.0000
G00 X28.9750Y92.6500
G01 Z-0.7500
G01 X0.4750Y91.2000
G00 Z1.0000
G00 X0.4750Y91.2000
G01 Z-0.7500
G01 X0.5000Y28.5000
G01 X3.0000Y28.5000
G01 X3.0000Y26.2500
G01 X0.5000Y26.2500
G01 X0.5250Y7.5250
G00 Z1.0000
(Initialize HP-GL/2-mode)
(PT0)
G21
G90
G94
F80.00
G00 Z1.0000
G00 X54.5250Y86.5250
G01 Z-1.0000
G01 X38.8250Y7.4750
G00 Z1.0000
G00 X38.8250Y7.4750
G01 Z-1.0000
G01 X0.5250Y7.5250
G00 Z1.0000
G00 X54.5250Y86.5250
G01 Z-1.0000
G01 X28.9750Y92.6500
G00 Z1.0000
G00 X28.9750Y92.6500
G01 Z-1.0000
G01 X0.4750Y91.2000
G00 Z1.0000
G00 X0.4750Y91.2000
G01 Z-1.0000
G01 X0.5000Y28.5000
G01 X3.0000Y28.5000
G01 X3.0000Y26.2500
G01 X0.5000Y26.2500
G01 X0.5250Y7.5250
G00 Z1.0000
(Initialize HP-GL/2-mode)
(PT0)
G21
G90
G94
F80.00
G00 Z1.0000
G00 X54.5250Y86.5250
G01 Z-1.2500
G01 X38.8250Y7.4750
G00 Z1.0000
G00 X38.8250Y7.4750
G01 Z-1.2500
G01 X0.5250Y7.5250
G00 Z1.0000
G00 X54.5250Y86.5250
G01 Z-1.2500
G01 X28.9750Y92.6500
G00 Z1.0000
G00 X28.9750Y92.6500
G01 Z-1.2500
G01 X0.4750Y91.2000
G00 Z1.0000
G00 X0.4750Y91.2000
G01 Z-1.2500
G01 X0.5000Y28.5000
G01 X3.0000Y28.5000
G01 X3.0000Y26.2500
G01 X0.5000Y26.2500
G01 X0.5250Y7.5250
G00 Z1.0000
(Initialize HP-GL/2-mode)
(PT0)
G21
G90
G94
F80.00
G00 Z1.0000
G00 X54.5250Y86.5250
G01 Z-1.5000
G01 X38.8250Y7.4750
G00 Z1.0000
G00 X38.8250Y7.4750
G01 Z-1.5000
G01 X0.5250Y7.5250
G00 Z1.0000
G00 X54.5250Y86.5250
G01 Z-1.5000
G01 X28.9750Y92.6500
G00 Z1.0000
G00 X28.9750Y92.6500
G01 Z-1.5000
G01 X0.4750Y91.2000
G00 Z1.0000
G00 X0.4750Y91.2000
G01 Z-1.5000
G01 X0.5000Y28.5000
G01 X3.0000Y28.5000
G01 X3.0000Y26.2500
G01 X0.5000Y26.2500
G01 X0.5250Y7.5250
G00 Z1.0000
(Ende)
G80
G90
G00 Z10 X0 Y0
M05
M09
M30