%Generated by HPGL2GCODE
(Start)
M03 S500
G4 P1
M03 S750
G4 P1
M03 S1000
G4 P2
(Initialize HP-GL/2-mode)
(PT0)
G21
G90
G94
F80.00
G00 Z1.0000
G00 X46.6000Y22.7000
G01 Z-0.3000
G01 X48.1250Y34.3000
G01 X50.5750Y33.8750
G01 X53.1000Y35.7750
G01 X56.0750Y35.3750
G01 X56.8000Y40.9250
G01 X51.5250Y41.7000
G01 X36.4250Y43.4500
G01 X35.1250Y35.6000
G01 X37.7500Y35.2500
G01 X36.2750Y24.0000
G01 X46.6000Y22.7000
G00 Z1.0000
G00 X5.0250Y43.4250
G01 Z-0.3000
G01 X8.0000Y42.6000
G01 X8.9750Y46.0750
G01 X18.7000Y43.3750
G01 X17.7000Y39.8000
G01 X20.7000Y38.9750
G01 X19.4250Y34.3500
G01 X16.3250Y35.2250
G01 X15.3250Y31.5500
G01 X5.5750Y34.2500
G01 X6.6250Y38.0000
G01 X3.7250Y38.8000
G01 X5.0250Y43.4250
G00 Z1.0000
G00 X86.3250Y15.4750
G01 Z-0.3000
G01 X72.5000Y16.3000
G01 X71.9000Y22.8500
G01 X68.4000Y23.0750
G01 X68.3250Y21.5750
G01 X55.7250Y22.5750
G01 X56.1250Y29.0750
G01 X71.5000Y28.0750
G01 X71.5750Y29.0750
G01 X87.1250Y28.1750
G01 X86.3500Y15.4750
G00 Z1.0000
G00 X3.8250Y48.6000
G01 Z-0.3000
G01 X7.9500Y48.8500
G01 X15.1500Y47.2500
G01 X23.9500Y45.2500
G01 X35.8500Y45.6500
G01 X55.2500Y43.3500
G01 X73.8000Y40.0750
G01 X73.6000Y38.5750
G01 X75.8500Y38.2750
G01 X76.0500Y39.7750
G01 X87.0000Y38.2500
G01 X87.3000Y36.8500
G01 X88.9000Y35.9500
G01 X90.2000Y36.5500
G01 X91.1000Y37.6500
G01 X101.5500Y36.4000
G01 X101.0000Y12.4250
G01 X60.7000Y6.7750
G01 X60.8250Y2.1500
G01 X39.1750Y0.3500
G01 X10.1500Y1.3500
G01 X7.9500Y20.0000
G01 X9.0500Y21.2250
G01 X11.1500Y20.9750
G01 X12.7250Y21.5500
G01 X13.4750Y22.4000
G01 X13.6250Y23.5000
G01 X13.4500Y24.7000
G01 X14.5500Y26.2000
G01 X16.7250Y25.5000
G01 X18.4000Y26.4500
G01 X18.8500Y27.8250
G01 X18.6000Y29.0500
G01 X17.5000Y29.9500
G01 X16.0000Y30.0250
G01 X14.1500Y29.6500
G01 X12.9500Y28.7500
G01 X12.1250Y27.3750
G01 X11.3750Y26.8000
G01 X8.7250Y27.0500
G01 X7.3000Y27.1750
G01 X6.3750Y26.8000
G01 X7.7000Y29.6000
G01 X7.6000Y30.6500
G01 X6.9500Y31.7750
G01 X5.0500Y32.6750
G01 X3.4000Y32.5250
G01 X2.1500Y31.5250
G01 X0.2500Y31.5250
G01 X3.8250Y48.6000
G00 Z1.0000
G00 X26.8500Y30.5500
G01 Z-0.3000
G01 X25.6500Y30.6500
G01 X24.8750Y31.3750
G01 X24.6500Y32.3500
G01 X24.9750Y33.2500
G01 X25.4250Y34.0000
G01 X26.1250Y34.4000
G01 X27.3500Y34.3000
G01 X28.0000Y33.8000
G01 X28.2000Y33.1250
G01 X28.1500Y32.4500
G01 X27.9750Y31.6500
G01 X27.7500Y31.0500
G01 X26.8500Y30.5500
G00 Z1.0000
(Initialize HP-GL/2-mode)
(PT0)
G21
G90
G94
F80.00
G00 Z1.0000
G00 X46.6000Y22.7000
G01 Z-0.6000
G01 X48.1250Y34.3000
G01 X50.5750Y33.8750
G01 X53.1000Y35.7750
G01 X56.0750Y35.3750
G01 X56.8000Y40.9250
G01 X51.5250Y41.7000
G01 X36.4250Y43.4500
G01 X35.1250Y35.6000
G01 X37.7500Y35.2500
G01 X36.2750Y24.0000
G01 X46.6000Y22.7000
G00 Z1.0000
G00 X5.0250Y43.4250
G01 Z-0.6000
G01 X8.0000Y42.6000
G01 X8.9750Y46.0750
G01 X18.7000Y43.3750
G01 X17.7000Y39.8000
G01 X20.7000Y38.9750
G01 X19.4250Y34.3500
G01 X16.3250Y35.2250
G01 X15.3250Y31.5500
G01 X5.5750Y34.2500
G01 X6.6250Y38.0000
G01 X3.7250Y38.8000
G01 X5.0250Y43.4250
G00 Z1.0000
G00 X86.3250Y15.4750
G01 Z-0.6000
G01 X72.5000Y16.3000
G01 X71.9000Y22.8500
G01 X68.4000Y23.0750
G01 X68.3250Y21.5750
G01 X55.7250Y22.5750
G01 X56.1250Y29.0750
G01 X71.5000Y28.0750
G01 X71.5750Y29.0750
G01 X87.1250Y28.1750
G01 X86.3500Y15.4750
G00 Z1.0000
G00 X3.8250Y48.6000
G01 Z-0.6000
G01 X7.9500Y48.8500
G01 X15.1500Y47.2500
G01 X23.9500Y45.2500
G01 X35.8500Y45.6500
G01 X55.2500Y43.3500
G01 X73.8000Y40.0750
G01 X73.6000Y38.5750
G01 X75.8500Y38.2750
G01 X76.0500Y39.7750
G01 X87.0000Y38.2500
G01 X87.3000Y36.8500
G01 X88.9000Y35.9500
G01 X90.2000Y36.5500
G01 X91.1000Y37.6500
G01 X101.5500Y36.4000
G01 X101.0000Y12.4250
G01 X60.7000Y6.7750
G01 X60.8250Y2.1500
G01 X39.1750Y0.3500
G01 X10.1500Y1.3500
G01 X7.9500Y20.0000
G01 X9.0500Y21.2250
G01 X11.1500Y20.9750
G01 X12.7250Y21.5500
G01 X13.4750Y22.4000
G01 X13.6250Y23.5000
G01 X13.4500Y24.7000
G01 X14.5500Y26.2000
G01 X16.7250Y25.5000
G01 X18.4000Y26.4500
G01 X18.8500Y27.8250
G01 X18.6000Y29.0500
G01 X17.5000Y29.9500
G01 X16.0000Y30.0250
G01 X14.1500Y29.6500
G01 X12.9500Y28.7500
G01 X12.1250Y27.3750
G01 X11.3750Y26.8000
G01 X8.7250Y27.0500
G01 X7.3000Y27.1750
G01 X6.3750Y26.8000
G01 X7.7000Y29.6000
G01 X7.6000Y30.6500
G01 X6.9500Y31.7750
G01 X5.0500Y32.6750
G01 X3.4000Y32.5250
G01 X2.1500Y31.5250
G01 X0.2500Y31.5250
G01 X3.8250Y48.6000
G00 Z1.0000
G00 X26.8500Y30.5500
G01 Z-0.6000
G01 X25.6500Y30.6500
G01 X24.8750Y31.3750
G01 X24.6500Y32.3500
G01 X24.9750Y33.2500
G01 X25.4250Y34.0000
G01 X26.1250Y34.4000
G01 X27.3500Y34.3000
G01 X28.0000Y33.8000
G01 X28.2000Y33.1250
G01 X28.1500Y32.4500
G01 X27.9750Y31.6500
G01 X27.7500Y31.0500
G01 X26.8500Y30.5500
G00 Z1.0000
(Initialize HP-GL/2-mode)
(PT0)
G21
G90
G94
F80.00
G00 Z1.0000
G00 X46.6000Y22.7000
G01 Z-0.9000
G01 X48.1250Y34.3000
G01 X50.5750Y33.8750
G01 X53.1000Y35.7750
G01 X56.0750Y35.3750
G01 X56.8000Y40.9250
G01 X51.5250Y41.7000
G01 X36.4250Y43.4500
G01 X35.1250Y35.6000
G01 X37.7500Y35.2500
G01 X36.2750Y24.0000
G01 X46.6000Y22.7000
G00 Z1.0000
G00 X5.0250Y43.4250
G01 Z-0.9000
G01 X8.0000Y42.6000
G01 X8.9750Y46.0750
G01 X18.7000Y43.3750
G01 X17.7000Y39.8000
G01 X20.7000Y38.9750
G01 X19.4250Y34.3500
G01 X16.3250Y35.2250
G01 X15.3250Y31.5500
G01 X5.5750Y34.2500
G01 X6.6250Y38.0000
G01 X3.7250Y38.8000
G01 X5.0250Y43.4250
G00 Z1.0000
G00 X86.3250Y15.4750
G01 Z-0.9000
G01 X72.5000Y16.3000
G01 X71.9000Y22.8500
G01 X68.4000Y23.0750
G01 X68.3250Y21.5750
G01 X55.7250Y22.5750
G01 X56.1250Y29.0750
G01 X71.5000Y28.0750
G01 X71.5750Y29.0750
G01 X87.1250Y28.1750
G01 X86.3500Y15.4750
G00 Z1.0000
G00 X3.8250Y48.6000
G01 Z-0.9000
G01 X7.9500Y48.8500
G01 X15.1500Y47.2500
G01 X23.9500Y45.2500
G01 X35.8500Y45.6500
G01 X55.2500Y43.3500
G01 X73.8000Y40.0750
G01 X73.6000Y38.5750
G01 X75.8500Y38.2750
G01 X76.0500Y39.7750
G01 X87.0000Y38.2500
G01 X87.3000Y36.8500
G01 X88.9000Y35.9500
G01 X90.2000Y36.5500
G01 X91.1000Y37.6500
G01 X101.5500Y36.4000
G01 X101.0000Y12.4250
G01 X60.7000Y6.7750
G01 X60.8250Y2.1500
G01 X39.1750Y0.3500
G01 X10.1500Y1.3500
G01 X7.9500Y20.0000
G01 X9.0500Y21.2250
G01 X11.1500Y20.9750
G01 X12.7250Y21.5500
G01 X13.4750Y22.4000
G01 X13.6250Y23.5000
G01 X13.4500Y24.7000
G01 X14.5500Y26.2000
G01 X16.7250Y25.5000
G01 X18.4000Y26.4500
G01 X18.8500Y27.8250
G01 X18.6000Y29.0500
G01 X17.5000Y29.9500
G01 X16.0000Y30.0250
G01 X14.1500Y29.6500
G01 X12.9500Y28.7500
G01 X12.1250Y27.3750
G01 X11.3750Y26.8000
G01 X8.7250Y27.0500
G01 X7.3000Y27.1750
G01 X6.3750Y26.8000
G01 X7.7000Y29.6000
G01 X7.6000Y30.6500
G01 X6.9500Y31.7750
G01 X5.0500Y32.6750
G01 X3.4000Y32.5250
G01 X2.1500Y31.5250
G01 X0.2500Y31.5250
G01 X3.8250Y48.6000
G00 Z1.0000
G00 X26.8500Y30.5500
G01 Z-0.9000
G01 X25.6500Y30.6500
G01 X24.8750Y31.3750
G01 X24.6500Y32.3500
G01 X24.9750Y33.2500
G01 X25.4250Y34.0000
G01 X26.1250Y34.4000
G01 X27.3500Y34.3000
G01 X28.0000Y33.8000
G01 X28.2000Y33.1250
G01 X28.1500Y32.4500
G01 X27.9750Y31.6500
G01 X27.7500Y31.0500
G01 X26.8500Y30.5500
G00 Z1.0000
(Initialize HP-GL/2-mode)
(PT0)
G21
G90
G94
F80.00
G00 Z1.0000
G00 X46.6000Y22.7000
G01 Z-1.2000
G01 X48.1250Y34.3000
G01 X50.5750Y33.8750
G01 X53.1000Y35.7750
G01 X56.0750Y35.3750
G01 X56.8000Y40.9250
G01 X51.5250Y41.7000
G01 X36.4250Y43.4500
G01 X35.1250Y35.6000
G01 X37.7500Y35.2500
G01 X36.2750Y24.0000
G01 X46.6000Y22.7000
G00 Z1.0000
G00 X5.0250Y43.4250
G01 Z-1.2000
G01 X8.0000Y42.6000
G01 X8.9750Y46.0750
G01 X18.7000Y43.3750
G01 X17.7000Y39.8000
G01 X20.7000Y38.9750
G01 X19.4250Y34.3500
G01 X16.3250Y35.2250
G01 X15.3250Y31.5500
G01 X5.5750Y34.2500
G01 X6.6250Y38.0000
G01 X3.7250Y38.8000
G01 X5.0250Y43.4250
G00 Z1.0000
G00 X86.3250Y15.4750
G01 Z-1.2000
G01 X72.5000Y16.3000
G01 X71.9000Y22.8500
G01 X68.4000Y23.0750
G01 X68.3250Y21.5750
G01 X55.7250Y22.5750
G01 X56.1250Y29.0750
G01 X71.5000Y28.0750
G01 X71.5750Y29.0750
G01 X87.1250Y28.1750
G01 X86.3500Y15.4750
G00 Z1.0000
G00 X3.8250Y48.6000
G01 Z-1.2000
G01 X7.9500Y48.8500
G01 X15.1500Y47.2500
G01 X23.9500Y45.2500
G01 X35.8500Y45.6500
G01 X55.2500Y43.3500
G01 X73.8000Y40.0750
G01 X73.6000Y38.5750
G01 X75.8500Y38.2750
G01 X76.0500Y39.7750
G01 X87.0000Y38.2500
G01 X87.3000Y36.8500
G01 X88.9000Y35.9500
G01 X90.2000Y36.5500
G01 X91.1000Y37.6500
G01 X101.5500Y36.4000
G01 X101.0000Y12.4250
G01 X60.7000Y6.7750
G01 X60.8250Y2.1500
G01 X39.1750Y0.3500
G01 X10.1500Y1.3500
G01 X7.9500Y20.0000
G01 X9.0500Y21.2250
G01 X11.1500Y20.9750
G01 X12.7250Y21.5500
G01 X13.4750Y22.4000
G01 X13.6250Y23.5000
G01 X13.4500Y24.7000
G01 X14.5500Y26.2000
G01 X16.7250Y25.5000
G01 X18.4000Y26.4500
G01 X18.8500Y27.8250
G01 X18.6000Y29.0500
G01 X17.5000Y29.9500
G01 X16.0000Y30.0250
G01 X14.1500Y29.6500
G01 X12.9500Y28.7500
G01 X12.1250Y27.3750
G01 X11.3750Y26.8000
G01 X8.7250Y27.0500
G01 X7.3000Y27.1750
G01 X6.3750Y26.8000
G01 X7.7000Y29.6000
G01 X7.6000Y30.6500
G01 X6.9500Y31.7750
G01 X5.0500Y32.6750
G01 X3.4000Y32.5250
G01 X2.1500Y31.5250
G01 X0.2500Y31.5250
G01 X3.8250Y48.6000
G00 Z1.0000
G00 X26.8500Y30.5500
G01 Z-1.2000
G01 X25.6500Y30.6500
G01 X24.8750Y31.3750
G01 X24.6500Y32.3500
G01 X24.9750Y33.2500
G01 X25.4250Y34.0000
G01 X26.1250Y34.4000
G01 X27.3500Y34.3000
G01 X28.0000Y33.8000
G01 X28.2000Y33.1250
G01 X28.1500Y32.4500
G01 X27.9750Y31.6500
G01 X27.7500Y31.0500
G01 X26.8500Y30.5500
G00 Z1.0000
(Initialize HP-GL/2-mode)
(PT0)
G21
G90
G94
F80.00
G00 Z1.0000
G00 X46.6000Y22.7000
G01 Z-1.5000
G01 X48.1250Y34.3000
G01 X50.5750Y33.8750
G01 X53.1000Y35.7750
G01 X56.0750Y35.3750
G01 X56.8000Y40.9250
G01 X51.5250Y41.7000
G01 X36.4250Y43.4500
G01 X35.1250Y35.6000
G01 X37.7500Y35.2500
G01 X36.2750Y24.0000
G01 X46.6000Y22.7000
G00 Z1.0000
G00 X5.0250Y43.4250
G01 Z-1.5000
G01 X8.0000Y42.6000
G01 X8.9750Y46.0750
G01 X18.7000Y43.3750
G01 X17.7000Y39.8000
G01 X20.7000Y38.9750
G01 X19.4250Y34.3500
G01 X16.3250Y35.2250
G01 X15.3250Y31.5500
G01 X5.5750Y34.2500
G01 X6.6250Y38.0000
G01 X3.7250Y38.8000
G01 X5.0250Y43.4250
G00 Z1.0000
G00 X86.3250Y15.4750
G01 Z-1.5000
G01 X72.5000Y16.3000
G01 X71.9000Y22.8500
G01 X68.4000Y23.0750
G01 X68.3250Y21.5750
G01 X55.7250Y22.5750
G01 X56.1250Y29.0750
G01 X71.5000Y28.0750
G01 X71.5750Y29.0750
G01 X87.1250Y28.1750
G01 X86.3500Y15.4750
G00 Z1.0000
G00 X3.8250Y48.6000
G01 Z-1.5000
G01 X7.9500Y48.8500
G01 X15.1500Y47.2500
G01 X23.9500Y45.2500
G01 X35.8500Y45.6500
G01 X55.2500Y43.3500
G01 X73.8000Y40.0750
G01 X73.6000Y38.5750
G01 X75.8500Y38.2750
G01 X76.0500Y39.7750
G01 X87.0000Y38.2500
G01 X87.3000Y36.8500
G01 X88.9000Y35.9500
G01 X90.2000Y36.5500
G01 X91.1000Y37.6500
G01 X101.5500Y36.4000
G01 X101.0000Y12.4250
G01 X60.7000Y6.7750
G01 X60.8250Y2.1500
G01 X39.1750Y0.3500
G01 X10.1500Y1.3500
G01 X7.9500Y20.0000
G01 X9.0500Y21.2250
G01 X11.1500Y20.9750
G01 X12.7250Y21.5500
G01 X13.4750Y22.4000
G01 X13.6250Y23.5000
G01 X13.4500Y24.7000
G01 X14.5500Y26.2000
G01 X16.7250Y25.5000
G01 X18.4000Y26.4500
G01 X18.8500Y27.8250
G01 X18.6000Y29.0500
G01 X17.5000Y29.9500
G01 X16.0000Y30.0250
G01 X14.1500Y29.6500
G01 X12.9500Y28.7500
G01 X12.1250Y27.3750
G01 X11.3750Y26.8000
G01 X8.7250Y27.0500
G01 X7.3000Y27.1750
G01 X6.3750Y26.8000
G01 X7.7000Y29.6000
G01 X7.6000Y30.6500
G01 X6.9500Y31.7750
G01 X5.0500Y32.6750
G01 X3.4000Y32.5250
G01 X2.1500Y31.5250
G01 X0.2500Y31.5250
G01 X3.8250Y48.6000
G00 Z1.0000
G00 X26.8500Y30.5500
G01 Z-1.5000
G01 X25.6500Y30.6500
G01 X24.8750Y31.3750
G01 X24.6500Y32.3500
G01 X24.9750Y33.2500
G01 X25.4250Y34.0000
G01 X26.1250Y34.4000
G01 X27.3500Y34.3000
G01 X28.0000Y33.8000
G01 X28.2000Y33.1250
G01 X28.1500Y32.4500
G01 X27.9750Y31.6500
G01 X27.7500Y31.0500
G01 X26.8500Y30.5500
G00 Z1.0000
(Ende)
G80
G90
G00 Z10 X0 Y0
M05
M09
M30