%Generated by HPGL2GCODE
(Start)
M03 S500
G4 P1
M03 S750
G4 P1
M03 S1000
G4 P2
(Initialize HP-GL/2-mode)
(PT0)
G21
G90
G94
F80.00
G00 Z1.0000
G00 X53.7500Y89.6500
G01 Z-0.2800
G01 X53.7500Y-0.3500
G00 Z1.0000
G00 X53.7500Y-0.3500
G01 Z-0.2800
G01 X21.2500Y-0.3500
G00 Z1.0000
G00 X53.7500Y89.6500
G01 Z-0.2800
G01 X23.2500Y89.6500
G00 Z1.0000
G00 X23.2500Y89.6500
G01 Z-0.2800
G01 X0.2500Y80.6500
G00 Z1.0000
G00 X0.2500Y80.6500
G01 Z-0.2800
G01 X21.2500Y-0.3500
G00 Z1.0000
(Initialize HP-GL/2-mode)
(PT0)
G21
G90
G94
F80.00
G00 Z1.0000
G00 X53.7500Y89.6500
G01 Z-0.5600
G01 X53.7500Y-0.3500
G00 Z1.0000
G00 X53.7500Y-0.3500
G01 Z-0.5600
G01 X21.2500Y-0.3500
G00 Z1.0000
G00 X53.7500Y89.6500
G01 Z-0.5600
G01 X23.2500Y89.6500
G00 Z1.0000
G00 X23.2500Y89.6500
G01 Z-0.5600
G01 X0.2500Y80.6500
G00 Z1.0000
G00 X0.2500Y80.6500
G01 Z-0.5600
G01 X21.2500Y-0.3500
G00 Z1.0000
(Initialize HP-GL/2-mode)
(PT0)
G21
G90
G94
F80.00
G00 Z1.0000
G00 X53.7500Y89.6500
G01 Z-0.8400
G01 X53.7500Y-0.3500
G00 Z1.0000
G00 X53.7500Y-0.3500
G01 Z-0.8400
G01 X21.2500Y-0.3500
G00 Z1.0000
G00 X53.7500Y89.6500
G01 Z-0.8400
G01 X23.2500Y89.6500
G00 Z1.0000
G00 X23.2500Y89.6500
G01 Z-0.8400
G01 X0.2500Y80.6500
G00 Z1.0000
G00 X0.2500Y80.6500
G01 Z-0.8400
G01 X21.2500Y-0.3500
G00 Z1.0000
(Initialize HP-GL/2-mode)
(PT0)
G21
G90
G94
F80.00
G00 Z1.0000
G00 X53.7500Y89.6500
G01 Z-1.1200
G01 X53.7500Y-0.3500
G00 Z1.0000
G00 X53.7500Y-0.3500
G01 Z-1.1200
G01 X21.2500Y-0.3500
G00 Z1.0000
G00 X53.7500Y89.6500
G01 Z-1.1200
G01 X23.2500Y89.6500
G00 Z1.0000
G00 X23.2500Y89.6500
G01 Z-1.1200
G01 X0.2500Y80.6500
G00 Z1.0000
G00 X0.2500Y80.6500
G01 Z-1.1200
G01 X21.2500Y-0.3500
G00 Z1.0000
(Initialize HP-GL/2-mode)
(PT0)
G21
G90
G94
F80.00
G00 Z1.0000
G00 X53.7500Y89.6500
G01 Z-1.4000
G01 X53.7500Y-0.3500
G00 Z1.0000
G00 X53.7500Y-0.3500
G01 Z-1.4000
G01 X21.2500Y-0.3500
G00 Z1.0000
G00 X53.7500Y89.6500
G01 Z-1.4000
G01 X23.2500Y89.6500
G00 Z1.0000
G00 X23.2500Y89.6500
G01 Z-1.4000
G01 X0.2500Y80.6500
G00 Z1.0000
G00 X0.2500Y80.6500
G01 Z-1.4000
G01 X21.2500Y-0.3500
G00 Z1.0000
(Ende)
G80
G90
G00 Z10 X0 Y0
M05
M09
M30