%Generated by HPGL2GCODE
(Start)
M03 S500
G4 P1
M03 S750
G4 P1
M03 S1000
G4 P2
(Initialize HP-GL/2-mode)
(PT0)
G21
G90
G94
F80.00
G00 Z1.0000
G00 X46.6000Y22.8000
G01 Z-0.3000
G01 X48.1250Y34.4000
G01 X50.5750Y33.9750
G01 X53.1000Y35.8750
G01 X56.0750Y35.4750
G01 X56.8000Y41.0250
G01 X51.5250Y41.8000
G01 X36.4250Y43.5500
G01 X35.1250Y35.7000
G01 X37.7500Y35.3500
G01 X36.2750Y24.1000
G01 X46.6000Y22.8000
G00 Z1.0000
G00 X5.0250Y44.0250
G01 Z-0.3000
G01 X8.0000Y43.2000
G01 X8.9750Y46.6750
G01 X18.7000Y43.9750
G01 X17.7000Y40.4000
G01 X20.7000Y39.5750
G01 X19.4250Y34.9500
G01 X16.3250Y35.8250
G01 X15.3250Y32.1500
G01 X5.5750Y34.8500
G01 X6.6250Y38.6000
G01 X3.7250Y39.4000
G01 X5.0250Y44.0250
G00 Z1.0000
G00 X86.3250Y15.5750
G01 Z-0.3000
G01 X72.5000Y16.4000
G01 X71.9000Y22.9500
G01 X68.4000Y23.1750
G01 X68.3250Y21.6750
G01 X55.7250Y22.6750
G01 X56.1250Y29.1750
G01 X71.5000Y28.1750
G01 X71.5750Y29.1750
G01 X87.1250Y28.2750
G01 X86.3500Y15.5750
G00 Z1.0000
G00 X3.8250Y48.7000
G01 Z-0.3000
G01 X25.4250Y48.8250
G01 X73.8000Y40.1750
G01 X73.6000Y38.6750
G01 X75.8500Y38.3750
G01 X76.0500Y39.8750
G01 X87.0000Y38.3500
G01 X87.3000Y36.9500
G01 X88.9000Y36.0500
G01 X90.2000Y36.6500
G01 X91.1000Y37.7500
G01 X101.5500Y36.5000
G01 X101.0000Y12.5250
G01 X60.7000Y6.8750
G01 X60.8250Y2.2500
G01 X39.1750Y0.4500
G01 X3.6000Y1.6000
G01 X0.6000Y21.6500
G01 X5.6000Y23.8000
G01 X6.0500Y22.6250
G01 X5.9000Y21.4250
G01 X6.3000Y20.3750
G01 X7.9500Y20.1000
G01 X9.0500Y21.3250
G01 X11.1500Y21.0750
G01 X12.7250Y21.6500
G01 X13.4750Y22.5000
G01 X13.6250Y23.6000
G01 X13.4500Y24.8000
G01 X14.5500Y26.3000
G01 X16.7250Y25.6000
G01 X18.4000Y26.5500
G01 X18.8500Y27.9250
G01 X18.6000Y29.1500
G01 X17.5000Y30.0500
G01 X16.0000Y30.1250
G01 X14.1500Y29.7500
G01 X12.9500Y28.8500
G01 X12.1250Y27.4750
G01 X11.3750Y26.9000
G01 X8.7250Y27.1500
G01 X7.3000Y27.2750
G01 X6.3750Y26.9000
G01 X7.7000Y29.7000
G01 X7.6000Y30.7500
G01 X6.9500Y31.8750
G01 X5.0500Y32.7750
G01 X3.4000Y32.6250
G01 X2.1500Y31.6250
G01 X0.2500Y31.6250
G01 X3.8250Y48.7000
G00 Z1.0000
(Initialize HP-GL/2-mode)
(PT0)
G21
G90
G94
F80.00
G00 Z1.0000
G00 X46.6000Y22.8000
G01 Z-0.6000
G01 X48.1250Y34.4000
G01 X50.5750Y33.9750
G01 X53.1000Y35.8750
G01 X56.0750Y35.4750
G01 X56.8000Y41.0250
G01 X51.5250Y41.8000
G01 X36.4250Y43.5500
G01 X35.1250Y35.7000
G01 X37.7500Y35.3500
G01 X36.2750Y24.1000
G01 X46.6000Y22.8000
G00 Z1.0000
G00 X5.0250Y44.0250
G01 Z-0.6000
G01 X8.0000Y43.2000
G01 X8.9750Y46.6750
G01 X18.7000Y43.9750
G01 X17.7000Y40.4000
G01 X20.7000Y39.5750
G01 X19.4250Y34.9500
G01 X16.3250Y35.8250
G01 X15.3250Y32.1500
G01 X5.5750Y34.8500
G01 X6.6250Y38.6000
G01 X3.7250Y39.4000
G01 X5.0250Y44.0250
G00 Z1.0000
G00 X86.3250Y15.5750
G01 Z-0.6000
G01 X72.5000Y16.4000
G01 X71.9000Y22.9500
G01 X68.4000Y23.1750
G01 X68.3250Y21.6750
G01 X55.7250Y22.6750
G01 X56.1250Y29.1750
G01 X71.5000Y28.1750
G01 X71.5750Y29.1750
G01 X87.1250Y28.2750
G01 X86.3500Y15.5750
G00 Z1.0000
G00 X3.8250Y48.7000
G01 Z-0.6000
G01 X25.4250Y48.8250
G01 X73.8000Y40.1750
G01 X73.6000Y38.6750
G01 X75.8500Y38.3750
G01 X76.0500Y39.8750
G01 X87.0000Y38.3500
G01 X87.3000Y36.9500
G01 X88.9000Y36.0500
G01 X90.2000Y36.6500
G01 X91.1000Y37.7500
G01 X101.5500Y36.5000
G01 X101.0000Y12.5250
G01 X60.7000Y6.8750
G01 X60.8250Y2.2500
G01 X39.1750Y0.4500
G01 X3.6000Y1.6000
G01 X0.6000Y21.6500
G01 X5.6000Y23.8000
G01 X6.0500Y22.6250
G01 X5.9000Y21.4250
G01 X6.3000Y20.3750
G01 X7.9500Y20.1000
G01 X9.0500Y21.3250
G01 X11.1500Y21.0750
G01 X12.7250Y21.6500
G01 X13.4750Y22.5000
G01 X13.6250Y23.6000
G01 X13.4500Y24.8000
G01 X14.5500Y26.3000
G01 X16.7250Y25.6000
G01 X18.4000Y26.5500
G01 X18.8500Y27.9250
G01 X18.6000Y29.1500
G01 X17.5000Y30.0500
G01 X16.0000Y30.1250
G01 X14.1500Y29.7500
G01 X12.9500Y28.8500
G01 X12.1250Y27.4750
G01 X11.3750Y26.9000
G01 X8.7250Y27.1500
G01 X7.3000Y27.2750
G01 X6.3750Y26.9000
G01 X7.7000Y29.7000
G01 X7.6000Y30.7500
G01 X6.9500Y31.8750
G01 X5.0500Y32.7750
G01 X3.4000Y32.6250
G01 X2.1500Y31.6250
G01 X0.2500Y31.6250
G01 X3.8250Y48.7000
G00 Z1.0000
(Initialize HP-GL/2-mode)
(PT0)
G21
G90
G94
F80.00
G00 Z1.0000
G00 X46.6000Y22.8000
G01 Z-0.9000
G01 X48.1250Y34.4000
G01 X50.5750Y33.9750
G01 X53.1000Y35.8750
G01 X56.0750Y35.4750
G01 X56.8000Y41.0250
G01 X51.5250Y41.8000
G01 X36.4250Y43.5500
G01 X35.1250Y35.7000
G01 X37.7500Y35.3500
G01 X36.2750Y24.1000
G01 X46.6000Y22.8000
G00 Z1.0000
G00 X5.0250Y44.0250
G01 Z-0.9000
G01 X8.0000Y43.2000
G01 X8.9750Y46.6750
G01 X18.7000Y43.9750
G01 X17.7000Y40.4000
G01 X20.7000Y39.5750
G01 X19.4250Y34.9500
G01 X16.3250Y35.8250
G01 X15.3250Y32.1500
G01 X5.5750Y34.8500
G01 X6.6250Y38.6000
G01 X3.7250Y39.4000
G01 X5.0250Y44.0250
G00 Z1.0000
G00 X86.3250Y15.5750
G01 Z-0.9000
G01 X72.5000Y16.4000
G01 X71.9000Y22.9500
G01 X68.4000Y23.1750
G01 X68.3250Y21.6750
G01 X55.7250Y22.6750
G01 X56.1250Y29.1750
G01 X71.5000Y28.1750
G01 X71.5750Y29.1750
G01 X87.1250Y28.2750
G01 X86.3500Y15.5750
G00 Z1.0000
G00 X3.8250Y48.7000
G01 Z-0.9000
G01 X25.4250Y48.8250
G01 X73.8000Y40.1750
G01 X73.6000Y38.6750
G01 X75.8500Y38.3750
G01 X76.0500Y39.8750
G01 X87.0000Y38.3500
G01 X87.3000Y36.9500
G01 X88.9000Y36.0500
G01 X90.2000Y36.6500
G01 X91.1000Y37.7500
G01 X101.5500Y36.5000
G01 X101.0000Y12.5250
G01 X60.7000Y6.8750
G01 X60.8250Y2.2500
G01 X39.1750Y0.4500
G01 X3.6000Y1.6000
G01 X0.6000Y21.6500
G01 X5.6000Y23.8000
G01 X6.0500Y22.6250
G01 X5.9000Y21.4250
G01 X6.3000Y20.3750
G01 X7.9500Y20.1000
G01 X9.0500Y21.3250
G01 X11.1500Y21.0750
G01 X12.7250Y21.6500
G01 X13.4750Y22.5000
G01 X13.6250Y23.6000
G01 X13.4500Y24.8000
G01 X14.5500Y26.3000
G01 X16.7250Y25.6000
G01 X18.4000Y26.5500
G01 X18.8500Y27.9250
G01 X18.6000Y29.1500
G01 X17.5000Y30.0500
G01 X16.0000Y30.1250
G01 X14.1500Y29.7500
G01 X12.9500Y28.8500
G01 X12.1250Y27.4750
G01 X11.3750Y26.9000
G01 X8.7250Y27.1500
G01 X7.3000Y27.2750
G01 X6.3750Y26.9000
G01 X7.7000Y29.7000
G01 X7.6000Y30.7500
G01 X6.9500Y31.8750
G01 X5.0500Y32.7750
G01 X3.4000Y32.6250
G01 X2.1500Y31.6250
G01 X0.2500Y31.6250
G01 X3.8250Y48.7000
G00 Z1.0000
(Initialize HP-GL/2-mode)
(PT0)
G21
G90
G94
F80.00
G00 Z1.0000
G00 X46.6000Y22.8000
G01 Z-1.2000
G01 X48.1250Y34.4000
G01 X50.5750Y33.9750
G01 X53.1000Y35.8750
G01 X56.0750Y35.4750
G01 X56.8000Y41.0250
G01 X51.5250Y41.8000
G01 X36.4250Y43.5500
G01 X35.1250Y35.7000
G01 X37.7500Y35.3500
G01 X36.2750Y24.1000
G01 X46.6000Y22.8000
G00 Z1.0000
G00 X5.0250Y44.0250
G01 Z-1.2000
G01 X8.0000Y43.2000
G01 X8.9750Y46.6750
G01 X18.7000Y43.9750
G01 X17.7000Y40.4000
G01 X20.7000Y39.5750
G01 X19.4250Y34.9500
G01 X16.3250Y35.8250
G01 X15.3250Y32.1500
G01 X5.5750Y34.8500
G01 X6.6250Y38.6000
G01 X3.7250Y39.4000
G01 X5.0250Y44.0250
G00 Z1.0000
G00 X86.3250Y15.5750
G01 Z-1.2000
G01 X72.5000Y16.4000
G01 X71.9000Y22.9500
G01 X68.4000Y23.1750
G01 X68.3250Y21.6750
G01 X55.7250Y22.6750
G01 X56.1250Y29.1750
G01 X71.5000Y28.1750
G01 X71.5750Y29.1750
G01 X87.1250Y28.2750
G01 X86.3500Y15.5750
G00 Z1.0000
G00 X3.8250Y48.7000
G01 Z-1.2000
G01 X25.4250Y48.8250
G01 X73.8000Y40.1750
G01 X73.6000Y38.6750
G01 X75.8500Y38.3750
G01 X76.0500Y39.8750
G01 X87.0000Y38.3500
G01 X87.3000Y36.9500
G01 X88.9000Y36.0500
G01 X90.2000Y36.6500
G01 X91.1000Y37.7500
G01 X101.5500Y36.5000
G01 X101.0000Y12.5250
G01 X60.7000Y6.8750
G01 X60.8250Y2.2500
G01 X39.1750Y0.4500
G01 X3.6000Y1.6000
G01 X0.6000Y21.6500
G01 X5.6000Y23.8000
G01 X6.0500Y22.6250
G01 X5.9000Y21.4250
G01 X6.3000Y20.3750
G01 X7.9500Y20.1000
G01 X9.0500Y21.3250
G01 X11.1500Y21.0750
G01 X12.7250Y21.6500
G01 X13.4750Y22.5000
G01 X13.6250Y23.6000
G01 X13.4500Y24.8000
G01 X14.5500Y26.3000
G01 X16.7250Y25.6000
G01 X18.4000Y26.5500
G01 X18.8500Y27.9250
G01 X18.6000Y29.1500
G01 X17.5000Y30.0500
G01 X16.0000Y30.1250
G01 X14.1500Y29.7500
G01 X12.9500Y28.8500
G01 X12.1250Y27.4750
G01 X11.3750Y26.9000
G01 X8.7250Y27.1500
G01 X7.3000Y27.2750
G01 X6.3750Y26.9000
G01 X7.7000Y29.7000
G01 X7.6000Y30.7500
G01 X6.9500Y31.8750
G01 X5.0500Y32.7750
G01 X3.4000Y32.6250
G01 X2.1500Y31.6250
G01 X0.2500Y31.6250
G01 X3.8250Y48.7000
G00 Z1.0000
(Initialize HP-GL/2-mode)
(PT0)
G21
G90
G94
F80.00
G00 Z1.0000
G00 X46.6000Y22.8000
G01 Z-1.5000
G01 X48.1250Y34.4000
G01 X50.5750Y33.9750
G01 X53.1000Y35.8750
G01 X56.0750Y35.4750
G01 X56.8000Y41.0250
G01 X51.5250Y41.8000
G01 X36.4250Y43.5500
G01 X35.1250Y35.7000
G01 X37.7500Y35.3500
G01 X36.2750Y24.1000
G01 X46.6000Y22.8000
G00 Z1.0000
G00 X5.0250Y44.0250
G01 Z-1.5000
G01 X8.0000Y43.2000
G01 X8.9750Y46.6750
G01 X18.7000Y43.9750
G01 X17.7000Y40.4000
G01 X20.7000Y39.5750
G01 X19.4250Y34.9500
G01 X16.3250Y35.8250
G01 X15.3250Y32.1500
G01 X5.5750Y34.8500
G01 X6.6250Y38.6000
G01 X3.7250Y39.4000
G01 X5.0250Y44.0250
G00 Z1.0000
G00 X86.3250Y15.5750
G01 Z-1.5000
G01 X72.5000Y16.4000
G01 X71.9000Y22.9500
G01 X68.4000Y23.1750
G01 X68.3250Y21.6750
G01 X55.7250Y22.6750
G01 X56.1250Y29.1750
G01 X71.5000Y28.1750
G01 X71.5750Y29.1750
G01 X87.1250Y28.2750
G01 X86.3500Y15.5750
G00 Z1.0000
G00 X3.8250Y48.7000
G01 Z-1.5000
G01 X25.4250Y48.8250
G01 X73.8000Y40.1750
G01 X73.6000Y38.6750
G01 X75.8500Y38.3750
G01 X76.0500Y39.8750
G01 X87.0000Y38.3500
G01 X87.3000Y36.9500
G01 X88.9000Y36.0500
G01 X90.2000Y36.6500
G01 X91.1000Y37.7500
G01 X101.5500Y36.5000
G01 X101.0000Y12.5250
G01 X60.7000Y6.8750
G01 X60.8250Y2.2500
G01 X39.1750Y0.4500
G01 X3.6000Y1.6000
G01 X0.6000Y21.6500
G01 X5.6000Y23.8000
G01 X6.0500Y22.6250
G01 X5.9000Y21.4250
G01 X6.3000Y20.3750
G01 X7.9500Y20.1000
G01 X9.0500Y21.3250
G01 X11.1500Y21.0750
G01 X12.7250Y21.6500
G01 X13.4750Y22.5000
G01 X13.6250Y23.6000
G01 X13.4500Y24.8000
G01 X14.5500Y26.3000
G01 X16.7250Y25.6000
G01 X18.4000Y26.5500
G01 X18.8500Y27.9250
G01 X18.6000Y29.1500
G01 X17.5000Y30.0500
G01 X16.0000Y30.1250
G01 X14.1500Y29.7500
G01 X12.9500Y28.8500
G01 X12.1250Y27.4750
G01 X11.3750Y26.9000
G01 X8.7250Y27.1500
G01 X7.3000Y27.2750
G01 X6.3750Y26.9000
G01 X7.7000Y29.7000
G01 X7.6000Y30.7500
G01 X6.9500Y31.8750
G01 X5.0500Y32.7750
G01 X3.4000Y32.6250
G01 X2.1500Y31.6250
G01 X0.2500Y31.6250
G01 X3.8250Y48.7000
G00 Z1.0000
(Ende)
G80
G90
G00 Z10 X0 Y0
M05
M09
M30