%Generated by HPGL2GCODE
(Start)
M03 S500
G4 P1
M03 S750
G4 P1
M03 S1000
G4 P2
(Initialize HP-GL/2-mode)
(PT0)
G21
G90
G94
F80.00
G00 Z1.0000
G00 X52.0000Y79.0000
G01 Z-0.2500
G01 X43.2500Y39.7500
G01 X39.2500Y20.2500
G01 X36.3250Y-0.0250
G00 Z1.0000
G00 X36.3250Y-0.0250
G01 Z-0.2500
G01 X0.0000Y0.0000
G00 Z1.0000
G00 X52.0000Y79.0000
G01 Z-0.2500
G01 X26.4750Y85.8750
G00 Z1.0000
G00 X26.4750Y85.8750
G01 Z-0.2500
G01 X-1.3000Y83.6750
G00 Z1.0000
G00 X-1.3000Y83.6750
G01 Z-0.2500
G01 X-0.0250Y20.9750
G01 X1.4750Y20.9750
G01 X1.4750Y18.7250
G01 X-0.0250Y18.7250
G01 X0.0000Y0.0000
G00 Z1.0000
(Initialize HP-GL/2-mode)
(PT0)
G21
G90
G94
F80.00
G00 Z1.0000
G00 X52.0000Y79.0000
G01 Z-0.5000
G01 X43.2500Y39.7500
G01 X39.2500Y20.2500
G01 X36.3250Y-0.0250
G00 Z1.0000
G00 X36.3250Y-0.0250
G01 Z-0.5000
G01 X0.0000Y0.0000
G00 Z1.0000
G00 X52.0000Y79.0000
G01 Z-0.5000
G01 X26.4750Y85.8750
G00 Z1.0000
G00 X26.4750Y85.8750
G01 Z-0.5000
G01 X-1.3000Y83.6750
G00 Z1.0000
G00 X-1.3000Y83.6750
G01 Z-0.5000
G01 X-0.0250Y20.9750
G01 X1.4750Y20.9750
G01 X1.4750Y18.7250
G01 X-0.0250Y18.7250
G01 X0.0000Y0.0000
G00 Z1.0000
(Initialize HP-GL/2-mode)
(PT0)
G21
G90
G94
F80.00
G00 Z1.0000
G00 X52.0000Y79.0000
G01 Z-0.7500
G01 X43.2500Y39.7500
G01 X39.2500Y20.2500
G01 X36.3250Y-0.0250
G00 Z1.0000
G00 X36.3250Y-0.0250
G01 Z-0.7500
G01 X0.0000Y0.0000
G00 Z1.0000
G00 X52.0000Y79.0000
G01 Z-0.7500
G01 X26.4750Y85.8750
G00 Z1.0000
G00 X26.4750Y85.8750
G01 Z-0.7500
G01 X-1.3000Y83.6750
G00 Z1.0000
G00 X-1.3000Y83.6750
G01 Z-0.7500
G01 X-0.0250Y20.9750
G01 X1.4750Y20.9750
G01 X1.4750Y18.7250
G01 X-0.0250Y18.7250
G01 X0.0000Y0.0000
G00 Z1.0000
(Initialize HP-GL/2-mode)
(PT0)
G21
G90
G94
F80.00
G00 Z1.0000
G00 X52.0000Y79.0000
G01 Z-1.0000
G01 X43.2500Y39.7500
G01 X39.2500Y20.2500
G01 X36.3250Y-0.0250
G00 Z1.0000
G00 X36.3250Y-0.0250
G01 Z-1.0000
G01 X0.0000Y0.0000
G00 Z1.0000
G00 X52.0000Y79.0000
G01 Z-1.0000
G01 X26.4750Y85.8750
G00 Z1.0000
G00 X26.4750Y85.8750
G01 Z-1.0000
G01 X-1.3000Y83.6750
G00 Z1.0000
G00 X-1.3000Y83.6750
G01 Z-1.0000
G01 X-0.0250Y20.9750
G01 X1.4750Y20.9750
G01 X1.4750Y18.7250
G01 X-0.0250Y18.7250
G01 X0.0000Y0.0000
G00 Z1.0000
(Initialize HP-GL/2-mode)
(PT0)
G21
G90
G94
F80.00
G00 Z1.0000
G00 X52.0000Y79.0000
G01 Z-1.2500
G01 X43.2500Y39.7500
G01 X39.2500Y20.2500
G01 X36.3250Y-0.0250
G00 Z1.0000
G00 X36.3250Y-0.0250
G01 Z-1.2500
G01 X0.0000Y0.0000
G00 Z1.0000
G00 X52.0000Y79.0000
G01 Z-1.2500
G01 X26.4750Y85.8750
G00 Z1.0000
G00 X26.4750Y85.8750
G01 Z-1.2500
G01 X-1.3000Y83.6750
G00 Z1.0000
G00 X-1.3000Y83.6750
G01 Z-1.2500
G01 X-0.0250Y20.9750
G01 X1.4750Y20.9750
G01 X1.4750Y18.7250
G01 X-0.0250Y18.7250
G01 X0.0000Y0.0000
G00 Z1.0000
(Initialize HP-GL/2-mode)
(PT0)
G21
G90
G94
F80.00
G00 Z1.0000
G00 X52.0000Y79.0000
G01 Z-1.5000
G01 X43.2500Y39.7500
G01 X39.2500Y20.2500
G01 X36.3250Y-0.0250
G00 Z1.0000
G00 X36.3250Y-0.0250
G01 Z-1.5000
G01 X0.0000Y0.0000
G00 Z1.0000
G00 X52.0000Y79.0000
G01 Z-1.5000
G01 X26.4750Y85.8750
G00 Z1.0000
G00 X26.4750Y85.8750
G01 Z-1.5000
G01 X-1.3000Y83.6750
G00 Z1.0000
G00 X-1.3000Y83.6750
G01 Z-1.5000
G01 X-0.0250Y20.9750
G01 X1.4750Y20.9750
G01 X1.4750Y18.7250
G01 X-0.0250Y18.7250
G01 X0.0000Y0.0000
G00 Z1.0000
(Ende)
G80
G90
G00 Z10 X0 Y0
M05
M09
M30