%Generated by HPGL2GCODE
(Start)
M03 S500
G4 P1
M03 S750
G4 P1
M03 S1000
G4 P2
(Initialize HP-GL/2-mode)
(PT0)
G21
G90
G94
F80.00
G00 Z1.0000
G00 X7.0750Y0.3750
G01 Z-0.2800
G01 X0.2000Y25.9000
G00 Z1.0000
G00 X0.2000Y25.9000
G01 Z-0.2800
G01 X2.4000Y53.6750
G00 Z1.0000
G00 X94.1250Y15.0750
G01 Z-0.2800
G01 X65.8250Y13.1250
G01 X7.0750Y0.3750
G00 Z1.0000
G00 X94.1250Y15.0750
G01 Z-0.2800
G01 X94.0750Y50.8750
G01 X68.3500Y50.9000
G01 X68.3500Y49.4000
G01 X66.1000Y49.4000
G01 X66.1000Y50.9000
G01 X2.4000Y53.6750
G00 Z1.0000
G00 X41.4500Y30.0000
G01 Z-0.2800
G01 X41.4500Y41.7000
G01 X43.9500Y41.6000
G01 X46.2000Y43.8250
G01 X49.2000Y43.8250
G01 X49.2000Y49.4250
G01 X43.8500Y49.5000
G01 X28.6500Y49.2500
G01 X28.4000Y41.3000
G01 X31.0500Y41.3000
G01 X31.0500Y29.9500
G01 X41.4500Y30.0000
G00 Z1.0000
G00 X11.0000Y45.0250
G01 Z-0.2800
G01 X11.0000Y41.9250
G01 X14.6000Y41.9250
G01 X14.6000Y31.8250
G01 X10.9000Y31.8250
G01 X10.9000Y28.7250
G01 X6.1000Y28.7250
G01 X6.1000Y31.9250
G01 X2.3000Y31.9250
G01 X2.3000Y42.0250
G01 X6.2000Y42.0250
G01 X6.2000Y45.0250
G01 X11.0000Y45.0250
G00 Z1.0000
G00 X82.7500Y25.7750
G01 Z-0.2800
G01 X69.0750Y23.5000
G01 X67.0250Y29.7500
G01 X63.5750Y29.1750
G01 X63.8000Y27.7000
G01 X51.3250Y25.8500
G01 X50.2500Y32.2500
G01 X65.4750Y34.7500
G01 X65.3000Y35.7250
G01 X80.6500Y38.3500
G01 X82.7500Y25.8000
G00 Z1.0000
(Initialize HP-GL/2-mode)
(PT0)
G21
G90
G94
F80.00
G00 Z1.0000
G00 X7.0750Y0.3750
G01 Z-0.5600
G01 X0.2000Y25.9000
G00 Z1.0000
G00 X0.2000Y25.9000
G01 Z-0.5600
G01 X2.4000Y53.6750
G00 Z1.0000
G00 X94.1250Y15.0750
G01 Z-0.5600
G01 X65.8250Y13.1250
G01 X7.0750Y0.3750
G00 Z1.0000
G00 X94.1250Y15.0750
G01 Z-0.5600
G01 X94.0750Y50.8750
G01 X68.3500Y50.9000
G01 X68.3500Y49.4000
G01 X66.1000Y49.4000
G01 X66.1000Y50.9000
G01 X2.4000Y53.6750
G00 Z1.0000
G00 X41.4500Y30.0000
G01 Z-0.5600
G01 X41.4500Y41.7000
G01 X43.9500Y41.6000
G01 X46.2000Y43.8250
G01 X49.2000Y43.8250
G01 X49.2000Y49.4250
G01 X43.8500Y49.5000
G01 X28.6500Y49.2500
G01 X28.4000Y41.3000
G01 X31.0500Y41.3000
G01 X31.0500Y29.9500
G01 X41.4500Y30.0000
G00 Z1.0000
G00 X11.0000Y45.0250
G01 Z-0.5600
G01 X11.0000Y41.9250
G01 X14.6000Y41.9250
G01 X14.6000Y31.8250
G01 X10.9000Y31.8250
G01 X10.9000Y28.7250
G01 X6.1000Y28.7250
G01 X6.1000Y31.9250
G01 X2.3000Y31.9250
G01 X2.3000Y42.0250
G01 X6.2000Y42.0250
G01 X6.2000Y45.0250
G01 X11.0000Y45.0250
G00 Z1.0000
G00 X82.7500Y25.7750
G01 Z-0.5600
G01 X69.0750Y23.5000
G01 X67.0250Y29.7500
G01 X63.5750Y29.1750
G01 X63.8000Y27.7000
G01 X51.3250Y25.8500
G01 X50.2500Y32.2500
G01 X65.4750Y34.7500
G01 X65.3000Y35.7250
G01 X80.6500Y38.3500
G01 X82.7500Y25.8000
G00 Z1.0000
(Initialize HP-GL/2-mode)
(PT0)
G21
G90
G94
F80.00
G00 Z1.0000
G00 X7.0750Y0.3750
G01 Z-0.8400
G01 X0.2000Y25.9000
G00 Z1.0000
G00 X0.2000Y25.9000
G01 Z-0.8400
G01 X2.4000Y53.6750
G00 Z1.0000
G00 X94.1250Y15.0750
G01 Z-0.8400
G01 X65.8250Y13.1250
G01 X7.0750Y0.3750
G00 Z1.0000
G00 X94.1250Y15.0750
G01 Z-0.8400
G01 X94.0750Y50.8750
G01 X68.3500Y50.9000
G01 X68.3500Y49.4000
G01 X66.1000Y49.4000
G01 X66.1000Y50.9000
G01 X2.4000Y53.6750
G00 Z1.0000
G00 X41.4500Y30.0000
G01 Z-0.8400
G01 X41.4500Y41.7000
G01 X43.9500Y41.6000
G01 X46.2000Y43.8250
G01 X49.2000Y43.8250
G01 X49.2000Y49.4250
G01 X43.8500Y49.5000
G01 X28.6500Y49.2500
G01 X28.4000Y41.3000
G01 X31.0500Y41.3000
G01 X31.0500Y29.9500
G01 X41.4500Y30.0000
G00 Z1.0000
G00 X11.0000Y45.0250
G01 Z-0.8400
G01 X11.0000Y41.9250
G01 X14.6000Y41.9250
G01 X14.6000Y31.8250
G01 X10.9000Y31.8250
G01 X10.9000Y28.7250
G01 X6.1000Y28.7250
G01 X6.1000Y31.9250
G01 X2.3000Y31.9250
G01 X2.3000Y42.0250
G01 X6.2000Y42.0250
G01 X6.2000Y45.0250
G01 X11.0000Y45.0250
G00 Z1.0000
G00 X82.7500Y25.7750
G01 Z-0.8400
G01 X69.0750Y23.5000
G01 X67.0250Y29.7500
G01 X63.5750Y29.1750
G01 X63.8000Y27.7000
G01 X51.3250Y25.8500
G01 X50.2500Y32.2500
G01 X65.4750Y34.7500
G01 X65.3000Y35.7250
G01 X80.6500Y38.3500
G01 X82.7500Y25.8000
G00 Z1.0000
(Initialize HP-GL/2-mode)
(PT0)
G21
G90
G94
F80.00
G00 Z1.0000
G00 X7.0750Y0.3750
G01 Z-1.1200
G01 X0.2000Y25.9000
G00 Z1.0000
G00 X0.2000Y25.9000
G01 Z-1.1200
G01 X2.4000Y53.6750
G00 Z1.0000
G00 X94.1250Y15.0750
G01 Z-1.1200
G01 X65.8250Y13.1250
G01 X7.0750Y0.3750
G00 Z1.0000
G00 X94.1250Y15.0750
G01 Z-1.1200
G01 X94.0750Y50.8750
G01 X68.3500Y50.9000
G01 X68.3500Y49.4000
G01 X66.1000Y49.4000
G01 X66.1000Y50.9000
G01 X2.4000Y53.6750
G00 Z1.0000
G00 X41.4500Y30.0000
G01 Z-1.1200
G01 X41.4500Y41.7000
G01 X43.9500Y41.6000
G01 X46.2000Y43.8250
G01 X49.2000Y43.8250
G01 X49.2000Y49.4250
G01 X43.8500Y49.5000
G01 X28.6500Y49.2500
G01 X28.4000Y41.3000
G01 X31.0500Y41.3000
G01 X31.0500Y29.9500
G01 X41.4500Y30.0000
G00 Z1.0000
G00 X11.0000Y45.0250
G01 Z-1.1200
G01 X11.0000Y41.9250
G01 X14.6000Y41.9250
G01 X14.6000Y31.8250
G01 X10.9000Y31.8250
G01 X10.9000Y28.7250
G01 X6.1000Y28.7250
G01 X6.1000Y31.9250
G01 X2.3000Y31.9250
G01 X2.3000Y42.0250
G01 X6.2000Y42.0250
G01 X6.2000Y45.0250
G01 X11.0000Y45.0250
G00 Z1.0000
G00 X82.7500Y25.7750
G01 Z-1.1200
G01 X69.0750Y23.5000
G01 X67.0250Y29.7500
G01 X63.5750Y29.1750
G01 X63.8000Y27.7000
G01 X51.3250Y25.8500
G01 X50.2500Y32.2500
G01 X65.4750Y34.7500
G01 X65.3000Y35.7250
G01 X80.6500Y38.3500
G01 X82.7500Y25.8000
G00 Z1.0000
(Initialize HP-GL/2-mode)
(PT0)
G21
G90
G94
F80.00
G00 Z1.0000
G00 X7.0750Y0.3750
G01 Z-1.4000
G01 X0.2000Y25.9000
G00 Z1.0000
G00 X0.2000Y25.9000
G01 Z-1.4000
G01 X2.4000Y53.6750
G00 Z1.0000
G00 X94.1250Y15.0750
G01 Z-1.4000
G01 X65.8250Y13.1250
G01 X7.0750Y0.3750
G00 Z1.0000
G00 X94.1250Y15.0750
G01 Z-1.4000
G01 X94.0750Y50.8750
G01 X68.3500Y50.9000
G01 X68.3500Y49.4000
G01 X66.1000Y49.4000
G01 X66.1000Y50.9000
G01 X2.4000Y53.6750
G00 Z1.0000
G00 X41.4500Y30.0000
G01 Z-1.4000
G01 X41.4500Y41.7000
G01 X43.9500Y41.6000
G01 X46.2000Y43.8250
G01 X49.2000Y43.8250
G01 X49.2000Y49.4250
G01 X43.8500Y49.5000
G01 X28.6500Y49.2500
G01 X28.4000Y41.3000
G01 X31.0500Y41.3000
G01 X31.0500Y29.9500
G01 X41.4500Y30.0000
G00 Z1.0000
G00 X11.0000Y45.0250
G01 Z-1.4000
G01 X11.0000Y41.9250
G01 X14.6000Y41.9250
G01 X14.6000Y31.8250
G01 X10.9000Y31.8250
G01 X10.9000Y28.7250
G01 X6.1000Y28.7250
G01 X6.1000Y31.9250
G01 X2.3000Y31.9250
G01 X2.3000Y42.0250
G01 X6.2000Y42.0250
G01 X6.2000Y45.0250
G01 X11.0000Y45.0250
G00 Z1.0000
G00 X82.7500Y25.7750
G01 Z-1.4000
G01 X69.0750Y23.5000
G01 X67.0250Y29.7500
G01 X63.5750Y29.1750
G01 X63.8000Y27.7000
G01 X51.3250Y25.8500
G01 X50.2500Y32.2500
G01 X65.4750Y34.7500
G01 X65.3000Y35.7250
G01 X80.6500Y38.3500
G01 X82.7500Y25.8000
G00 Z1.0000
(Ende)
G80
G90
G00 Z10 X0 Y0
M05
M09
M30