%Generated by HPGL2GCODE
(Start)
M03 S500
G4 P1
M03 S750
G4 P1
M03 S1000
G4 P2
(Initialize HP-GL/2-mode)
(PT0)
G21
G90
G94
F80.00
G00 Z1.0000
G00 X87.3250Y53.5750
G01 Z-0.2800
G01 X94.2250Y28.0500
G00 Z1.0000
G00 X94.2250Y28.0500
G01 Z-0.2800
G01 X92.0000Y0.2750
G00 Z1.0000
G00 X0.3000Y38.9000
G01 Z-0.2800
G01 X28.5750Y40.8250
G01 X87.3250Y53.5750
G00 Z1.0000
G00 X0.3000Y38.9000
G01 Z-0.2800
G01 X0.3250Y3.0750
G01 X26.0750Y3.0750
G01 X26.0750Y4.5750
G01 X28.3250Y4.5750
G01 X28.3250Y3.0750
G01 X92.0000Y0.2750
G00 Z1.0000
G00 X52.9500Y23.9500
G01 Z-0.2800
G01 X52.9500Y12.2500
G01 X50.4500Y12.3500
G01 X48.2000Y10.1250
G01 X45.2000Y10.1250
G01 X45.2000Y4.5250
G01 X50.5500Y4.4500
G01 X65.7500Y4.7000
G01 X66.0000Y12.6500
G01 X63.3500Y12.6500
G01 X63.3500Y24.0000
G01 X52.9500Y23.9500
G00 Z1.0000
G00 X83.4000Y8.9500
G01 Z-0.2800
G01 X83.4000Y12.0500
G01 X79.8000Y12.0500
G01 X79.8000Y22.1500
G01 X83.5000Y22.1500
G01 X83.5000Y25.2500
G01 X88.3000Y25.2500
G01 X88.3000Y22.0500
G01 X92.1000Y22.0500
G01 X92.1000Y11.9500
G01 X88.2000Y11.9500
G01 X88.2000Y8.9500
G01 X83.4000Y8.9500
G00 Z1.0000
G00 X11.6750Y28.1750
G01 Z-0.2800
G01 X25.3250Y30.4500
G01 X27.4000Y24.2000
G01 X30.8500Y24.8000
G01 X30.6000Y26.2750
G01 X43.1000Y28.1250
G01 X44.1750Y21.7000
G01 X28.9500Y19.2250
G01 X29.1250Y18.2250
G01 X13.7500Y15.6000
G01 X11.6500Y28.1750
G00 Z1.0000
(Initialize HP-GL/2-mode)
(PT0)
G21
G90
G94
F80.00
G00 Z1.0000
G00 X87.3250Y53.5750
G01 Z-0.5600
G01 X94.2250Y28.0500
G00 Z1.0000
G00 X94.2250Y28.0500
G01 Z-0.5600
G01 X92.0000Y0.2750
G00 Z1.0000
G00 X0.3000Y38.9000
G01 Z-0.5600
G01 X28.5750Y40.8250
G01 X87.3250Y53.5750
G00 Z1.0000
G00 X0.3000Y38.9000
G01 Z-0.5600
G01 X0.3250Y3.0750
G01 X26.0750Y3.0750
G01 X26.0750Y4.5750
G01 X28.3250Y4.5750
G01 X28.3250Y3.0750
G01 X92.0000Y0.2750
G00 Z1.0000
G00 X52.9500Y23.9500
G01 Z-0.5600
G01 X52.9500Y12.2500
G01 X50.4500Y12.3500
G01 X48.2000Y10.1250
G01 X45.2000Y10.1250
G01 X45.2000Y4.5250
G01 X50.5500Y4.4500
G01 X65.7500Y4.7000
G01 X66.0000Y12.6500
G01 X63.3500Y12.6500
G01 X63.3500Y24.0000
G01 X52.9500Y23.9500
G00 Z1.0000
G00 X83.4000Y8.9500
G01 Z-0.5600
G01 X83.4000Y12.0500
G01 X79.8000Y12.0500
G01 X79.8000Y22.1500
G01 X83.5000Y22.1500
G01 X83.5000Y25.2500
G01 X88.3000Y25.2500
G01 X88.3000Y22.0500
G01 X92.1000Y22.0500
G01 X92.1000Y11.9500
G01 X88.2000Y11.9500
G01 X88.2000Y8.9500
G01 X83.4000Y8.9500
G00 Z1.0000
G00 X11.6750Y28.1750
G01 Z-0.5600
G01 X25.3250Y30.4500
G01 X27.4000Y24.2000
G01 X30.8500Y24.8000
G01 X30.6000Y26.2750
G01 X43.1000Y28.1250
G01 X44.1750Y21.7000
G01 X28.9500Y19.2250
G01 X29.1250Y18.2250
G01 X13.7500Y15.6000
G01 X11.6500Y28.1750
G00 Z1.0000
(Initialize HP-GL/2-mode)
(PT0)
G21
G90
G94
F80.00
G00 Z1.0000
G00 X87.3250Y53.5750
G01 Z-0.8400
G01 X94.2250Y28.0500
G00 Z1.0000
G00 X94.2250Y28.0500
G01 Z-0.8400
G01 X92.0000Y0.2750
G00 Z1.0000
G00 X0.3000Y38.9000
G01 Z-0.8400
G01 X28.5750Y40.8250
G01 X87.3250Y53.5750
G00 Z1.0000
G00 X0.3000Y38.9000
G01 Z-0.8400
G01 X0.3250Y3.0750
G01 X26.0750Y3.0750
G01 X26.0750Y4.5750
G01 X28.3250Y4.5750
G01 X28.3250Y3.0750
G01 X92.0000Y0.2750
G00 Z1.0000
G00 X52.9500Y23.9500
G01 Z-0.8400
G01 X52.9500Y12.2500
G01 X50.4500Y12.3500
G01 X48.2000Y10.1250
G01 X45.2000Y10.1250
G01 X45.2000Y4.5250
G01 X50.5500Y4.4500
G01 X65.7500Y4.7000
G01 X66.0000Y12.6500
G01 X63.3500Y12.6500
G01 X63.3500Y24.0000
G01 X52.9500Y23.9500
G00 Z1.0000
G00 X83.4000Y8.9500
G01 Z-0.8400
G01 X83.4000Y12.0500
G01 X79.8000Y12.0500
G01 X79.8000Y22.1500
G01 X83.5000Y22.1500
G01 X83.5000Y25.2500
G01 X88.3000Y25.2500
G01 X88.3000Y22.0500
G01 X92.1000Y22.0500
G01 X92.1000Y11.9500
G01 X88.2000Y11.9500
G01 X88.2000Y8.9500
G01 X83.4000Y8.9500
G00 Z1.0000
G00 X11.6750Y28.1750
G01 Z-0.8400
G01 X25.3250Y30.4500
G01 X27.4000Y24.2000
G01 X30.8500Y24.8000
G01 X30.6000Y26.2750
G01 X43.1000Y28.1250
G01 X44.1750Y21.7000
G01 X28.9500Y19.2250
G01 X29.1250Y18.2250
G01 X13.7500Y15.6000
G01 X11.6500Y28.1750
G00 Z1.0000
(Initialize HP-GL/2-mode)
(PT0)
G21
G90
G94
F80.00
G00 Z1.0000
G00 X87.3250Y53.5750
G01 Z-1.1200
G01 X94.2250Y28.0500
G00 Z1.0000
G00 X94.2250Y28.0500
G01 Z-1.1200
G01 X92.0000Y0.2750
G00 Z1.0000
G00 X0.3000Y38.9000
G01 Z-1.1200
G01 X28.5750Y40.8250
G01 X87.3250Y53.5750
G00 Z1.0000
G00 X0.3000Y38.9000
G01 Z-1.1200
G01 X0.3250Y3.0750
G01 X26.0750Y3.0750
G01 X26.0750Y4.5750
G01 X28.3250Y4.5750
G01 X28.3250Y3.0750
G01 X92.0000Y0.2750
G00 Z1.0000
G00 X52.9500Y23.9500
G01 Z-1.1200
G01 X52.9500Y12.2500
G01 X50.4500Y12.3500
G01 X48.2000Y10.1250
G01 X45.2000Y10.1250
G01 X45.2000Y4.5250
G01 X50.5500Y4.4500
G01 X65.7500Y4.7000
G01 X66.0000Y12.6500
G01 X63.3500Y12.6500
G01 X63.3500Y24.0000
G01 X52.9500Y23.9500
G00 Z1.0000
G00 X83.4000Y8.9500
G01 Z-1.1200
G01 X83.4000Y12.0500
G01 X79.8000Y12.0500
G01 X79.8000Y22.1500
G01 X83.5000Y22.1500
G01 X83.5000Y25.2500
G01 X88.3000Y25.2500
G01 X88.3000Y22.0500
G01 X92.1000Y22.0500
G01 X92.1000Y11.9500
G01 X88.2000Y11.9500
G01 X88.2000Y8.9500
G01 X83.4000Y8.9500
G00 Z1.0000
G00 X11.6750Y28.1750
G01 Z-1.1200
G01 X25.3250Y30.4500
G01 X27.4000Y24.2000
G01 X30.8500Y24.8000
G01 X30.6000Y26.2750
G01 X43.1000Y28.1250
G01 X44.1750Y21.7000
G01 X28.9500Y19.2250
G01 X29.1250Y18.2250
G01 X13.7500Y15.6000
G01 X11.6500Y28.1750
G00 Z1.0000
(Initialize HP-GL/2-mode)
(PT0)
G21
G90
G94
F80.00
G00 Z1.0000
G00 X87.3250Y53.5750
G01 Z-1.4000
G01 X94.2250Y28.0500
G00 Z1.0000
G00 X94.2250Y28.0500
G01 Z-1.4000
G01 X92.0000Y0.2750
G00 Z1.0000
G00 X0.3000Y38.9000
G01 Z-1.4000
G01 X28.5750Y40.8250
G01 X87.3250Y53.5750
G00 Z1.0000
G00 X0.3000Y38.9000
G01 Z-1.4000
G01 X0.3250Y3.0750
G01 X26.0750Y3.0750
G01 X26.0750Y4.5750
G01 X28.3250Y4.5750
G01 X28.3250Y3.0750
G01 X92.0000Y0.2750
G00 Z1.0000
G00 X52.9500Y23.9500
G01 Z-1.4000
G01 X52.9500Y12.2500
G01 X50.4500Y12.3500
G01 X48.2000Y10.1250
G01 X45.2000Y10.1250
G01 X45.2000Y4.5250
G01 X50.5500Y4.4500
G01 X65.7500Y4.7000
G01 X66.0000Y12.6500
G01 X63.3500Y12.6500
G01 X63.3500Y24.0000
G01 X52.9500Y23.9500
G00 Z1.0000
G00 X83.4000Y8.9500
G01 Z-1.4000
G01 X83.4000Y12.0500
G01 X79.8000Y12.0500
G01 X79.8000Y22.1500
G01 X83.5000Y22.1500
G01 X83.5000Y25.2500
G01 X88.3000Y25.2500
G01 X88.3000Y22.0500
G01 X92.1000Y22.0500
G01 X92.1000Y11.9500
G01 X88.2000Y11.9500
G01 X88.2000Y8.9500
G01 X83.4000Y8.9500
G00 Z1.0000
G00 X11.6750Y28.1750
G01 Z-1.4000
G01 X25.3250Y30.4500
G01 X27.4000Y24.2000
G01 X30.8500Y24.8000
G01 X30.6000Y26.2750
G01 X43.1000Y28.1250
G01 X44.1750Y21.7000
G01 X28.9500Y19.2250
G01 X29.1250Y18.2250
G01 X13.7500Y15.6000
G01 X11.6500Y28.1750
G00 Z1.0000
(Ende)
G80
G90
G00 Z10 X0 Y0
M05
M09
M30