%Generated by HPGL2GCODE
(Start)
M03 S500
G4 P1
M03 S750
G4 P1
M03 S1000
G4 P2
(Initialize HP-GL/2-mode)
(PT0)
G21
G90
G94
F80.00
G00 Z1.0000
G00 X3.3750Y-0.2250
G01 Z-0.2800
G01 X-3.7000Y26.2000
G00 Z1.0000
G00 X-3.7000Y26.2000
G01 Z-0.2800
G01 X-1.4000Y54.4750
G00 Z1.0000
G00 X95.2250Y15.3750
G01 Z-0.2800
G01 X66.9250Y13.4250
G01 X3.3750Y-0.2250
G00 Z1.0000
G00 X95.2250Y15.3750
G01 Z-0.2800
G01 X95.1750Y51.1750
G01 X69.4500Y51.2000
G01 X69.4500Y49.7000
G01 X67.2000Y49.7000
G01 X67.2000Y51.2000
G01 X-1.4000Y54.4750
G00 Z1.0000
G00 X42.5500Y30.3000
G01 Z-0.2800
G01 X42.5500Y42.0000
G01 X45.0500Y41.9000
G01 X47.3000Y44.1250
G01 X50.3000Y44.1250
G01 X50.3000Y49.7250
G01 X44.9500Y49.8000
G01 X29.7500Y49.5500
G01 X29.5000Y41.6000
G01 X32.1500Y41.6000
G01 X32.1500Y30.2500
G01 X42.5500Y30.3000
G00 Z1.0000
G00 X12.1000Y45.3250
G01 Z-0.2800
G01 X12.1000Y42.2250
G01 X15.7000Y42.2250
G01 X15.7000Y32.1250
G01 X12.0000Y32.1250
G01 X12.0000Y29.0250
G01 X7.2000Y29.0250
G01 X7.2000Y32.2250
G01 X3.4000Y32.2250
G01 X3.4000Y42.3250
G01 X7.3000Y42.3250
G01 X7.3000Y45.3250
G01 X12.1000Y45.3250
G00 Z1.0000
G00 X83.8500Y26.0750
G01 Z-0.2800
G01 X70.1750Y23.8000
G01 X68.1250Y30.0500
G01 X64.6750Y29.4750
G01 X64.9000Y28.0000
G01 X52.4250Y26.1500
G01 X51.3500Y32.5500
G01 X66.5750Y35.0500
G01 X66.4000Y36.0250
G01 X81.7500Y38.6500
G01 X83.8500Y26.1000
G00 Z1.0000
(Initialize HP-GL/2-mode)
(PT0)
G21
G90
G94
F80.00
G00 Z1.0000
G00 X3.3750Y-0.2250
G01 Z-0.5600
G01 X-3.7000Y26.2000
G00 Z1.0000
G00 X-3.7000Y26.2000
G01 Z-0.5600
G01 X-1.4000Y54.4750
G00 Z1.0000
G00 X95.2250Y15.3750
G01 Z-0.5600
G01 X66.9250Y13.4250
G01 X3.3750Y-0.2250
G00 Z1.0000
G00 X95.2250Y15.3750
G01 Z-0.5600
G01 X95.1750Y51.1750
G01 X69.4500Y51.2000
G01 X69.4500Y49.7000
G01 X67.2000Y49.7000
G01 X67.2000Y51.2000
G01 X-1.4000Y54.4750
G00 Z1.0000
G00 X42.5500Y30.3000
G01 Z-0.5600
G01 X42.5500Y42.0000
G01 X45.0500Y41.9000
G01 X47.3000Y44.1250
G01 X50.3000Y44.1250
G01 X50.3000Y49.7250
G01 X44.9500Y49.8000
G01 X29.7500Y49.5500
G01 X29.5000Y41.6000
G01 X32.1500Y41.6000
G01 X32.1500Y30.2500
G01 X42.5500Y30.3000
G00 Z1.0000
G00 X12.1000Y45.3250
G01 Z-0.5600
G01 X12.1000Y42.2250
G01 X15.7000Y42.2250
G01 X15.7000Y32.1250
G01 X12.0000Y32.1250
G01 X12.0000Y29.0250
G01 X7.2000Y29.0250
G01 X7.2000Y32.2250
G01 X3.4000Y32.2250
G01 X3.4000Y42.3250
G01 X7.3000Y42.3250
G01 X7.3000Y45.3250
G01 X12.1000Y45.3250
G00 Z1.0000
G00 X83.8500Y26.0750
G01 Z-0.5600
G01 X70.1750Y23.8000
G01 X68.1250Y30.0500
G01 X64.6750Y29.4750
G01 X64.9000Y28.0000
G01 X52.4250Y26.1500
G01 X51.3500Y32.5500
G01 X66.5750Y35.0500
G01 X66.4000Y36.0250
G01 X81.7500Y38.6500
G01 X83.8500Y26.1000
G00 Z1.0000
(Initialize HP-GL/2-mode)
(PT0)
G21
G90
G94
F80.00
G00 Z1.0000
G00 X3.3750Y-0.2250
G01 Z-0.8400
G01 X-3.7000Y26.2000
G00 Z1.0000
G00 X-3.7000Y26.2000
G01 Z-0.8400
G01 X-1.4000Y54.4750
G00 Z1.0000
G00 X95.2250Y15.3750
G01 Z-0.8400
G01 X66.9250Y13.4250
G01 X3.3750Y-0.2250
G00 Z1.0000
G00 X95.2250Y15.3750
G01 Z-0.8400
G01 X95.1750Y51.1750
G01 X69.4500Y51.2000
G01 X69.4500Y49.7000
G01 X67.2000Y49.7000
G01 X67.2000Y51.2000
G01 X-1.4000Y54.4750
G00 Z1.0000
G00 X42.5500Y30.3000
G01 Z-0.8400
G01 X42.5500Y42.0000
G01 X45.0500Y41.9000
G01 X47.3000Y44.1250
G01 X50.3000Y44.1250
G01 X50.3000Y49.7250
G01 X44.9500Y49.8000
G01 X29.7500Y49.5500
G01 X29.5000Y41.6000
G01 X32.1500Y41.6000
G01 X32.1500Y30.2500
G01 X42.5500Y30.3000
G00 Z1.0000
G00 X12.1000Y45.3250
G01 Z-0.8400
G01 X12.1000Y42.2250
G01 X15.7000Y42.2250
G01 X15.7000Y32.1250
G01 X12.0000Y32.1250
G01 X12.0000Y29.0250
G01 X7.2000Y29.0250
G01 X7.2000Y32.2250
G01 X3.4000Y32.2250
G01 X3.4000Y42.3250
G01 X7.3000Y42.3250
G01 X7.3000Y45.3250
G01 X12.1000Y45.3250
G00 Z1.0000
G00 X83.8500Y26.0750
G01 Z-0.8400
G01 X70.1750Y23.8000
G01 X68.1250Y30.0500
G01 X64.6750Y29.4750
G01 X64.9000Y28.0000
G01 X52.4250Y26.1500
G01 X51.3500Y32.5500
G01 X66.5750Y35.0500
G01 X66.4000Y36.0250
G01 X81.7500Y38.6500
G01 X83.8500Y26.1000
G00 Z1.0000
(Initialize HP-GL/2-mode)
(PT0)
G21
G90
G94
F80.00
G00 Z1.0000
G00 X3.3750Y-0.2250
G01 Z-1.1200
G01 X-3.7000Y26.2000
G00 Z1.0000
G00 X-3.7000Y26.2000
G01 Z-1.1200
G01 X-1.4000Y54.4750
G00 Z1.0000
G00 X95.2250Y15.3750
G01 Z-1.1200
G01 X66.9250Y13.4250
G01 X3.3750Y-0.2250
G00 Z1.0000
G00 X95.2250Y15.3750
G01 Z-1.1200
G01 X95.1750Y51.1750
G01 X69.4500Y51.2000
G01 X69.4500Y49.7000
G01 X67.2000Y49.7000
G01 X67.2000Y51.2000
G01 X-1.4000Y54.4750
G00 Z1.0000
G00 X42.5500Y30.3000
G01 Z-1.1200
G01 X42.5500Y42.0000
G01 X45.0500Y41.9000
G01 X47.3000Y44.1250
G01 X50.3000Y44.1250
G01 X50.3000Y49.7250
G01 X44.9500Y49.8000
G01 X29.7500Y49.5500
G01 X29.5000Y41.6000
G01 X32.1500Y41.6000
G01 X32.1500Y30.2500
G01 X42.5500Y30.3000
G00 Z1.0000
G00 X12.1000Y45.3250
G01 Z-1.1200
G01 X12.1000Y42.2250
G01 X15.7000Y42.2250
G01 X15.7000Y32.1250
G01 X12.0000Y32.1250
G01 X12.0000Y29.0250
G01 X7.2000Y29.0250
G01 X7.2000Y32.2250
G01 X3.4000Y32.2250
G01 X3.4000Y42.3250
G01 X7.3000Y42.3250
G01 X7.3000Y45.3250
G01 X12.1000Y45.3250
G00 Z1.0000
G00 X83.8500Y26.0750
G01 Z-1.1200
G01 X70.1750Y23.8000
G01 X68.1250Y30.0500
G01 X64.6750Y29.4750
G01 X64.9000Y28.0000
G01 X52.4250Y26.1500
G01 X51.3500Y32.5500
G01 X66.5750Y35.0500
G01 X66.4000Y36.0250
G01 X81.7500Y38.6500
G01 X83.8500Y26.1000
G00 Z1.0000
(Initialize HP-GL/2-mode)
(PT0)
G21
G90
G94
F80.00
G00 Z1.0000
G00 X3.3750Y-0.2250
G01 Z-1.4000
G01 X-3.7000Y26.2000
G00 Z1.0000
G00 X-3.7000Y26.2000
G01 Z-1.4000
G01 X-1.4000Y54.4750
G00 Z1.0000
G00 X95.2250Y15.3750
G01 Z-1.4000
G01 X66.9250Y13.4250
G01 X3.3750Y-0.2250
G00 Z1.0000
G00 X95.2250Y15.3750
G01 Z-1.4000
G01 X95.1750Y51.1750
G01 X69.4500Y51.2000
G01 X69.4500Y49.7000
G01 X67.2000Y49.7000
G01 X67.2000Y51.2000
G01 X-1.4000Y54.4750
G00 Z1.0000
G00 X42.5500Y30.3000
G01 Z-1.4000
G01 X42.5500Y42.0000
G01 X45.0500Y41.9000
G01 X47.3000Y44.1250
G01 X50.3000Y44.1250
G01 X50.3000Y49.7250
G01 X44.9500Y49.8000
G01 X29.7500Y49.5500
G01 X29.5000Y41.6000
G01 X32.1500Y41.6000
G01 X32.1500Y30.2500
G01 X42.5500Y30.3000
G00 Z1.0000
G00 X12.1000Y45.3250
G01 Z-1.4000
G01 X12.1000Y42.2250
G01 X15.7000Y42.2250
G01 X15.7000Y32.1250
G01 X12.0000Y32.1250
G01 X12.0000Y29.0250
G01 X7.2000Y29.0250
G01 X7.2000Y32.2250
G01 X3.4000Y32.2250
G01 X3.4000Y42.3250
G01 X7.3000Y42.3250
G01 X7.3000Y45.3250
G01 X12.1000Y45.3250
G00 Z1.0000
G00 X83.8500Y26.0750
G01 Z-1.4000
G01 X70.1750Y23.8000
G01 X68.1250Y30.0500
G01 X64.6750Y29.4750
G01 X64.9000Y28.0000
G01 X52.4250Y26.1500
G01 X51.3500Y32.5500
G01 X66.5750Y35.0500
G01 X66.4000Y36.0250
G01 X81.7500Y38.6500
G01 X83.8500Y26.1000
G00 Z1.0000
(Ende)
G80
G90
G00 Z10 X0 Y0
M05
M09
M30