%Generated by HPGL2GCODE
(Start)
M03 S500
G4 P1
M03 S750
G4 P1
M03 S1000
G4 P2
(Initialize HP-GL/2-mode)
(PT0)
G21
G90
G94
F80.00
G00 Z1.0000
G00 X0.7000Y81.6250
G01 Z-0.2800
G01 X26.2250Y88.5000
G00 Z1.0000
G00 X26.2250Y88.5000
G01 Z-0.2800
G01 X54.0000Y86.3000
G00 Z1.0000
G00 X14.8750Y0.6000
G01 Z-0.2800
G01 X13.4500Y22.8750
G01 X0.7000Y81.6250
G00 Z1.0000
G00 X14.8750Y0.6000
G01 Z-0.2800
G01 X51.2000Y0.6250
G01 X51.2000Y20.3500
G01 X49.7000Y20.3500
G01 X49.7000Y22.6000
G01 X51.2000Y22.6000
G01 X54.0000Y86.3000
G00 Z1.0000
G00 X26.1750Y7.2500
G01 Z-0.2800
G01 X23.9000Y20.9250
G01 X30.1500Y22.9750
G01 X29.5750Y26.4250
G01 X28.0750Y26.1750
G01 X26.2250Y38.6750
G01 X32.6500Y39.7500
G01 X35.1500Y24.5250
G01 X36.1250Y24.7000
G01 X38.7500Y9.3500
G01 X26.1750Y7.2250
G00 Z1.0000
G00 X17.5000Y39.9500
G01 Z-0.2800
G01 X17.2500Y41.1250
G01 X13.2250Y40.2750
G01 X8.5500Y62.2750
G01 X23.4250Y65.4500
G01 X28.1250Y43.3500
G01 X24.2250Y42.5000
G01 X24.4500Y41.4250
G01 X17.5250Y39.9500
G00 Z1.0000
G00 X29.6750Y51.9500
G01 Z-0.2800
G01 X41.3750Y51.9500
G01 X41.3750Y49.5500
G01 X49.1750Y49.5500
G01 X48.9250Y64.7500
G01 X40.9750Y65.0000
G01 X40.9750Y62.3500
G01 X29.6250Y62.3500
G01 X29.6750Y51.9500
G00 Z1.0000
G00 X45.3250Y77.7000
G01 Z-0.2800
G01 X42.2250Y77.7000
G01 X42.2250Y74.1000
G01 X32.1250Y74.1000
G01 X32.1250Y77.8000
G01 X29.0250Y77.8000
G01 X29.0250Y82.6000
G01 X32.2250Y82.6000
G01 X32.2250Y86.4000
G01 X42.3250Y86.4000
G01 X42.3250Y82.5000
G01 X45.3250Y82.5000
G01 X45.3250Y77.7000
G00 Z1.0000
(Initialize HP-GL/2-mode)
(PT0)
G21
G90
G94
F80.00
G00 Z1.0000
G00 X0.7000Y81.6250
G01 Z-0.5600
G01 X26.2250Y88.5000
G00 Z1.0000
G00 X26.2250Y88.5000
G01 Z-0.5600
G01 X54.0000Y86.3000
G00 Z1.0000
G00 X14.8750Y0.6000
G01 Z-0.5600
G01 X13.4500Y22.8750
G01 X0.7000Y81.6250
G00 Z1.0000
G00 X14.8750Y0.6000
G01 Z-0.5600
G01 X51.2000Y0.6250
G01 X51.2000Y20.3500
G01 X49.7000Y20.3500
G01 X49.7000Y22.6000
G01 X51.2000Y22.6000
G01 X54.0000Y86.3000
G00 Z1.0000
G00 X26.1750Y7.2500
G01 Z-0.5600
G01 X23.9000Y20.9250
G01 X30.1500Y22.9750
G01 X29.5750Y26.4250
G01 X28.0750Y26.1750
G01 X26.2250Y38.6750
G01 X32.6500Y39.7500
G01 X35.1500Y24.5250
G01 X36.1250Y24.7000
G01 X38.7500Y9.3500
G01 X26.1750Y7.2250
G00 Z1.0000
G00 X17.5000Y39.9500
G01 Z-0.5600
G01 X17.2500Y41.1250
G01 X13.2250Y40.2750
G01 X8.5500Y62.2750
G01 X23.4250Y65.4500
G01 X28.1250Y43.3500
G01 X24.2250Y42.5000
G01 X24.4500Y41.4250
G01 X17.5250Y39.9500
G00 Z1.0000
G00 X29.6750Y51.9500
G01 Z-0.5600
G01 X41.3750Y51.9500
G01 X41.3750Y49.5500
G01 X49.1750Y49.5500
G01 X48.9250Y64.7500
G01 X40.9750Y65.0000
G01 X40.9750Y62.3500
G01 X29.6250Y62.3500
G01 X29.6750Y51.9500
G00 Z1.0000
G00 X45.3250Y77.7000
G01 Z-0.5600
G01 X42.2250Y77.7000
G01 X42.2250Y74.1000
G01 X32.1250Y74.1000
G01 X32.1250Y77.8000
G01 X29.0250Y77.8000
G01 X29.0250Y82.6000
G01 X32.2250Y82.6000
G01 X32.2250Y86.4000
G01 X42.3250Y86.4000
G01 X42.3250Y82.5000
G01 X45.3250Y82.5000
G01 X45.3250Y77.7000
G00 Z1.0000
(Initialize HP-GL/2-mode)
(PT0)
G21
G90
G94
F80.00
G00 Z1.0000
G00 X0.7000Y81.6250
G01 Z-0.8400
G01 X26.2250Y88.5000
G00 Z1.0000
G00 X26.2250Y88.5000
G01 Z-0.8400
G01 X54.0000Y86.3000
G00 Z1.0000
G00 X14.8750Y0.6000
G01 Z-0.8400
G01 X13.4500Y22.8750
G01 X0.7000Y81.6250
G00 Z1.0000
G00 X14.8750Y0.6000
G01 Z-0.8400
G01 X51.2000Y0.6250
G01 X51.2000Y20.3500
G01 X49.7000Y20.3500
G01 X49.7000Y22.6000
G01 X51.2000Y22.6000
G01 X54.0000Y86.3000
G00 Z1.0000
G00 X26.1750Y7.2500
G01 Z-0.8400
G01 X23.9000Y20.9250
G01 X30.1500Y22.9750
G01 X29.5750Y26.4250
G01 X28.0750Y26.1750
G01 X26.2250Y38.6750
G01 X32.6500Y39.7500
G01 X35.1500Y24.5250
G01 X36.1250Y24.7000
G01 X38.7500Y9.3500
G01 X26.1750Y7.2250
G00 Z1.0000
G00 X17.5000Y39.9500
G01 Z-0.8400
G01 X17.2500Y41.1250
G01 X13.2250Y40.2750
G01 X8.5500Y62.2750
G01 X23.4250Y65.4500
G01 X28.1250Y43.3500
G01 X24.2250Y42.5000
G01 X24.4500Y41.4250
G01 X17.5250Y39.9500
G00 Z1.0000
G00 X29.6750Y51.9500
G01 Z-0.8400
G01 X41.3750Y51.9500
G01 X41.3750Y49.5500
G01 X49.1750Y49.5500
G01 X48.9250Y64.7500
G01 X40.9750Y65.0000
G01 X40.9750Y62.3500
G01 X29.6250Y62.3500
G01 X29.6750Y51.9500
G00 Z1.0000
G00 X45.3250Y77.7000
G01 Z-0.8400
G01 X42.2250Y77.7000
G01 X42.2250Y74.1000
G01 X32.1250Y74.1000
G01 X32.1250Y77.8000
G01 X29.0250Y77.8000
G01 X29.0250Y82.6000
G01 X32.2250Y82.6000
G01 X32.2250Y86.4000
G01 X42.3250Y86.4000
G01 X42.3250Y82.5000
G01 X45.3250Y82.5000
G01 X45.3250Y77.7000
G00 Z1.0000
(Initialize HP-GL/2-mode)
(PT0)
G21
G90
G94
F80.00
G00 Z1.0000
G00 X0.7000Y81.6250
G01 Z-1.1200
G01 X26.2250Y88.5000
G00 Z1.0000
G00 X26.2250Y88.5000
G01 Z-1.1200
G01 X54.0000Y86.3000
G00 Z1.0000
G00 X14.8750Y0.6000
G01 Z-1.1200
G01 X13.4500Y22.8750
G01 X0.7000Y81.6250
G00 Z1.0000
G00 X14.8750Y0.6000
G01 Z-1.1200
G01 X51.2000Y0.6250
G01 X51.2000Y20.3500
G01 X49.7000Y20.3500
G01 X49.7000Y22.6000
G01 X51.2000Y22.6000
G01 X54.0000Y86.3000
G00 Z1.0000
G00 X26.1750Y7.2500
G01 Z-1.1200
G01 X23.9000Y20.9250
G01 X30.1500Y22.9750
G01 X29.5750Y26.4250
G01 X28.0750Y26.1750
G01 X26.2250Y38.6750
G01 X32.6500Y39.7500
G01 X35.1500Y24.5250
G01 X36.1250Y24.7000
G01 X38.7500Y9.3500
G01 X26.1750Y7.2250
G00 Z1.0000
G00 X17.5000Y39.9500
G01 Z-1.1200
G01 X17.2500Y41.1250
G01 X13.2250Y40.2750
G01 X8.5500Y62.2750
G01 X23.4250Y65.4500
G01 X28.1250Y43.3500
G01 X24.2250Y42.5000
G01 X24.4500Y41.4250
G01 X17.5250Y39.9500
G00 Z1.0000
G00 X29.6750Y51.9500
G01 Z-1.1200
G01 X41.3750Y51.9500
G01 X41.3750Y49.5500
G01 X49.1750Y49.5500
G01 X48.9250Y64.7500
G01 X40.9750Y65.0000
G01 X40.9750Y62.3500
G01 X29.6250Y62.3500
G01 X29.6750Y51.9500
G00 Z1.0000
G00 X45.3250Y77.7000
G01 Z-1.1200
G01 X42.2250Y77.7000
G01 X42.2250Y74.1000
G01 X32.1250Y74.1000
G01 X32.1250Y77.8000
G01 X29.0250Y77.8000
G01 X29.0250Y82.6000
G01 X32.2250Y82.6000
G01 X32.2250Y86.4000
G01 X42.3250Y86.4000
G01 X42.3250Y82.5000
G01 X45.3250Y82.5000
G01 X45.3250Y77.7000
G00 Z1.0000
(Initialize HP-GL/2-mode)
(PT0)
G21
G90
G94
F80.00
G00 Z1.0000
G00 X0.7000Y81.6250
G01 Z-1.4000
G01 X26.2250Y88.5000
G00 Z1.0000
G00 X26.2250Y88.5000
G01 Z-1.4000
G01 X54.0000Y86.3000
G00 Z1.0000
G00 X14.8750Y0.6000
G01 Z-1.4000
G01 X13.4500Y22.8750
G01 X0.7000Y81.6250
G00 Z1.0000
G00 X14.8750Y0.6000
G01 Z-1.4000
G01 X51.2000Y0.6250
G01 X51.2000Y20.3500
G01 X49.7000Y20.3500
G01 X49.7000Y22.6000
G01 X51.2000Y22.6000
G01 X54.0000Y86.3000
G00 Z1.0000
G00 X26.1750Y7.2500
G01 Z-1.4000
G01 X23.9000Y20.9250
G01 X30.1500Y22.9750
G01 X29.5750Y26.4250
G01 X28.0750Y26.1750
G01 X26.2250Y38.6750
G01 X32.6500Y39.7500
G01 X35.1500Y24.5250
G01 X36.1250Y24.7000
G01 X38.7500Y9.3500
G01 X26.1750Y7.2250
G00 Z1.0000
G00 X17.5000Y39.9500
G01 Z-1.4000
G01 X17.2500Y41.1250
G01 X13.2250Y40.2750
G01 X8.5500Y62.2750
G01 X23.4250Y65.4500
G01 X28.1250Y43.3500
G01 X24.2250Y42.5000
G01 X24.4500Y41.4250
G01 X17.5250Y39.9500
G00 Z1.0000
G00 X29.6750Y51.9500
G01 Z-1.4000
G01 X41.3750Y51.9500
G01 X41.3750Y49.5500
G01 X49.1750Y49.5500
G01 X48.9250Y64.7500
G01 X40.9750Y65.0000
G01 X40.9750Y62.3500
G01 X29.6250Y62.3500
G01 X29.6750Y51.9500
G00 Z1.0000
G00 X45.3250Y77.7000
G01 Z-1.4000
G01 X42.2250Y77.7000
G01 X42.2250Y74.1000
G01 X32.1250Y74.1000
G01 X32.1250Y77.8000
G01 X29.0250Y77.8000
G01 X29.0250Y82.6000
G01 X32.2250Y82.6000
G01 X32.2250Y86.4000
G01 X42.3250Y86.4000
G01 X42.3250Y82.5000
G01 X45.3250Y82.5000
G01 X45.3250Y77.7000
G00 Z1.0000
(Ende)
G80
G90
G00 Z10 X0 Y0
M05
M09
M30