%Generated by HPGL2GCODE
(Start)
M03 S500
G4 P1
M03 S750
G4 P1
M03 S1000
G4 P2
(Initialize HP-GL/2-mode)
(PT0)
G21
G90
G94
F80.00
G00 Z1.0000
G00 X53.6000Y89.6500
G01 Z-0.2667
G01 X53.5000Y11.8500
G01 X51.5000Y11.8500
G01 X51.5000Y9.8500
G01 X53.5000Y9.8500
G01 X53.6000Y-0.3500
G00 Z1.0000
G00 X53.6000Y-0.3500
G01 Z-0.2667
G01 X21.1000Y-0.3500
G00 Z1.0000
G00 X53.6000Y89.6500
G01 Z-0.2667
G01 X23.1000Y89.6500
G00 Z1.0000
G00 X23.1000Y89.6500
G01 Z-0.2667
G01 X0.1000Y80.6500
G00 Z1.0000
G00 X0.1000Y80.6500
G01 Z-0.2667
G01 X15.9250Y18.9500
G01 X18.8500Y19.7000
G01 X19.3500Y17.7500
G01 X16.4500Y17.0000
G01 X21.1000Y-0.3500
G00 Z1.0000
(Initialize HP-GL/2-mode)
(PT0)
G21
G90
G94
F80.00
G00 Z1.0000
G00 X53.6000Y89.6500
G01 Z-0.5333
G01 X53.5000Y11.8500
G01 X51.5000Y11.8500
G01 X51.5000Y9.8500
G01 X53.5000Y9.8500
G01 X53.6000Y-0.3500
G00 Z1.0000
G00 X53.6000Y-0.3500
G01 Z-0.5333
G01 X21.1000Y-0.3500
G00 Z1.0000
G00 X53.6000Y89.6500
G01 Z-0.5333
G01 X23.1000Y89.6500
G00 Z1.0000
G00 X23.1000Y89.6500
G01 Z-0.5333
G01 X0.1000Y80.6500
G00 Z1.0000
G00 X0.1000Y80.6500
G01 Z-0.5333
G01 X15.9250Y18.9500
G01 X18.8500Y19.7000
G01 X19.3500Y17.7500
G01 X16.4500Y17.0000
G01 X21.1000Y-0.3500
G00 Z1.0000
(Initialize HP-GL/2-mode)
(PT0)
G21
G90
G94
F80.00
G00 Z1.0000
G00 X53.6000Y89.6500
G01 Z-0.8000
G01 X53.5000Y11.8500
G01 X51.5000Y11.8500
G01 X51.5000Y9.8500
G01 X53.5000Y9.8500
G01 X53.6000Y-0.3500
G00 Z1.0000
G00 X53.6000Y-0.3500
G01 Z-0.8000
G01 X21.1000Y-0.3500
G00 Z1.0000
G00 X53.6000Y89.6500
G01 Z-0.8000
G01 X23.1000Y89.6500
G00 Z1.0000
G00 X23.1000Y89.6500
G01 Z-0.8000
G01 X0.1000Y80.6500
G00 Z1.0000
G00 X0.1000Y80.6500
G01 Z-0.8000
G01 X15.9250Y18.9500
G01 X18.8500Y19.7000
G01 X19.3500Y17.7500
G01 X16.4500Y17.0000
G01 X21.1000Y-0.3500
G00 Z1.0000
(Initialize HP-GL/2-mode)
(PT0)
G21
G90
G94
F80.00
G00 Z1.0000
G00 X53.6000Y89.6500
G01 Z-1.0667
G01 X53.5000Y11.8500
G01 X51.5000Y11.8500
G01 X51.5000Y9.8500
G01 X53.5000Y9.8500
G01 X53.6000Y-0.3500
G00 Z1.0000
G00 X53.6000Y-0.3500
G01 Z-1.0667
G01 X21.1000Y-0.3500
G00 Z1.0000
G00 X53.6000Y89.6500
G01 Z-1.0667
G01 X23.1000Y89.6500
G00 Z1.0000
G00 X23.1000Y89.6500
G01 Z-1.0667
G01 X0.1000Y80.6500
G00 Z1.0000
G00 X0.1000Y80.6500
G01 Z-1.0667
G01 X15.9250Y18.9500
G01 X18.8500Y19.7000
G01 X19.3500Y17.7500
G01 X16.4500Y17.0000
G01 X21.1000Y-0.3500
G00 Z1.0000
(Initialize HP-GL/2-mode)
(PT0)
G21
G90
G94
F80.00
G00 Z1.0000
G00 X53.6000Y89.6500
G01 Z-1.3333
G01 X53.5000Y11.8500
G01 X51.5000Y11.8500
G01 X51.5000Y9.8500
G01 X53.5000Y9.8500
G01 X53.6000Y-0.3500
G00 Z1.0000
G00 X53.6000Y-0.3500
G01 Z-1.3333
G01 X21.1000Y-0.3500
G00 Z1.0000
G00 X53.6000Y89.6500
G01 Z-1.3333
G01 X23.1000Y89.6500
G00 Z1.0000
G00 X23.1000Y89.6500
G01 Z-1.3333
G01 X0.1000Y80.6500
G00 Z1.0000
G00 X0.1000Y80.6500
G01 Z-1.3333
G01 X15.9250Y18.9500
G01 X18.8500Y19.7000
G01 X19.3500Y17.7500
G01 X16.4500Y17.0000
G01 X21.1000Y-0.3500
G00 Z1.0000
(Initialize HP-GL/2-mode)
(PT0)
G21
G90
G94
F80.00
G00 Z1.0000
G00 X53.6000Y89.6500
G01 Z-1.6000
G01 X53.5000Y11.8500
G01 X51.5000Y11.8500
G01 X51.5000Y9.8500
G01 X53.5000Y9.8500
G01 X53.6000Y-0.3500
G00 Z1.0000
G00 X53.6000Y-0.3500
G01 Z-1.6000
G01 X21.1000Y-0.3500
G00 Z1.0000
G00 X53.6000Y89.6500
G01 Z-1.6000
G01 X23.1000Y89.6500
G00 Z1.0000
G00 X23.1000Y89.6500
G01 Z-1.6000
G01 X0.1000Y80.6500
G00 Z1.0000
G00 X0.1000Y80.6500
G01 Z-1.6000
G01 X15.9250Y18.9500
G01 X18.8500Y19.7000
G01 X19.3500Y17.7500
G01 X16.4500Y17.0000
G01 X21.1000Y-0.3500
G00 Z1.0000
(Ende)
G80
G90
G00 Z10 X0 Y0
M05
M09
M30