%Generated by HPGL2GCODE
(Start)
M03 S500
G4 P1
M03 S750
G4 P1
M03 S1000
G4 P2
(Initialize HP-GL/2-mode)
(PT0)
G21
G90
G94
F80.00
G00 Z1.0000
G00 X50.1000Y5.0000
G01 Z-0.3000
G01 X41.8000Y12.1000
G01 X32.3000Y16.2000
G01 X24.8000Y17.1750
G01 X0.2750Y15.0250
G01 X0.7250Y10.8250
G01 X28.4500Y13.7500
G01 X38.6000Y11.5000
G01 X40.4000Y10.5000
G01 X46.6750Y0.4500
G01 X50.2500Y1.4250
G01 X50.1000Y5.0000
G00 Z1.0000
(Initialize HP-GL/2-mode)
(PT0)
G21
G90
G94
F80.00
G00 Z1.0000
G00 X50.1000Y5.0000
G01 Z-0.6000
G01 X41.8000Y12.1000
G01 X32.3000Y16.2000
G01 X24.8000Y17.1750
G01 X0.2750Y15.0250
G01 X0.7250Y10.8250
G01 X28.4500Y13.7500
G01 X38.6000Y11.5000
G01 X40.4000Y10.5000
G01 X46.6750Y0.4500
G01 X50.2500Y1.4250
G01 X50.1000Y5.0000
G00 Z1.0000
(Initialize HP-GL/2-mode)
(PT0)
G21
G90
G94
F80.00
G00 Z1.0000
G00 X50.1000Y5.0000
G01 Z-0.9000
G01 X41.8000Y12.1000
G01 X32.3000Y16.2000
G01 X24.8000Y17.1750
G01 X0.2750Y15.0250
G01 X0.7250Y10.8250
G01 X28.4500Y13.7500
G01 X38.6000Y11.5000
G01 X40.4000Y10.5000
G01 X46.6750Y0.4500
G01 X50.2500Y1.4250
G01 X50.1000Y5.0000
G00 Z1.0000
(Initialize HP-GL/2-mode)
(PT0)
G21
G90
G94
F80.00
G00 Z1.0000
G00 X50.1000Y5.0000
G01 Z-1.2000
G01 X41.8000Y12.1000
G01 X32.3000Y16.2000
G01 X24.8000Y17.1750
G01 X0.2750Y15.0250
G01 X0.7250Y10.8250
G01 X28.4500Y13.7500
G01 X38.6000Y11.5000
G01 X40.4000Y10.5000
G01 X46.6750Y0.4500
G01 X50.2500Y1.4250
G01 X50.1000Y5.0000
G00 Z1.0000
(Initialize HP-GL/2-mode)
(PT0)
G21
G90
G94
F80.00
G00 Z1.0000
G00 X50.1000Y5.0000
G01 Z-1.5000
G01 X41.8000Y12.1000
G01 X32.3000Y16.2000
G01 X24.8000Y17.1750
G01 X0.2750Y15.0250
G01 X0.7250Y10.8250
G01 X28.4500Y13.7500
G01 X38.6000Y11.5000
G01 X40.4000Y10.5000
G01 X46.6750Y0.4500
G01 X50.2500Y1.4250
G01 X50.1000Y5.0000
G00 Z1.0000
(Ende)
G80
G90
G00 Z10 X0 Y0
M05
M09
M30