%Generated by HPGL2GCODE
(Start)
M03 S500
G4 P1
M03 S750
G4 P1
M03 S1000
G4 P2
(Initialize HP-GL/2-mode)
(PT0)
G21
G90
G94
F80.00
G00 Z1.0000
G00 X52.0000Y6.5000
G01 Z-0.3000
G01 X48.0000Y6.5000
G01 X46.0000Y6.0000
G01 X31.0000Y6.0000
G01 X22.0000Y13.0000
G01 X11.0000Y13.0000
G01 X6.0000Y8.5000
G01 X4.5000Y8.0000
G01 X1.0000Y5.0000
G01 X4.5000Y1.0000
G01 X7.5000Y4.5000
G01 X8.0000Y6.0000
G01 X11.0000Y8.5000
G01 X22.0000Y8.5000
G01 X31.0000Y1.5000
G01 X46.0000Y1.5000
G01 X48.0000Y1.0000
G01 X52.0000Y1.0000
G01 X52.5000Y2.5000
G01 X52.5000Y5.0000
G01 X52.0000Y6.5000
G00 Z1.0000
G00 X29.6000Y12.8000
G01 Z-0.3000
G01 X34.9000Y12.8000
G01 X35.6000Y11.0000
G01 X35.0000Y9.0000
G01 X29.6000Y9.0000
G01 X29.0000Y11.0000
G01 X29.6000Y12.8000
G00 Z1.0000
G00 X37.7000Y12.8000
G01 Z-0.3000
G01 X43.0000Y12.8000
G01 X43.7000Y11.0000
G01 X43.1000Y9.0000
G01 X37.7000Y9.0000
G01 X37.1000Y11.0000
G01 X37.7000Y12.8000
G00 Z1.0000
G00 X0.0000Y14.5000
G01 Z-0.3000
G01 X47.5000Y14.5000
G01 X54.0000Y8.0000
G01 X54.0000Y0.0000
G01 X4.0000Y0.0000
G01 X0.0000Y4.5000
G01 X0.0000Y14.5000
G00 Z1.0000
(Initialize HP-GL/2-mode)
(PT0)
G21
G90
G94
F80.00
G00 Z1.0000
G00 X52.0000Y6.5000
G01 Z-0.6000
G01 X48.0000Y6.5000
G01 X46.0000Y6.0000
G01 X31.0000Y6.0000
G01 X22.0000Y13.0000
G01 X11.0000Y13.0000
G01 X6.0000Y8.5000
G01 X4.5000Y8.0000
G01 X1.0000Y5.0000
G01 X4.5000Y1.0000
G01 X7.5000Y4.5000
G01 X8.0000Y6.0000
G01 X11.0000Y8.5000
G01 X22.0000Y8.5000
G01 X31.0000Y1.5000
G01 X46.0000Y1.5000
G01 X48.0000Y1.0000
G01 X52.0000Y1.0000
G01 X52.5000Y2.5000
G01 X52.5000Y5.0000
G01 X52.0000Y6.5000
G00 Z1.0000
G00 X29.6000Y12.8000
G01 Z-0.6000
G01 X34.9000Y12.8000
G01 X35.6000Y11.0000
G01 X35.0000Y9.0000
G01 X29.6000Y9.0000
G01 X29.0000Y11.0000
G01 X29.6000Y12.8000
G00 Z1.0000
G00 X37.7000Y12.8000
G01 Z-0.6000
G01 X43.0000Y12.8000
G01 X43.7000Y11.0000
G01 X43.1000Y9.0000
G01 X37.7000Y9.0000
G01 X37.1000Y11.0000
G01 X37.7000Y12.8000
G00 Z1.0000
G00 X0.0000Y14.5000
G01 Z-0.6000
G01 X47.5000Y14.5000
G01 X54.0000Y8.0000
G01 X54.0000Y0.0000
G01 X4.0000Y0.0000
G01 X0.0000Y4.5000
G01 X0.0000Y14.5000
G00 Z1.0000
(Initialize HP-GL/2-mode)
(PT0)
G21
G90
G94
F80.00
G00 Z1.0000
G00 X52.0000Y6.5000
G01 Z-0.9000
G01 X48.0000Y6.5000
G01 X46.0000Y6.0000
G01 X31.0000Y6.0000
G01 X22.0000Y13.0000
G01 X11.0000Y13.0000
G01 X6.0000Y8.5000
G01 X4.5000Y8.0000
G01 X1.0000Y5.0000
G01 X4.5000Y1.0000
G01 X7.5000Y4.5000
G01 X8.0000Y6.0000
G01 X11.0000Y8.5000
G01 X22.0000Y8.5000
G01 X31.0000Y1.5000
G01 X46.0000Y1.5000
G01 X48.0000Y1.0000
G01 X52.0000Y1.0000
G01 X52.5000Y2.5000
G01 X52.5000Y5.0000
G01 X52.0000Y6.5000
G00 Z1.0000
G00 X29.6000Y12.8000
G01 Z-0.9000
G01 X34.9000Y12.8000
G01 X35.6000Y11.0000
G01 X35.0000Y9.0000
G01 X29.6000Y9.0000
G01 X29.0000Y11.0000
G01 X29.6000Y12.8000
G00 Z1.0000
G00 X37.7000Y12.8000
G01 Z-0.9000
G01 X43.0000Y12.8000
G01 X43.7000Y11.0000
G01 X43.1000Y9.0000
G01 X37.7000Y9.0000
G01 X37.1000Y11.0000
G01 X37.7000Y12.8000
G00 Z1.0000
G00 X0.0000Y14.5000
G01 Z-0.9000
G01 X47.5000Y14.5000
G01 X54.0000Y8.0000
G01 X54.0000Y0.0000
G01 X4.0000Y0.0000
G01 X0.0000Y4.5000
G01 X0.0000Y14.5000
G00 Z1.0000
(Initialize HP-GL/2-mode)
(PT0)
G21
G90
G94
F80.00
G00 Z1.0000
G00 X52.0000Y6.5000
G01 Z-1.2000
G01 X48.0000Y6.5000
G01 X46.0000Y6.0000
G01 X31.0000Y6.0000
G01 X22.0000Y13.0000
G01 X11.0000Y13.0000
G01 X6.0000Y8.5000
G01 X4.5000Y8.0000
G01 X1.0000Y5.0000
G01 X4.5000Y1.0000
G01 X7.5000Y4.5000
G01 X8.0000Y6.0000
G01 X11.0000Y8.5000
G01 X22.0000Y8.5000
G01 X31.0000Y1.5000
G01 X46.0000Y1.5000
G01 X48.0000Y1.0000
G01 X52.0000Y1.0000
G01 X52.5000Y2.5000
G01 X52.5000Y5.0000
G01 X52.0000Y6.5000
G00 Z1.0000
G00 X29.6000Y12.8000
G01 Z-1.2000
G01 X34.9000Y12.8000
G01 X35.6000Y11.0000
G01 X35.0000Y9.0000
G01 X29.6000Y9.0000
G01 X29.0000Y11.0000
G01 X29.6000Y12.8000
G00 Z1.0000
G00 X37.7000Y12.8000
G01 Z-1.2000
G01 X43.0000Y12.8000
G01 X43.7000Y11.0000
G01 X43.1000Y9.0000
G01 X37.7000Y9.0000
G01 X37.1000Y11.0000
G01 X37.7000Y12.8000
G00 Z1.0000
G00 X0.0000Y14.5000
G01 Z-1.2000
G01 X47.5000Y14.5000
G01 X54.0000Y8.0000
G01 X54.0000Y0.0000
G01 X4.0000Y0.0000
G01 X0.0000Y4.5000
G01 X0.0000Y14.5000
G00 Z1.0000
(Initialize HP-GL/2-mode)
(PT0)
G21
G90
G94
F80.00
G00 Z1.0000
G00 X52.0000Y6.5000
G01 Z-1.5000
G01 X48.0000Y6.5000
G01 X46.0000Y6.0000
G01 X31.0000Y6.0000
G01 X22.0000Y13.0000
G01 X11.0000Y13.0000
G01 X6.0000Y8.5000
G01 X4.5000Y8.0000
G01 X1.0000Y5.0000
G01 X4.5000Y1.0000
G01 X7.5000Y4.5000
G01 X8.0000Y6.0000
G01 X11.0000Y8.5000
G01 X22.0000Y8.5000
G01 X31.0000Y1.5000
G01 X46.0000Y1.5000
G01 X48.0000Y1.0000
G01 X52.0000Y1.0000
G01 X52.5000Y2.5000
G01 X52.5000Y5.0000
G01 X52.0000Y6.5000
G00 Z1.0000
G00 X29.6000Y12.8000
G01 Z-1.5000
G01 X34.9000Y12.8000
G01 X35.6000Y11.0000
G01 X35.0000Y9.0000
G01 X29.6000Y9.0000
G01 X29.0000Y11.0000
G01 X29.6000Y12.8000
G00 Z1.0000
G00 X37.7000Y12.8000
G01 Z-1.5000
G01 X43.0000Y12.8000
G01 X43.7000Y11.0000
G01 X43.1000Y9.0000
G01 X37.7000Y9.0000
G01 X37.1000Y11.0000
G01 X37.7000Y12.8000
G00 Z1.0000
G00 X0.0000Y14.5000
G01 Z-1.5000
G01 X47.5000Y14.5000
G01 X54.0000Y8.0000
G01 X54.0000Y0.0000
G01 X4.0000Y0.0000
G01 X0.0000Y4.5000
G01 X0.0000Y14.5000
G00 Z1.0000
(Ende)
G80
G90
G00 Z10 X0 Y0
M05
M09
M30