%Generated by HPGL2GCODE
(Start)
M03 S500
G4 P1
M03 S750
G4 P1
M03 S1000
G4 P2
(Initialize HP-GL/2-mode)
(PT0)
G21
G90
G94
F80.00
G00 Z1.0000
G00 X34.0250Y15.5500
G01 Z-0.3000
G01 X37.1000Y16.0000
G01 X36.5500Y19.5500
G01 X46.5500Y21.0500
G01 X47.1000Y17.4000
G01 X50.1500Y17.8500
G01 X50.8750Y13.1000
G01 X47.7000Y12.6250
G01 X48.2750Y8.8750
G01 X38.2750Y7.3750
G01 X37.7000Y11.2500
G01 X34.7250Y10.8000
G01 X34.0250Y15.5500
G00 Z1.0000
G00 X71.4500Y10.7500
G01 Z-0.3000
G01 X0.5500Y0.2500
G01 X0.4500Y1.8500
G01 X7.0500Y15.3500
G01 X0.9500Y17.8500
G01 X5.6500Y27.3500
G01 X69.9500Y19.1500
G01 X71.4500Y10.7500
G00 Z1.0000
(Initialize HP-GL/2-mode)
(PT0)
G21
G90
G94
F80.00
G00 Z1.0000
G00 X34.0250Y15.5500
G01 Z-0.6000
G01 X37.1000Y16.0000
G01 X36.5500Y19.5500
G01 X46.5500Y21.0500
G01 X47.1000Y17.4000
G01 X50.1500Y17.8500
G01 X50.8750Y13.1000
G01 X47.7000Y12.6250
G01 X48.2750Y8.8750
G01 X38.2750Y7.3750
G01 X37.7000Y11.2500
G01 X34.7250Y10.8000
G01 X34.0250Y15.5500
G00 Z1.0000
G00 X71.4500Y10.7500
G01 Z-0.6000
G01 X0.5500Y0.2500
G01 X0.4500Y1.8500
G01 X7.0500Y15.3500
G01 X0.9500Y17.8500
G01 X5.6500Y27.3500
G01 X69.9500Y19.1500
G01 X71.4500Y10.7500
G00 Z1.0000
(Initialize HP-GL/2-mode)
(PT0)
G21
G90
G94
F80.00
G00 Z1.0000
G00 X34.0250Y15.5500
G01 Z-0.9000
G01 X37.1000Y16.0000
G01 X36.5500Y19.5500
G01 X46.5500Y21.0500
G01 X47.1000Y17.4000
G01 X50.1500Y17.8500
G01 X50.8750Y13.1000
G01 X47.7000Y12.6250
G01 X48.2750Y8.8750
G01 X38.2750Y7.3750
G01 X37.7000Y11.2500
G01 X34.7250Y10.8000
G01 X34.0250Y15.5500
G00 Z1.0000
G00 X71.4500Y10.7500
G01 Z-0.9000
G01 X0.5500Y0.2500
G01 X0.4500Y1.8500
G01 X7.0500Y15.3500
G01 X0.9500Y17.8500
G01 X5.6500Y27.3500
G01 X69.9500Y19.1500
G01 X71.4500Y10.7500
G00 Z1.0000
(Initialize HP-GL/2-mode)
(PT0)
G21
G90
G94
F80.00
G00 Z1.0000
G00 X34.0250Y15.5500
G01 Z-1.2000
G01 X37.1000Y16.0000
G01 X36.5500Y19.5500
G01 X46.5500Y21.0500
G01 X47.1000Y17.4000
G01 X50.1500Y17.8500
G01 X50.8750Y13.1000
G01 X47.7000Y12.6250
G01 X48.2750Y8.8750
G01 X38.2750Y7.3750
G01 X37.7000Y11.2500
G01 X34.7250Y10.8000
G01 X34.0250Y15.5500
G00 Z1.0000
G00 X71.4500Y10.7500
G01 Z-1.2000
G01 X0.5500Y0.2500
G01 X0.4500Y1.8500
G01 X7.0500Y15.3500
G01 X0.9500Y17.8500
G01 X5.6500Y27.3500
G01 X69.9500Y19.1500
G01 X71.4500Y10.7500
G00 Z1.0000
(Initialize HP-GL/2-mode)
(PT0)
G21
G90
G94
F80.00
G00 Z1.0000
G00 X34.0250Y15.5500
G01 Z-1.5000
G01 X37.1000Y16.0000
G01 X36.5500Y19.5500
G01 X46.5500Y21.0500
G01 X47.1000Y17.4000
G01 X50.1500Y17.8500
G01 X50.8750Y13.1000
G01 X47.7000Y12.6250
G01 X48.2750Y8.8750
G01 X38.2750Y7.3750
G01 X37.7000Y11.2500
G01 X34.7250Y10.8000
G01 X34.0250Y15.5500
G00 Z1.0000
G00 X71.4500Y10.7500
G01 Z-1.5000
G01 X0.5500Y0.2500
G01 X0.4500Y1.8500
G01 X7.0500Y15.3500
G01 X0.9500Y17.8500
G01 X5.6500Y27.3500
G01 X69.9500Y19.1500
G01 X71.4500Y10.7500
G00 Z1.0000
(Ende)
G80
G90
G00 Z10 X0 Y0
M05
M09
M30