%Generated by HPGL2GCODE
(Start)
M03 S500
G4 P1
M03 S750
G4 P1
M03 S1000
G4 P2
(Initialize HP-GL/2-mode)
(PT0)
G21
G90
G94
F80.00
G00 Z1.0000
G00 X64.0500Y28.9750
G01 Z-0.3000
G01 X1.6500Y20.5750
G01 X0.2750Y11.7500
G01 X68.9500Y0.3000
G01 X69.3250Y4.1250
G01 X63.1250Y16.7500
G01 X69.9500Y19.3750
G01 X64.0750Y28.9750
G00 Z1.0000
(Initialize HP-GL/2-mode)
(PT0)
G21
G90
G94
F80.00
G00 Z1.0000
G00 X64.0500Y28.9750
G01 Z-0.6000
G01 X1.6500Y20.5750
G01 X0.2750Y11.7500
G01 X68.9500Y0.3000
G01 X69.3250Y4.1250
G01 X63.1250Y16.7500
G01 X69.9500Y19.3750
G01 X64.0750Y28.9750
G00 Z1.0000
(Initialize HP-GL/2-mode)
(PT0)
G21
G90
G94
F80.00
G00 Z1.0000
G00 X64.0500Y28.9750
G01 Z-0.9000
G01 X1.6500Y20.5750
G01 X0.2750Y11.7500
G01 X68.9500Y0.3000
G01 X69.3250Y4.1250
G01 X63.1250Y16.7500
G01 X69.9500Y19.3750
G01 X64.0750Y28.9750
G00 Z1.0000
(Initialize HP-GL/2-mode)
(PT0)
G21
G90
G94
F80.00
G00 Z1.0000
G00 X64.0500Y28.9750
G01 Z-1.2000
G01 X1.6500Y20.5750
G01 X0.2750Y11.7500
G01 X68.9500Y0.3000
G01 X69.3250Y4.1250
G01 X63.1250Y16.7500
G01 X69.9500Y19.3750
G01 X64.0750Y28.9750
G00 Z1.0000
(Initialize HP-GL/2-mode)
(PT0)
G21
G90
G94
F80.00
G00 Z1.0000
G00 X64.0500Y28.9750
G01 Z-1.5000
G01 X1.6500Y20.5750
G01 X0.2750Y11.7500
G01 X68.9500Y0.3000
G01 X69.3250Y4.1250
G01 X63.1250Y16.7500
G01 X69.9500Y19.3750
G01 X64.0750Y28.9750
G00 Z1.0000
(Ende)
G80
G90
G00 Z10 X0 Y0
M05
M09
M30