%Generated by HPGL2GCODE
(Start)
M03 S500
G4 P1
M03 S750
G4 P1
M03 S1000
G4 P2
(Initialize HP-GL/2-mode)
(PT0)
G21
G90
G94
F80.00
G00 Z1.0000
G00 X66.5500Y0.3000
G01 Z-0.3000
G01 X3.0500Y0.2000
G01 X0.3500Y8.8250
G01 X66.5500Y29.0250
G01 X67.3500Y26.3750
G01 X63.7750Y13.4250
G01 X64.8750Y12.6250
G01 X69.7750Y11.1750
G01 X66.5750Y0.3000
G00 Z1.0000
G00 X20.1000Y9.7000
G01 Z-0.3000
G01 X23.1250Y10.3500
G01 X22.4000Y13.8750
G01 X32.2750Y15.9750
G01 X33.0250Y12.3500
G01 X36.0750Y13.0000
G01 X37.0750Y8.3000
G01 X33.9250Y7.6250
G01 X34.8000Y3.6500
G01 X24.9000Y1.5500
G01 X24.0250Y5.6250
G01 X21.1000Y5.0000
G01 X20.1000Y9.7000
G00 Z1.0000
(Initialize HP-GL/2-mode)
(PT0)
G21
G90
G94
F80.00
G00 Z1.0000
G00 X66.5500Y0.3000
G01 Z-0.6000
G01 X3.0500Y0.2000
G01 X0.3500Y8.8250
G01 X66.5500Y29.0250
G01 X67.3500Y26.3750
G01 X63.7750Y13.4250
G01 X64.8750Y12.6250
G01 X69.7750Y11.1750
G01 X66.5750Y0.3000
G00 Z1.0000
G00 X20.1000Y9.7000
G01 Z-0.6000
G01 X23.1250Y10.3500
G01 X22.4000Y13.8750
G01 X32.2750Y15.9750
G01 X33.0250Y12.3500
G01 X36.0750Y13.0000
G01 X37.0750Y8.3000
G01 X33.9250Y7.6250
G01 X34.8000Y3.6500
G01 X24.9000Y1.5500
G01 X24.0250Y5.6250
G01 X21.1000Y5.0000
G01 X20.1000Y9.7000
G00 Z1.0000
(Initialize HP-GL/2-mode)
(PT0)
G21
G90
G94
F80.00
G00 Z1.0000
G00 X66.5500Y0.3000
G01 Z-0.9000
G01 X3.0500Y0.2000
G01 X0.3500Y8.8250
G01 X66.5500Y29.0250
G01 X67.3500Y26.3750
G01 X63.7750Y13.4250
G01 X64.8750Y12.6250
G01 X69.7750Y11.1750
G01 X66.5750Y0.3000
G00 Z1.0000
G00 X20.1000Y9.7000
G01 Z-0.9000
G01 X23.1250Y10.3500
G01 X22.4000Y13.8750
G01 X32.2750Y15.9750
G01 X33.0250Y12.3500
G01 X36.0750Y13.0000
G01 X37.0750Y8.3000
G01 X33.9250Y7.6250
G01 X34.8000Y3.6500
G01 X24.9000Y1.5500
G01 X24.0250Y5.6250
G01 X21.1000Y5.0000
G01 X20.1000Y9.7000
G00 Z1.0000
(Initialize HP-GL/2-mode)
(PT0)
G21
G90
G94
F80.00
G00 Z1.0000
G00 X66.5500Y0.3000
G01 Z-1.2000
G01 X3.0500Y0.2000
G01 X0.3500Y8.8250
G01 X66.5500Y29.0250
G01 X67.3500Y26.3750
G01 X63.7750Y13.4250
G01 X64.8750Y12.6250
G01 X69.7750Y11.1750
G01 X66.5750Y0.3000
G00 Z1.0000
G00 X20.1000Y9.7000
G01 Z-1.2000
G01 X23.1250Y10.3500
G01 X22.4000Y13.8750
G01 X32.2750Y15.9750
G01 X33.0250Y12.3500
G01 X36.0750Y13.0000
G01 X37.0750Y8.3000
G01 X33.9250Y7.6250
G01 X34.8000Y3.6500
G01 X24.9000Y1.5500
G01 X24.0250Y5.6250
G01 X21.1000Y5.0000
G01 X20.1000Y9.7000
G00 Z1.0000
(Initialize HP-GL/2-mode)
(PT0)
G21
G90
G94
F80.00
G00 Z1.0000
G00 X66.5500Y0.3000
G01 Z-1.5000
G01 X3.0500Y0.2000
G01 X0.3500Y8.8250
G01 X66.5500Y29.0250
G01 X67.3500Y26.3750
G01 X63.7750Y13.4250
G01 X64.8750Y12.6250
G01 X69.7750Y11.1750
G01 X66.5750Y0.3000
G00 Z1.0000
G00 X20.1000Y9.7000
G01 Z-1.5000
G01 X23.1250Y10.3500
G01 X22.4000Y13.8750
G01 X32.2750Y15.9750
G01 X33.0250Y12.3500
G01 X36.0750Y13.0000
G01 X37.0750Y8.3000
G01 X33.9250Y7.6250
G01 X34.8000Y3.6500
G01 X24.9000Y1.5500
G01 X24.0250Y5.6250
G01 X21.1000Y5.0000
G01 X20.1000Y9.7000
G00 Z1.0000
(Ende)
G80
G90
G00 Z10 X0 Y0
M05
M09
M30