%Generated by HPGL2GCODE
(Start)
M03 S500
G4 P1
M03 S750
G4 P1
M03 S1000
G4 P2
(Initialize HP-GL/2-mode)
(PT0)
G21
G90
G94
F80.00
G00 Z1.0000
G00 X64.2000Y11.3000
G01 Z-0.3000
G01 X64.8500Y12.6250
G01 X69.7500Y11.1750
G01 X66.5500Y0.3000
G01 X3.0250Y0.2000
G01 X0.3250Y8.8250
G01 X66.5250Y29.0250
G01 X67.3500Y26.3750
G01 X65.7750Y21.0000
G01 X62.1250Y18.4750
G00 Z1.0000
G00 X23.9000Y4.3750
G01 Z-0.3000
G01 X26.8750Y5.2250
G01 X27.8500Y1.8750
G01 X37.5500Y4.6500
G01 X36.6000Y8.0250
G01 X39.5750Y8.8750
G01 X38.2500Y13.5000
G01 X35.1750Y12.6000
G01 X34.0000Y16.7250
G01 X24.3000Y13.9250
G01 X25.5000Y9.7250
G01 X22.6000Y8.9000
G01 X23.9000Y4.3750
G00 Z1.0000
G00 X62.1250Y18.4750
G01 Z-0.3000
G01 X61.4000Y21.0000
G01 X39.7500Y14.6250
G01 X43.3250Y2.3750
G01 X64.9250Y8.8000
G01 X64.2000Y11.3000
G00 Z1.0000
(Initialize HP-GL/2-mode)
(PT0)
G21
G90
G94
F80.00
G00 Z1.0000
G00 X64.2000Y11.3000
G01 Z-0.6000
G01 X64.8500Y12.6250
G01 X69.7500Y11.1750
G01 X66.5500Y0.3000
G01 X3.0250Y0.2000
G01 X0.3250Y8.8250
G01 X66.5250Y29.0250
G01 X67.3500Y26.3750
G01 X65.7750Y21.0000
G01 X62.1250Y18.4750
G00 Z1.0000
G00 X23.9000Y4.3750
G01 Z-0.6000
G01 X26.8750Y5.2250
G01 X27.8500Y1.8750
G01 X37.5500Y4.6500
G01 X36.6000Y8.0250
G01 X39.5750Y8.8750
G01 X38.2500Y13.5000
G01 X35.1750Y12.6000
G01 X34.0000Y16.7250
G01 X24.3000Y13.9250
G01 X25.5000Y9.7250
G01 X22.6000Y8.9000
G01 X23.9000Y4.3750
G00 Z1.0000
G00 X62.1250Y18.4750
G01 Z-0.6000
G01 X61.4000Y21.0000
G01 X39.7500Y14.6250
G01 X43.3250Y2.3750
G01 X64.9250Y8.8000
G01 X64.2000Y11.3000
G00 Z1.0000
(Initialize HP-GL/2-mode)
(PT0)
G21
G90
G94
F80.00
G00 Z1.0000
G00 X64.2000Y11.3000
G01 Z-0.9000
G01 X64.8500Y12.6250
G01 X69.7500Y11.1750
G01 X66.5500Y0.3000
G01 X3.0250Y0.2000
G01 X0.3250Y8.8250
G01 X66.5250Y29.0250
G01 X67.3500Y26.3750
G01 X65.7750Y21.0000
G01 X62.1250Y18.4750
G00 Z1.0000
G00 X23.9000Y4.3750
G01 Z-0.9000
G01 X26.8750Y5.2250
G01 X27.8500Y1.8750
G01 X37.5500Y4.6500
G01 X36.6000Y8.0250
G01 X39.5750Y8.8750
G01 X38.2500Y13.5000
G01 X35.1750Y12.6000
G01 X34.0000Y16.7250
G01 X24.3000Y13.9250
G01 X25.5000Y9.7250
G01 X22.6000Y8.9000
G01 X23.9000Y4.3750
G00 Z1.0000
G00 X62.1250Y18.4750
G01 Z-0.9000
G01 X61.4000Y21.0000
G01 X39.7500Y14.6250
G01 X43.3250Y2.3750
G01 X64.9250Y8.8000
G01 X64.2000Y11.3000
G00 Z1.0000
(Initialize HP-GL/2-mode)
(PT0)
G21
G90
G94
F80.00
G00 Z1.0000
G00 X64.2000Y11.3000
G01 Z-1.2000
G01 X64.8500Y12.6250
G01 X69.7500Y11.1750
G01 X66.5500Y0.3000
G01 X3.0250Y0.2000
G01 X0.3250Y8.8250
G01 X66.5250Y29.0250
G01 X67.3500Y26.3750
G01 X65.7750Y21.0000
G01 X62.1250Y18.4750
G00 Z1.0000
G00 X23.9000Y4.3750
G01 Z-1.2000
G01 X26.8750Y5.2250
G01 X27.8500Y1.8750
G01 X37.5500Y4.6500
G01 X36.6000Y8.0250
G01 X39.5750Y8.8750
G01 X38.2500Y13.5000
G01 X35.1750Y12.6000
G01 X34.0000Y16.7250
G01 X24.3000Y13.9250
G01 X25.5000Y9.7250
G01 X22.6000Y8.9000
G01 X23.9000Y4.3750
G00 Z1.0000
G00 X62.1250Y18.4750
G01 Z-1.2000
G01 X61.4000Y21.0000
G01 X39.7500Y14.6250
G01 X43.3250Y2.3750
G01 X64.9250Y8.8000
G01 X64.2000Y11.3000
G00 Z1.0000
(Initialize HP-GL/2-mode)
(PT0)
G21
G90
G94
F80.00
G00 Z1.0000
G00 X64.2000Y11.3000
G01 Z-1.5000
G01 X64.8500Y12.6250
G01 X69.7500Y11.1750
G01 X66.5500Y0.3000
G01 X3.0250Y0.2000
G01 X0.3250Y8.8250
G01 X66.5250Y29.0250
G01 X67.3500Y26.3750
G01 X65.7750Y21.0000
G01 X62.1250Y18.4750
G00 Z1.0000
G00 X23.9000Y4.3750
G01 Z-1.5000
G01 X26.8750Y5.2250
G01 X27.8500Y1.8750
G01 X37.5500Y4.6500
G01 X36.6000Y8.0250
G01 X39.5750Y8.8750
G01 X38.2500Y13.5000
G01 X35.1750Y12.6000
G01 X34.0000Y16.7250
G01 X24.3000Y13.9250
G01 X25.5000Y9.7250
G01 X22.6000Y8.9000
G01 X23.9000Y4.3750
G00 Z1.0000
G00 X62.1250Y18.4750
G01 Z-1.5000
G01 X61.4000Y21.0000
G01 X39.7500Y14.6250
G01 X43.3250Y2.3750
G01 X64.9250Y8.8000
G01 X64.2000Y11.3000
G00 Z1.0000
(Ende)
G80
G90
G00 Z10 X0 Y0
M05
M09
M30