%Generated by HPGL2GCODE
(Start)
M03 S500
G4 P1
M03 S750
G4 P1
M03 S1000
G4 P2
(Initialize HP-GL/2-mode)
(PT0)
G21
G90
G94
F80.00
G00 Z1.0000
G00 X60.8750Y28.3250
G01 Z-0.3000
G01 X0.2750Y9.3250
G01 X0.2750Y0.2750
G01 X69.5000Y0.9250
G01 X69.4750Y3.7000
G01 X62.1750Y14.9750
G01 X62.9750Y16.0750
G01 X67.2250Y18.9250
G01 X60.8750Y28.3250
G00 Z1.0000
G00 X34.1500Y7.4500
G01 Z-0.3000
G01 X31.1000Y6.8750
G01 X31.8000Y3.3250
G01 X21.8750Y1.4000
G01 X21.1750Y5.0500
G01 X18.1250Y4.4500
G01 X17.2250Y9.1500
G01 X20.3500Y9.7750
G01 X19.6250Y13.5000
G01 X29.5500Y15.4250
G01 X30.3000Y11.6000
G01 X33.2250Y12.1750
G01 X34.1500Y7.4500
G00 Z1.0000
(Initialize HP-GL/2-mode)
(PT0)
G21
G90
G94
F80.00
G00 Z1.0000
G00 X60.8750Y28.3250
G01 Z-0.6000
G01 X0.2750Y9.3250
G01 X0.2750Y0.2750
G01 X69.5000Y0.9250
G01 X69.4750Y3.7000
G01 X62.1750Y14.9750
G01 X62.9750Y16.0750
G01 X67.2250Y18.9250
G01 X60.8750Y28.3250
G00 Z1.0000
G00 X34.1500Y7.4500
G01 Z-0.6000
G01 X31.1000Y6.8750
G01 X31.8000Y3.3250
G01 X21.8750Y1.4000
G01 X21.1750Y5.0500
G01 X18.1250Y4.4500
G01 X17.2250Y9.1500
G01 X20.3500Y9.7750
G01 X19.6250Y13.5000
G01 X29.5500Y15.4250
G01 X30.3000Y11.6000
G01 X33.2250Y12.1750
G01 X34.1500Y7.4500
G00 Z1.0000
(Initialize HP-GL/2-mode)
(PT0)
G21
G90
G94
F80.00
G00 Z1.0000
G00 X60.8750Y28.3250
G01 Z-0.9000
G01 X0.2750Y9.3250
G01 X0.2750Y0.2750
G01 X69.5000Y0.9250
G01 X69.4750Y3.7000
G01 X62.1750Y14.9750
G01 X62.9750Y16.0750
G01 X67.2250Y18.9250
G01 X60.8750Y28.3250
G00 Z1.0000
G00 X34.1500Y7.4500
G01 Z-0.9000
G01 X31.1000Y6.8750
G01 X31.8000Y3.3250
G01 X21.8750Y1.4000
G01 X21.1750Y5.0500
G01 X18.1250Y4.4500
G01 X17.2250Y9.1500
G01 X20.3500Y9.7750
G01 X19.6250Y13.5000
G01 X29.5500Y15.4250
G01 X30.3000Y11.6000
G01 X33.2250Y12.1750
G01 X34.1500Y7.4500
G00 Z1.0000
(Initialize HP-GL/2-mode)
(PT0)
G21
G90
G94
F80.00
G00 Z1.0000
G00 X60.8750Y28.3250
G01 Z-1.2000
G01 X0.2750Y9.3250
G01 X0.2750Y0.2750
G01 X69.5000Y0.9250
G01 X69.4750Y3.7000
G01 X62.1750Y14.9750
G01 X62.9750Y16.0750
G01 X67.2250Y18.9250
G01 X60.8750Y28.3250
G00 Z1.0000
G00 X34.1500Y7.4500
G01 Z-1.2000
G01 X31.1000Y6.8750
G01 X31.8000Y3.3250
G01 X21.8750Y1.4000
G01 X21.1750Y5.0500
G01 X18.1250Y4.4500
G01 X17.2250Y9.1500
G01 X20.3500Y9.7750
G01 X19.6250Y13.5000
G01 X29.5500Y15.4250
G01 X30.3000Y11.6000
G01 X33.2250Y12.1750
G01 X34.1500Y7.4500
G00 Z1.0000
(Initialize HP-GL/2-mode)
(PT0)
G21
G90
G94
F80.00
G00 Z1.0000
G00 X60.8750Y28.3250
G01 Z-1.5000
G01 X0.2750Y9.3250
G01 X0.2750Y0.2750
G01 X69.5000Y0.9250
G01 X69.4750Y3.7000
G01 X62.1750Y14.9750
G01 X62.9750Y16.0750
G01 X67.2250Y18.9250
G01 X60.8750Y28.3250
G00 Z1.0000
G00 X34.1500Y7.4500
G01 Z-1.5000
G01 X31.1000Y6.8750
G01 X31.8000Y3.3250
G01 X21.8750Y1.4000
G01 X21.1750Y5.0500
G01 X18.1250Y4.4500
G01 X17.2250Y9.1500
G01 X20.3500Y9.7750
G01 X19.6250Y13.5000
G01 X29.5500Y15.4250
G01 X30.3000Y11.6000
G01 X33.2250Y12.1750
G01 X34.1500Y7.4500
G00 Z1.0000
(Ende)
G80
G90
G00 Z10 X0 Y0
M05
M09
M30