%Generated by HPGL2GCODE
(Start)
M03 S500
G4 P1
M03 S750
G4 P1
M03 S1000
G4 P2
(Initialize HP-GL/2-mode)
(PT0)
G21
G90
G94
F80.00
G00 Z1.0000
G00 X66.4750Y0.3500
G01 Z-0.3000
G01 X2.9500Y0.2500
G01 X0.2500Y8.8750
G01 X66.4500Y29.0750
G01 X67.2750Y26.4250
G01 X65.7000Y21.0250
G01 X61.7500Y20.0250
G00 Z1.0000
G00 X22.0750Y10.3250
G01 Z-0.3000
G01 X25.1250Y10.9000
G01 X24.4500Y14.3500
G01 X34.3750Y16.2750
G01 X35.0500Y12.8250
G01 X38.0750Y13.4250
G01 X39.0000Y8.7250
G01 X35.8500Y8.1000
G01 X36.6750Y3.9000
G01 X26.7750Y1.9750
G01 X25.9250Y6.2750
G01 X22.9750Y5.7000
G01 X22.0750Y10.3250
G00 Z1.0000
G00 X61.7500Y20.0250
G01 Z-0.3000
G01 X61.0250Y22.5250
G01 X39.3750Y16.1750
G01 X42.9500Y3.9250
G01 X64.5500Y10.3250
G01 X63.8250Y12.8500
G00 Z1.0000
G00 X66.4750Y0.3500
G01 Z-0.3000
G01 X69.7000Y11.2250
G01 X64.8000Y12.6750
G01 X63.8250Y12.8500
G00 Z1.0000
(Initialize HP-GL/2-mode)
(PT0)
G21
G90
G94
F80.00
G00 Z1.0000
G00 X66.4750Y0.3500
G01 Z-0.6000
G01 X2.9500Y0.2500
G01 X0.2500Y8.8750
G01 X66.4500Y29.0750
G01 X67.2750Y26.4250
G01 X65.7000Y21.0250
G01 X61.7500Y20.0250
G00 Z1.0000
G00 X22.0750Y10.3250
G01 Z-0.6000
G01 X25.1250Y10.9000
G01 X24.4500Y14.3500
G01 X34.3750Y16.2750
G01 X35.0500Y12.8250
G01 X38.0750Y13.4250
G01 X39.0000Y8.7250
G01 X35.8500Y8.1000
G01 X36.6750Y3.9000
G01 X26.7750Y1.9750
G01 X25.9250Y6.2750
G01 X22.9750Y5.7000
G01 X22.0750Y10.3250
G00 Z1.0000
G00 X61.7500Y20.0250
G01 Z-0.6000
G01 X61.0250Y22.5250
G01 X39.3750Y16.1750
G01 X42.9500Y3.9250
G01 X64.5500Y10.3250
G01 X63.8250Y12.8500
G00 Z1.0000
G00 X66.4750Y0.3500
G01 Z-0.6000
G01 X69.7000Y11.2250
G01 X64.8000Y12.6750
G01 X63.8250Y12.8500
G00 Z1.0000
(Initialize HP-GL/2-mode)
(PT0)
G21
G90
G94
F80.00
G00 Z1.0000
G00 X66.4750Y0.3500
G01 Z-0.9000
G01 X2.9500Y0.2500
G01 X0.2500Y8.8750
G01 X66.4500Y29.0750
G01 X67.2750Y26.4250
G01 X65.7000Y21.0250
G01 X61.7500Y20.0250
G00 Z1.0000
G00 X22.0750Y10.3250
G01 Z-0.9000
G01 X25.1250Y10.9000
G01 X24.4500Y14.3500
G01 X34.3750Y16.2750
G01 X35.0500Y12.8250
G01 X38.0750Y13.4250
G01 X39.0000Y8.7250
G01 X35.8500Y8.1000
G01 X36.6750Y3.9000
G01 X26.7750Y1.9750
G01 X25.9250Y6.2750
G01 X22.9750Y5.7000
G01 X22.0750Y10.3250
G00 Z1.0000
G00 X61.7500Y20.0250
G01 Z-0.9000
G01 X61.0250Y22.5250
G01 X39.3750Y16.1750
G01 X42.9500Y3.9250
G01 X64.5500Y10.3250
G01 X63.8250Y12.8500
G00 Z1.0000
G00 X66.4750Y0.3500
G01 Z-0.9000
G01 X69.7000Y11.2250
G01 X64.8000Y12.6750
G01 X63.8250Y12.8500
G00 Z1.0000
(Initialize HP-GL/2-mode)
(PT0)
G21
G90
G94
F80.00
G00 Z1.0000
G00 X66.4750Y0.3500
G01 Z-1.2000
G01 X2.9500Y0.2500
G01 X0.2500Y8.8750
G01 X66.4500Y29.0750
G01 X67.2750Y26.4250
G01 X65.7000Y21.0250
G01 X61.7500Y20.0250
G00 Z1.0000
G00 X22.0750Y10.3250
G01 Z-1.2000
G01 X25.1250Y10.9000
G01 X24.4500Y14.3500
G01 X34.3750Y16.2750
G01 X35.0500Y12.8250
G01 X38.0750Y13.4250
G01 X39.0000Y8.7250
G01 X35.8500Y8.1000
G01 X36.6750Y3.9000
G01 X26.7750Y1.9750
G01 X25.9250Y6.2750
G01 X22.9750Y5.7000
G01 X22.0750Y10.3250
G00 Z1.0000
G00 X61.7500Y20.0250
G01 Z-1.2000
G01 X61.0250Y22.5250
G01 X39.3750Y16.1750
G01 X42.9500Y3.9250
G01 X64.5500Y10.3250
G01 X63.8250Y12.8500
G00 Z1.0000
G00 X66.4750Y0.3500
G01 Z-1.2000
G01 X69.7000Y11.2250
G01 X64.8000Y12.6750
G01 X63.8250Y12.8500
G00 Z1.0000
(Initialize HP-GL/2-mode)
(PT0)
G21
G90
G94
F80.00
G00 Z1.0000
G00 X66.4750Y0.3500
G01 Z-1.5000
G01 X2.9500Y0.2500
G01 X0.2500Y8.8750
G01 X66.4500Y29.0750
G01 X67.2750Y26.4250
G01 X65.7000Y21.0250
G01 X61.7500Y20.0250
G00 Z1.0000
G00 X22.0750Y10.3250
G01 Z-1.5000
G01 X25.1250Y10.9000
G01 X24.4500Y14.3500
G01 X34.3750Y16.2750
G01 X35.0500Y12.8250
G01 X38.0750Y13.4250
G01 X39.0000Y8.7250
G01 X35.8500Y8.1000
G01 X36.6750Y3.9000
G01 X26.7750Y1.9750
G01 X25.9250Y6.2750
G01 X22.9750Y5.7000
G01 X22.0750Y10.3250
G00 Z1.0000
G00 X61.7500Y20.0250
G01 Z-1.5000
G01 X61.0250Y22.5250
G01 X39.3750Y16.1750
G01 X42.9500Y3.9250
G01 X64.5500Y10.3250
G01 X63.8250Y12.8500
G00 Z1.0000
G00 X66.4750Y0.3500
G01 Z-1.5000
G01 X69.7000Y11.2250
G01 X64.8000Y12.6750
G01 X63.8250Y12.8500
G00 Z1.0000
(Ende)
G80
G90
G00 Z10 X0 Y0
M05
M09
M30