%Generated by HPGL2GCODE
(Start)
M03 S500
G4 P1
M03 S750
G4 P1
M03 S1000
G4 P2
(Initialize HP-GL/2-mode)
(PT0)
G21
G90
G94
F80.00
G00 Z1.0000
G00 X22.3750Y9.8000
G01 Z-0.3000
G01 X25.3500Y10.6250
G01 X24.4250Y14.0000
G01 X34.1500Y16.7000
G01 X35.0750Y13.3250
G01 X38.0750Y14.1500
G01 X39.3500Y9.5250
G01 X36.2750Y8.6750
G01 X37.4250Y4.5500
G01 X27.6750Y1.8500
G01 X26.5000Y6.0500
G01 X23.6250Y5.2500
G01 X22.3750Y9.8000
G00 Z1.0000
G00 X64.6500Y10.9750
G01 Z-0.3000
G01 X64.7000Y10.7500
G01 X43.1250Y4.3250
G01 X39.5500Y16.5750
G01 X61.1750Y22.9500
G01 X61.5500Y21.6500
G01 X66.0750Y23.0750
G01 X67.3000Y26.4000
G01 X66.4750Y29.0500
G01 X0.2750Y8.8500
G01 X2.9750Y0.2250
G01 X66.5000Y0.3250
G01 X69.7250Y11.2000
G01 X68.0500Y12.0500
G01 X64.6500Y10.9750
G00 Z1.0000
(Initialize HP-GL/2-mode)
(PT0)
G21
G90
G94
F80.00
G00 Z1.0000
G00 X22.3750Y9.8000
G01 Z-0.6000
G01 X25.3500Y10.6250
G01 X24.4250Y14.0000
G01 X34.1500Y16.7000
G01 X35.0750Y13.3250
G01 X38.0750Y14.1500
G01 X39.3500Y9.5250
G01 X36.2750Y8.6750
G01 X37.4250Y4.5500
G01 X27.6750Y1.8500
G01 X26.5000Y6.0500
G01 X23.6250Y5.2500
G01 X22.3750Y9.8000
G00 Z1.0000
G00 X64.6500Y10.9750
G01 Z-0.6000
G01 X64.7000Y10.7500
G01 X43.1250Y4.3250
G01 X39.5500Y16.5750
G01 X61.1750Y22.9500
G01 X61.5500Y21.6500
G01 X66.0750Y23.0750
G01 X67.3000Y26.4000
G01 X66.4750Y29.0500
G01 X0.2750Y8.8500
G01 X2.9750Y0.2250
G01 X66.5000Y0.3250
G01 X69.7250Y11.2000
G01 X68.0500Y12.0500
G01 X64.6500Y10.9750
G00 Z1.0000
(Initialize HP-GL/2-mode)
(PT0)
G21
G90
G94
F80.00
G00 Z1.0000
G00 X22.3750Y9.8000
G01 Z-0.9000
G01 X25.3500Y10.6250
G01 X24.4250Y14.0000
G01 X34.1500Y16.7000
G01 X35.0750Y13.3250
G01 X38.0750Y14.1500
G01 X39.3500Y9.5250
G01 X36.2750Y8.6750
G01 X37.4250Y4.5500
G01 X27.6750Y1.8500
G01 X26.5000Y6.0500
G01 X23.6250Y5.2500
G01 X22.3750Y9.8000
G00 Z1.0000
G00 X64.6500Y10.9750
G01 Z-0.9000
G01 X64.7000Y10.7500
G01 X43.1250Y4.3250
G01 X39.5500Y16.5750
G01 X61.1750Y22.9500
G01 X61.5500Y21.6500
G01 X66.0750Y23.0750
G01 X67.3000Y26.4000
G01 X66.4750Y29.0500
G01 X0.2750Y8.8500
G01 X2.9750Y0.2250
G01 X66.5000Y0.3250
G01 X69.7250Y11.2000
G01 X68.0500Y12.0500
G01 X64.6500Y10.9750
G00 Z1.0000
(Initialize HP-GL/2-mode)
(PT0)
G21
G90
G94
F80.00
G00 Z1.0000
G00 X22.3750Y9.8000
G01 Z-1.2000
G01 X25.3500Y10.6250
G01 X24.4250Y14.0000
G01 X34.1500Y16.7000
G01 X35.0750Y13.3250
G01 X38.0750Y14.1500
G01 X39.3500Y9.5250
G01 X36.2750Y8.6750
G01 X37.4250Y4.5500
G01 X27.6750Y1.8500
G01 X26.5000Y6.0500
G01 X23.6250Y5.2500
G01 X22.3750Y9.8000
G00 Z1.0000
G00 X64.6500Y10.9750
G01 Z-1.2000
G01 X64.7000Y10.7500
G01 X43.1250Y4.3250
G01 X39.5500Y16.5750
G01 X61.1750Y22.9500
G01 X61.5500Y21.6500
G01 X66.0750Y23.0750
G01 X67.3000Y26.4000
G01 X66.4750Y29.0500
G01 X0.2750Y8.8500
G01 X2.9750Y0.2250
G01 X66.5000Y0.3250
G01 X69.7250Y11.2000
G01 X68.0500Y12.0500
G01 X64.6500Y10.9750
G00 Z1.0000
(Initialize HP-GL/2-mode)
(PT0)
G21
G90
G94
F80.00
G00 Z1.0000
G00 X22.3750Y9.8000
G01 Z-1.5000
G01 X25.3500Y10.6250
G01 X24.4250Y14.0000
G01 X34.1500Y16.7000
G01 X35.0750Y13.3250
G01 X38.0750Y14.1500
G01 X39.3500Y9.5250
G01 X36.2750Y8.6750
G01 X37.4250Y4.5500
G01 X27.6750Y1.8500
G01 X26.5000Y6.0500
G01 X23.6250Y5.2500
G01 X22.3750Y9.8000
G00 Z1.0000
G00 X64.6500Y10.9750
G01 Z-1.5000
G01 X64.7000Y10.7500
G01 X43.1250Y4.3250
G01 X39.5500Y16.5750
G01 X61.1750Y22.9500
G01 X61.5500Y21.6500
G01 X66.0750Y23.0750
G01 X67.3000Y26.4000
G01 X66.4750Y29.0500
G01 X0.2750Y8.8500
G01 X2.9750Y0.2250
G01 X66.5000Y0.3250
G01 X69.7250Y11.2000
G01 X68.0500Y12.0500
G01 X64.6500Y10.9750
G00 Z1.0000
(Ende)
G80
G90
G00 Z10 X0 Y0
M05
M09
M30