%Generated by HPGL2GCODE
(Start)
M03 S500
G4 P1
M03 S750
G4 P1
M03 S1000
G4 P2
(Initialize HP-GL/2-mode)
(PT0)
G21
G90
G94
F80.00
G00 Z1.0000
G00 X7.8750Y20.4500
G01 Z-0.3000
G01 X21.7250Y20.5250
G01 X22.7250Y13.5250
G01 X26.2250Y13.5250
G01 X26.2500Y15.0250
G01 X38.8750Y14.7750
G01 X38.8500Y8.2750
G01 X23.4250Y8.3500
G01 X23.4250Y7.3500
G01 X7.8500Y7.3250
G01 X7.8500Y20.4500
G00 Z1.0000
G00 X70.3750Y6.1000
G01 Z-0.3000
G01 X18.0000Y5.7750
G01 X18.0000Y-0.4250
G01 X6.0250Y-0.5750
G01 X0.0000Y1.2750
G01 X0.0000Y26.7750
G01 X69.6250Y27.3500
G01 X73.2000Y26.8750
G01 X79.3000Y26.8750
G01 X79.3000Y19.7750
G01 X70.3500Y19.5250
G01 X70.4750Y6.1000
G00 Z1.0000
G00 X46.1750Y9.1000
G01 Z-0.3000
G01 X59.0000Y9.0000
G01 X59.1500Y24.1000
G01 X46.3000Y24.2000
G01 X46.1750Y9.1000
G00 Z1.0000
(Initialize HP-GL/2-mode)
(PT0)
G21
G90
G94
F80.00
G00 Z1.0000
G00 X7.8750Y20.4500
G01 Z-0.6000
G01 X21.7250Y20.5250
G01 X22.7250Y13.5250
G01 X26.2250Y13.5250
G01 X26.2500Y15.0250
G01 X38.8750Y14.7750
G01 X38.8500Y8.2750
G01 X23.4250Y8.3500
G01 X23.4250Y7.3500
G01 X7.8500Y7.3250
G01 X7.8500Y20.4500
G00 Z1.0000
G00 X70.3750Y6.1000
G01 Z-0.6000
G01 X18.0000Y5.7750
G01 X18.0000Y-0.4250
G01 X6.0250Y-0.5750
G01 X0.0000Y1.2750
G01 X0.0000Y26.7750
G01 X69.6250Y27.3500
G01 X73.2000Y26.8750
G01 X79.3000Y26.8750
G01 X79.3000Y19.7750
G01 X70.3500Y19.5250
G01 X70.4750Y6.1000
G00 Z1.0000
G00 X46.1750Y9.1000
G01 Z-0.6000
G01 X59.0000Y9.0000
G01 X59.1500Y24.1000
G01 X46.3000Y24.2000
G01 X46.1750Y9.1000
G00 Z1.0000
(Initialize HP-GL/2-mode)
(PT0)
G21
G90
G94
F80.00
G00 Z1.0000
G00 X7.8750Y20.4500
G01 Z-0.9000
G01 X21.7250Y20.5250
G01 X22.7250Y13.5250
G01 X26.2250Y13.5250
G01 X26.2500Y15.0250
G01 X38.8750Y14.7750
G01 X38.8500Y8.2750
G01 X23.4250Y8.3500
G01 X23.4250Y7.3500
G01 X7.8500Y7.3250
G01 X7.8500Y20.4500
G00 Z1.0000
G00 X70.3750Y6.1000
G01 Z-0.9000
G01 X18.0000Y5.7750
G01 X18.0000Y-0.4250
G01 X6.0250Y-0.5750
G01 X0.0000Y1.2750
G01 X0.0000Y26.7750
G01 X69.6250Y27.3500
G01 X73.2000Y26.8750
G01 X79.3000Y26.8750
G01 X79.3000Y19.7750
G01 X70.3500Y19.5250
G01 X70.4750Y6.1000
G00 Z1.0000
G00 X46.1750Y9.1000
G01 Z-0.9000
G01 X59.0000Y9.0000
G01 X59.1500Y24.1000
G01 X46.3000Y24.2000
G01 X46.1750Y9.1000
G00 Z1.0000
(Initialize HP-GL/2-mode)
(PT0)
G21
G90
G94
F80.00
G00 Z1.0000
G00 X7.8750Y20.4500
G01 Z-1.2000
G01 X21.7250Y20.5250
G01 X22.7250Y13.5250
G01 X26.2250Y13.5250
G01 X26.2500Y15.0250
G01 X38.8750Y14.7750
G01 X38.8500Y8.2750
G01 X23.4250Y8.3500
G01 X23.4250Y7.3500
G01 X7.8500Y7.3250
G01 X7.8500Y20.4500
G00 Z1.0000
G00 X70.3750Y6.1000
G01 Z-1.2000
G01 X18.0000Y5.7750
G01 X18.0000Y-0.4250
G01 X6.0250Y-0.5750
G01 X0.0000Y1.2750
G01 X0.0000Y26.7750
G01 X69.6250Y27.3500
G01 X73.2000Y26.8750
G01 X79.3000Y26.8750
G01 X79.3000Y19.7750
G01 X70.3500Y19.5250
G01 X70.4750Y6.1000
G00 Z1.0000
G00 X46.1750Y9.1000
G01 Z-1.2000
G01 X59.0000Y9.0000
G01 X59.1500Y24.1000
G01 X46.3000Y24.2000
G01 X46.1750Y9.1000
G00 Z1.0000
(Initialize HP-GL/2-mode)
(PT0)
G21
G90
G94
F80.00
G00 Z1.0000
G00 X7.8750Y20.4500
G01 Z-1.5000
G01 X21.7250Y20.5250
G01 X22.7250Y13.5250
G01 X26.2250Y13.5250
G01 X26.2500Y15.0250
G01 X38.8750Y14.7750
G01 X38.8500Y8.2750
G01 X23.4250Y8.3500
G01 X23.4250Y7.3500
G01 X7.8500Y7.3250
G01 X7.8500Y20.4500
G00 Z1.0000
G00 X70.3750Y6.1000
G01 Z-1.5000
G01 X18.0000Y5.7750
G01 X18.0000Y-0.4250
G01 X6.0250Y-0.5750
G01 X0.0000Y1.2750
G01 X0.0000Y26.7750
G01 X69.6250Y27.3500
G01 X73.2000Y26.8750
G01 X79.3000Y26.8750
G01 X79.3000Y19.7750
G01 X70.3500Y19.5250
G01 X70.4750Y6.1000
G00 Z1.0000
G00 X46.1750Y9.1000
G01 Z-1.5000
G01 X59.0000Y9.0000
G01 X59.1500Y24.1000
G01 X46.3000Y24.2000
G01 X46.1750Y9.1000
G00 Z1.0000
(Ende)
G80
G90
G00 Z10 X0 Y0
M05
M09
M30