%Generated by HPGL2GCODE
(Start)
M03 S500
G4 P1
M03 S750
G4 P1
M03 S1000
G4 P2
(Initialize HP-GL/2-mode)
(PT0)
G21
G90
G94
F80.00
G00 Z1.0000
G00 X13.7750Y5.3750
G01 Z-0.3000
G01 X27.5250Y7.0750
G01 X27.6250Y14.1500
G01 X31.1000Y14.6000
G01 X31.3000Y13.1250
G01 X43.8000Y15.0000
G01 X42.9500Y21.4500
G01 X27.6500Y19.3750
G01 X27.5250Y20.3750
G01 X12.0750Y18.4000
G01 X13.7500Y5.3750
G00 Z1.0000
G00 X73.0750Y30.4250
G01 Z-0.3000
G01 X20.5000Y22.7750
G01 X19.9000Y26.1000
G01 X14.6000Y25.3000
G01 X15.3000Y21.1000
G01 X13.9000Y20.9000
G01 X11.1000Y26.7000
G01 X0.3500Y24.8500
G01 X3.3500Y0.4250
G01 X79.2000Y10.6000
G01 X85.1750Y10.7500
G01 X84.2000Y16.4000
G01 X76.1000Y17.1000
G01 X73.0750Y30.4250
G00 Z1.0000
(Initialize HP-GL/2-mode)
(PT0)
G21
G90
G94
F80.00
G00 Z1.0000
G00 X13.7750Y5.3750
G01 Z-0.6000
G01 X27.5250Y7.0750
G01 X27.6250Y14.1500
G01 X31.1000Y14.6000
G01 X31.3000Y13.1250
G01 X43.8000Y15.0000
G01 X42.9500Y21.4500
G01 X27.6500Y19.3750
G01 X27.5250Y20.3750
G01 X12.0750Y18.4000
G01 X13.7500Y5.3750
G00 Z1.0000
G00 X73.0750Y30.4250
G01 Z-0.6000
G01 X20.5000Y22.7750
G01 X19.9000Y26.1000
G01 X14.6000Y25.3000
G01 X15.3000Y21.1000
G01 X13.9000Y20.9000
G01 X11.1000Y26.7000
G01 X0.3500Y24.8500
G01 X3.3500Y0.4250
G01 X79.2000Y10.6000
G01 X85.1750Y10.7500
G01 X84.2000Y16.4000
G01 X76.1000Y17.1000
G01 X73.0750Y30.4250
G00 Z1.0000
(Initialize HP-GL/2-mode)
(PT0)
G21
G90
G94
F80.00
G00 Z1.0000
G00 X13.7750Y5.3750
G01 Z-0.9000
G01 X27.5250Y7.0750
G01 X27.6250Y14.1500
G01 X31.1000Y14.6000
G01 X31.3000Y13.1250
G01 X43.8000Y15.0000
G01 X42.9500Y21.4500
G01 X27.6500Y19.3750
G01 X27.5250Y20.3750
G01 X12.0750Y18.4000
G01 X13.7500Y5.3750
G00 Z1.0000
G00 X73.0750Y30.4250
G01 Z-0.9000
G01 X20.5000Y22.7750
G01 X19.9000Y26.1000
G01 X14.6000Y25.3000
G01 X15.3000Y21.1000
G01 X13.9000Y20.9000
G01 X11.1000Y26.7000
G01 X0.3500Y24.8500
G01 X3.3500Y0.4250
G01 X79.2000Y10.6000
G01 X85.1750Y10.7500
G01 X84.2000Y16.4000
G01 X76.1000Y17.1000
G01 X73.0750Y30.4250
G00 Z1.0000
(Initialize HP-GL/2-mode)
(PT0)
G21
G90
G94
F80.00
G00 Z1.0000
G00 X13.7750Y5.3750
G01 Z-1.2000
G01 X27.5250Y7.0750
G01 X27.6250Y14.1500
G01 X31.1000Y14.6000
G01 X31.3000Y13.1250
G01 X43.8000Y15.0000
G01 X42.9500Y21.4500
G01 X27.6500Y19.3750
G01 X27.5250Y20.3750
G01 X12.0750Y18.4000
G01 X13.7500Y5.3750
G00 Z1.0000
G00 X73.0750Y30.4250
G01 Z-1.2000
G01 X20.5000Y22.7750
G01 X19.9000Y26.1000
G01 X14.6000Y25.3000
G01 X15.3000Y21.1000
G01 X13.9000Y20.9000
G01 X11.1000Y26.7000
G01 X0.3500Y24.8500
G01 X3.3500Y0.4250
G01 X79.2000Y10.6000
G01 X85.1750Y10.7500
G01 X84.2000Y16.4000
G01 X76.1000Y17.1000
G01 X73.0750Y30.4250
G00 Z1.0000
(Initialize HP-GL/2-mode)
(PT0)
G21
G90
G94
F80.00
G00 Z1.0000
G00 X13.7750Y5.3750
G01 Z-1.5000
G01 X27.5250Y7.0750
G01 X27.6250Y14.1500
G01 X31.1000Y14.6000
G01 X31.3000Y13.1250
G01 X43.8000Y15.0000
G01 X42.9500Y21.4500
G01 X27.6500Y19.3750
G01 X27.5250Y20.3750
G01 X12.0750Y18.4000
G01 X13.7500Y5.3750
G00 Z1.0000
G00 X73.0750Y30.4250
G01 Z-1.5000
G01 X20.5000Y22.7750
G01 X19.9000Y26.1000
G01 X14.6000Y25.3000
G01 X15.3000Y21.1000
G01 X13.9000Y20.9000
G01 X11.1000Y26.7000
G01 X0.3500Y24.8500
G01 X3.3500Y0.4250
G01 X79.2000Y10.6000
G01 X85.1750Y10.7500
G01 X84.2000Y16.4000
G01 X76.1000Y17.1000
G01 X73.0750Y30.4250
G00 Z1.0000
(Ende)
G80
G90
G00 Z10 X0 Y0
M05
M09
M30