%Generated by HPGL2GCODE
(Start)
M03 S500
G4 P1
M03 S750
G4 P1
M03 S1000
G4 P2
(Initialize HP-GL/2-mode)
(PT0)
G21
G90
G94
F80.00
G00 Z1.0000
G00 X8.0750Y21.2500
G01 Z-0.3000
G01 X21.7250Y21.3250
G01 X22.7250Y14.3250
G01 X26.2250Y14.3250
G01 X26.2500Y15.8250
G01 X38.8750Y15.5750
G01 X38.8500Y9.0750
G01 X23.4250Y9.1500
G01 X23.4250Y8.1500
G01 X8.0500Y8.1250
G01 X8.0500Y21.2500
G00 Z1.0000
G00 X70.3750Y6.9000
G01 Z-0.3000
G01 X18.0000Y6.5750
G01 X18.0000Y3.7750
G01 X17.5000Y0.8750
G01 X11.8000Y0.8750
G01 X6.0250Y0.2250
G01 X0.0000Y2.0750
G01 X0.0000Y27.4750
G01 X69.6250Y27.8500
G01 X73.2000Y27.0750
G01 X78.4000Y26.6750
G01 X78.9000Y23.9750
G01 X78.5000Y21.0750
G01 X70.3500Y20.3250
G01 X70.4750Y6.9000
G00 Z1.0000
G00 X46.1750Y9.9000
G01 Z-0.3000
G01 X59.0000Y9.7750
G01 X59.1500Y24.8750
G01 X46.3000Y25.0000
G01 X46.1750Y9.9000
G00 Z1.0000
(Initialize HP-GL/2-mode)
(PT0)
G21
G90
G94
F80.00
G00 Z1.0000
G00 X8.0750Y21.2500
G01 Z-0.6000
G01 X21.7250Y21.3250
G01 X22.7250Y14.3250
G01 X26.2250Y14.3250
G01 X26.2500Y15.8250
G01 X38.8750Y15.5750
G01 X38.8500Y9.0750
G01 X23.4250Y9.1500
G01 X23.4250Y8.1500
G01 X8.0500Y8.1250
G01 X8.0500Y21.2500
G00 Z1.0000
G00 X70.3750Y6.9000
G01 Z-0.6000
G01 X18.0000Y6.5750
G01 X18.0000Y3.7750
G01 X17.5000Y0.8750
G01 X11.8000Y0.8750
G01 X6.0250Y0.2250
G01 X0.0000Y2.0750
G01 X0.0000Y27.4750
G01 X69.6250Y27.8500
G01 X73.2000Y27.0750
G01 X78.4000Y26.6750
G01 X78.9000Y23.9750
G01 X78.5000Y21.0750
G01 X70.3500Y20.3250
G01 X70.4750Y6.9000
G00 Z1.0000
G00 X46.1750Y9.9000
G01 Z-0.6000
G01 X59.0000Y9.7750
G01 X59.1500Y24.8750
G01 X46.3000Y25.0000
G01 X46.1750Y9.9000
G00 Z1.0000
(Initialize HP-GL/2-mode)
(PT0)
G21
G90
G94
F80.00
G00 Z1.0000
G00 X8.0750Y21.2500
G01 Z-0.9000
G01 X21.7250Y21.3250
G01 X22.7250Y14.3250
G01 X26.2250Y14.3250
G01 X26.2500Y15.8250
G01 X38.8750Y15.5750
G01 X38.8500Y9.0750
G01 X23.4250Y9.1500
G01 X23.4250Y8.1500
G01 X8.0500Y8.1250
G01 X8.0500Y21.2500
G00 Z1.0000
G00 X70.3750Y6.9000
G01 Z-0.9000
G01 X18.0000Y6.5750
G01 X18.0000Y3.7750
G01 X17.5000Y0.8750
G01 X11.8000Y0.8750
G01 X6.0250Y0.2250
G01 X0.0000Y2.0750
G01 X0.0000Y27.4750
G01 X69.6250Y27.8500
G01 X73.2000Y27.0750
G01 X78.4000Y26.6750
G01 X78.9000Y23.9750
G01 X78.5000Y21.0750
G01 X70.3500Y20.3250
G01 X70.4750Y6.9000
G00 Z1.0000
G00 X46.1750Y9.9000
G01 Z-0.9000
G01 X59.0000Y9.7750
G01 X59.1500Y24.8750
G01 X46.3000Y25.0000
G01 X46.1750Y9.9000
G00 Z1.0000
(Initialize HP-GL/2-mode)
(PT0)
G21
G90
G94
F80.00
G00 Z1.0000
G00 X8.0750Y21.2500
G01 Z-1.2000
G01 X21.7250Y21.3250
G01 X22.7250Y14.3250
G01 X26.2250Y14.3250
G01 X26.2500Y15.8250
G01 X38.8750Y15.5750
G01 X38.8500Y9.0750
G01 X23.4250Y9.1500
G01 X23.4250Y8.1500
G01 X8.0500Y8.1250
G01 X8.0500Y21.2500
G00 Z1.0000
G00 X70.3750Y6.9000
G01 Z-1.2000
G01 X18.0000Y6.5750
G01 X18.0000Y3.7750
G01 X17.5000Y0.8750
G01 X11.8000Y0.8750
G01 X6.0250Y0.2250
G01 X0.0000Y2.0750
G01 X0.0000Y27.4750
G01 X69.6250Y27.8500
G01 X73.2000Y27.0750
G01 X78.4000Y26.6750
G01 X78.9000Y23.9750
G01 X78.5000Y21.0750
G01 X70.3500Y20.3250
G01 X70.4750Y6.9000
G00 Z1.0000
G00 X46.1750Y9.9000
G01 Z-1.2000
G01 X59.0000Y9.7750
G01 X59.1500Y24.8750
G01 X46.3000Y25.0000
G01 X46.1750Y9.9000
G00 Z1.0000
(Initialize HP-GL/2-mode)
(PT0)
G21
G90
G94
F80.00
G00 Z1.0000
G00 X8.0750Y21.2500
G01 Z-1.5000
G01 X21.7250Y21.3250
G01 X22.7250Y14.3250
G01 X26.2250Y14.3250
G01 X26.2500Y15.8250
G01 X38.8750Y15.5750
G01 X38.8500Y9.0750
G01 X23.4250Y9.1500
G01 X23.4250Y8.1500
G01 X8.0500Y8.1250
G01 X8.0500Y21.2500
G00 Z1.0000
G00 X70.3750Y6.9000
G01 Z-1.5000
G01 X18.0000Y6.5750
G01 X18.0000Y3.7750
G01 X17.5000Y0.8750
G01 X11.8000Y0.8750
G01 X6.0250Y0.2250
G01 X0.0000Y2.0750
G01 X0.0000Y27.4750
G01 X69.6250Y27.8500
G01 X73.2000Y27.0750
G01 X78.4000Y26.6750
G01 X78.9000Y23.9750
G01 X78.5000Y21.0750
G01 X70.3500Y20.3250
G01 X70.4750Y6.9000
G00 Z1.0000
G00 X46.1750Y9.9000
G01 Z-1.5000
G01 X59.0000Y9.7750
G01 X59.1500Y24.8750
G01 X46.3000Y25.0000
G01 X46.1750Y9.9000
G00 Z1.0000
(Ende)
G80
G90
G00 Z10 X0 Y0
M05
M09
M30