%Generated by HPGL2GCODE
(Start)
M03 S500
G4 P1
M03 S750
G4 P1
M03 S1000
G4 P2
(Initialize HP-GL/2-mode)
(PT0)
G21
G90
G94
F80.00
G00 Z1.0000
G00 X11.0750Y6.7250
G01 Z-0.3000
G01 X24.9250Y6.6500
G01 X25.9250Y13.6500
G01 X29.4250Y13.6500
G01 X29.4500Y12.1500
G01 X42.0750Y12.4000
G01 X42.0500Y18.9000
G01 X26.6250Y18.8250
G01 X26.6250Y19.8250
G01 X11.0500Y19.8500
G01 X11.0500Y6.7250
G00 Z1.0000
G00 X73.5750Y21.0750
G01 Z-0.3000
G01 X20.8500Y21.4250
G01 X20.8000Y27.0000
G01 X9.0250Y27.5500
G01 X0.8000Y25.7750
G01 X0.3750Y0.4250
G01 X72.8250Y-0.1750
G01 X76.4000Y0.7000
G01 X81.8500Y1.0750
G01 X82.1250Y6.5250
G01 X73.5500Y7.6500
G01 X73.6750Y21.0750
G00 Z1.0000
G00 X49.3750Y18.0000
G01 Z-0.3000
G01 X62.2000Y18.1000
G01 X62.3500Y3.0000
G01 X49.5000Y2.9000
G01 X49.3750Y18.0000
G00 Z1.0000
(Initialize HP-GL/2-mode)
(PT0)
G21
G90
G94
F80.00
G00 Z1.0000
G00 X11.0750Y6.7250
G01 Z-0.6000
G01 X24.9250Y6.6500
G01 X25.9250Y13.6500
G01 X29.4250Y13.6500
G01 X29.4500Y12.1500
G01 X42.0750Y12.4000
G01 X42.0500Y18.9000
G01 X26.6250Y18.8250
G01 X26.6250Y19.8250
G01 X11.0500Y19.8500
G01 X11.0500Y6.7250
G00 Z1.0000
G00 X73.5750Y21.0750
G01 Z-0.6000
G01 X20.8500Y21.4250
G01 X20.8000Y27.0000
G01 X9.0250Y27.5500
G01 X0.8000Y25.7750
G01 X0.3750Y0.4250
G01 X72.8250Y-0.1750
G01 X76.4000Y0.7000
G01 X81.8500Y1.0750
G01 X82.1250Y6.5250
G01 X73.5500Y7.6500
G01 X73.6750Y21.0750
G00 Z1.0000
G00 X49.3750Y18.0000
G01 Z-0.6000
G01 X62.2000Y18.1000
G01 X62.3500Y3.0000
G01 X49.5000Y2.9000
G01 X49.3750Y18.0000
G00 Z1.0000
(Initialize HP-GL/2-mode)
(PT0)
G21
G90
G94
F80.00
G00 Z1.0000
G00 X11.0750Y6.7250
G01 Z-0.9000
G01 X24.9250Y6.6500
G01 X25.9250Y13.6500
G01 X29.4250Y13.6500
G01 X29.4500Y12.1500
G01 X42.0750Y12.4000
G01 X42.0500Y18.9000
G01 X26.6250Y18.8250
G01 X26.6250Y19.8250
G01 X11.0500Y19.8500
G01 X11.0500Y6.7250
G00 Z1.0000
G00 X73.5750Y21.0750
G01 Z-0.9000
G01 X20.8500Y21.4250
G01 X20.8000Y27.0000
G01 X9.0250Y27.5500
G01 X0.8000Y25.7750
G01 X0.3750Y0.4250
G01 X72.8250Y-0.1750
G01 X76.4000Y0.7000
G01 X81.8500Y1.0750
G01 X82.1250Y6.5250
G01 X73.5500Y7.6500
G01 X73.6750Y21.0750
G00 Z1.0000
G00 X49.3750Y18.0000
G01 Z-0.9000
G01 X62.2000Y18.1000
G01 X62.3500Y3.0000
G01 X49.5000Y2.9000
G01 X49.3750Y18.0000
G00 Z1.0000
(Initialize HP-GL/2-mode)
(PT0)
G21
G90
G94
F80.00
G00 Z1.0000
G00 X11.0750Y6.7250
G01 Z-1.2000
G01 X24.9250Y6.6500
G01 X25.9250Y13.6500
G01 X29.4250Y13.6500
G01 X29.4500Y12.1500
G01 X42.0750Y12.4000
G01 X42.0500Y18.9000
G01 X26.6250Y18.8250
G01 X26.6250Y19.8250
G01 X11.0500Y19.8500
G01 X11.0500Y6.7250
G00 Z1.0000
G00 X73.5750Y21.0750
G01 Z-1.2000
G01 X20.8500Y21.4250
G01 X20.8000Y27.0000
G01 X9.0250Y27.5500
G01 X0.8000Y25.7750
G01 X0.3750Y0.4250
G01 X72.8250Y-0.1750
G01 X76.4000Y0.7000
G01 X81.8500Y1.0750
G01 X82.1250Y6.5250
G01 X73.5500Y7.6500
G01 X73.6750Y21.0750
G00 Z1.0000
G00 X49.3750Y18.0000
G01 Z-1.2000
G01 X62.2000Y18.1000
G01 X62.3500Y3.0000
G01 X49.5000Y2.9000
G01 X49.3750Y18.0000
G00 Z1.0000
(Initialize HP-GL/2-mode)
(PT0)
G21
G90
G94
F80.00
G00 Z1.0000
G00 X11.0750Y6.7250
G01 Z-1.5000
G01 X24.9250Y6.6500
G01 X25.9250Y13.6500
G01 X29.4250Y13.6500
G01 X29.4500Y12.1500
G01 X42.0750Y12.4000
G01 X42.0500Y18.9000
G01 X26.6250Y18.8250
G01 X26.6250Y19.8250
G01 X11.0500Y19.8500
G01 X11.0500Y6.7250
G00 Z1.0000
G00 X73.5750Y21.0750
G01 Z-1.5000
G01 X20.8500Y21.4250
G01 X20.8000Y27.0000
G01 X9.0250Y27.5500
G01 X0.8000Y25.7750
G01 X0.3750Y0.4250
G01 X72.8250Y-0.1750
G01 X76.4000Y0.7000
G01 X81.8500Y1.0750
G01 X82.1250Y6.5250
G01 X73.5500Y7.6500
G01 X73.6750Y21.0750
G00 Z1.0000
G00 X49.3750Y18.0000
G01 Z-1.5000
G01 X62.2000Y18.1000
G01 X62.3500Y3.0000
G01 X49.5000Y2.9000
G01 X49.3750Y18.0000
G00 Z1.0000
(Ende)
G80
G90
G00 Z10 X0 Y0
M05
M09
M30