%Generated by HPGL2GCODE
(Start)
M03 S500
G4 P1
M03 S750
G4 P1
M03 S1000
G4 P2
(Initialize HP-GL/2-mode)
(PT0)
G21
G90
G94
F80.00
G00 Z1.0000
G00 X10.8750Y7.3250
G01 Z-0.3000
G01 X24.7250Y7.2500
G01 X25.7250Y14.2500
G01 X29.2250Y14.2500
G01 X29.2500Y12.7500
G01 X41.8750Y13.0000
G01 X41.8500Y19.5000
G01 X26.4250Y19.4250
G01 X26.4250Y20.4250
G01 X10.8500Y20.4500
G01 X10.8500Y7.3250
G00 Z1.0000
G00 X73.3750Y21.6750
G01 Z-0.3000
G01 X20.6500Y22.0250
G01 X20.6000Y27.6000
G01 X8.8250Y28.1500
G01 X0.6000Y26.3750
G01 X0.1750Y1.0250
G01 X72.6250Y0.4250
G01 X76.2000Y1.3000
G01 X81.6500Y1.6750
G01 X81.9250Y7.1250
G01 X73.3500Y8.2500
G01 X73.4750Y21.6750
G00 Z1.0000
G00 X49.1750Y18.6000
G01 Z-0.3000
G01 X62.0000Y18.7000
G01 X62.1500Y3.6000
G01 X49.3000Y3.5000
G01 X49.1750Y18.6000
G00 Z1.0000
(Initialize HP-GL/2-mode)
(PT0)
G21
G90
G94
F80.00
G00 Z1.0000
G00 X10.8750Y7.3250
G01 Z-0.6000
G01 X24.7250Y7.2500
G01 X25.7250Y14.2500
G01 X29.2250Y14.2500
G01 X29.2500Y12.7500
G01 X41.8750Y13.0000
G01 X41.8500Y19.5000
G01 X26.4250Y19.4250
G01 X26.4250Y20.4250
G01 X10.8500Y20.4500
G01 X10.8500Y7.3250
G00 Z1.0000
G00 X73.3750Y21.6750
G01 Z-0.6000
G01 X20.6500Y22.0250
G01 X20.6000Y27.6000
G01 X8.8250Y28.1500
G01 X0.6000Y26.3750
G01 X0.1750Y1.0250
G01 X72.6250Y0.4250
G01 X76.2000Y1.3000
G01 X81.6500Y1.6750
G01 X81.9250Y7.1250
G01 X73.3500Y8.2500
G01 X73.4750Y21.6750
G00 Z1.0000
G00 X49.1750Y18.6000
G01 Z-0.6000
G01 X62.0000Y18.7000
G01 X62.1500Y3.6000
G01 X49.3000Y3.5000
G01 X49.1750Y18.6000
G00 Z1.0000
(Initialize HP-GL/2-mode)
(PT0)
G21
G90
G94
F80.00
G00 Z1.0000
G00 X10.8750Y7.3250
G01 Z-0.9000
G01 X24.7250Y7.2500
G01 X25.7250Y14.2500
G01 X29.2250Y14.2500
G01 X29.2500Y12.7500
G01 X41.8750Y13.0000
G01 X41.8500Y19.5000
G01 X26.4250Y19.4250
G01 X26.4250Y20.4250
G01 X10.8500Y20.4500
G01 X10.8500Y7.3250
G00 Z1.0000
G00 X73.3750Y21.6750
G01 Z-0.9000
G01 X20.6500Y22.0250
G01 X20.6000Y27.6000
G01 X8.8250Y28.1500
G01 X0.6000Y26.3750
G01 X0.1750Y1.0250
G01 X72.6250Y0.4250
G01 X76.2000Y1.3000
G01 X81.6500Y1.6750
G01 X81.9250Y7.1250
G01 X73.3500Y8.2500
G01 X73.4750Y21.6750
G00 Z1.0000
G00 X49.1750Y18.6000
G01 Z-0.9000
G01 X62.0000Y18.7000
G01 X62.1500Y3.6000
G01 X49.3000Y3.5000
G01 X49.1750Y18.6000
G00 Z1.0000
(Initialize HP-GL/2-mode)
(PT0)
G21
G90
G94
F80.00
G00 Z1.0000
G00 X10.8750Y7.3250
G01 Z-1.2000
G01 X24.7250Y7.2500
G01 X25.7250Y14.2500
G01 X29.2250Y14.2500
G01 X29.2500Y12.7500
G01 X41.8750Y13.0000
G01 X41.8500Y19.5000
G01 X26.4250Y19.4250
G01 X26.4250Y20.4250
G01 X10.8500Y20.4500
G01 X10.8500Y7.3250
G00 Z1.0000
G00 X73.3750Y21.6750
G01 Z-1.2000
G01 X20.6500Y22.0250
G01 X20.6000Y27.6000
G01 X8.8250Y28.1500
G01 X0.6000Y26.3750
G01 X0.1750Y1.0250
G01 X72.6250Y0.4250
G01 X76.2000Y1.3000
G01 X81.6500Y1.6750
G01 X81.9250Y7.1250
G01 X73.3500Y8.2500
G01 X73.4750Y21.6750
G00 Z1.0000
G00 X49.1750Y18.6000
G01 Z-1.2000
G01 X62.0000Y18.7000
G01 X62.1500Y3.6000
G01 X49.3000Y3.5000
G01 X49.1750Y18.6000
G00 Z1.0000
(Initialize HP-GL/2-mode)
(PT0)
G21
G90
G94
F80.00
G00 Z1.0000
G00 X10.8750Y7.3250
G01 Z-1.5000
G01 X24.7250Y7.2500
G01 X25.7250Y14.2500
G01 X29.2250Y14.2500
G01 X29.2500Y12.7500
G01 X41.8750Y13.0000
G01 X41.8500Y19.5000
G01 X26.4250Y19.4250
G01 X26.4250Y20.4250
G01 X10.8500Y20.4500
G01 X10.8500Y7.3250
G00 Z1.0000
G00 X73.3750Y21.6750
G01 Z-1.5000
G01 X20.6500Y22.0250
G01 X20.6000Y27.6000
G01 X8.8250Y28.1500
G01 X0.6000Y26.3750
G01 X0.1750Y1.0250
G01 X72.6250Y0.4250
G01 X76.2000Y1.3000
G01 X81.6500Y1.6750
G01 X81.9250Y7.1250
G01 X73.3500Y8.2500
G01 X73.4750Y21.6750
G00 Z1.0000
G00 X49.1750Y18.6000
G01 Z-1.5000
G01 X62.0000Y18.7000
G01 X62.1500Y3.6000
G01 X49.3000Y3.5000
G01 X49.1750Y18.6000
G00 Z1.0000
(Ende)
G80
G90
G00 Z10 X0 Y0
M05
M09
M30