%Generated by HPGL2GCODE
(Start)
M03 S500
G4 P1
M03 S750
G4 P1
M03 S1000
G4 P2
(Initialize HP-GL/2-mode)
(PT0)
G21
G90
G94
F80.00
G00 Z1.0000
G00 X12.5750Y6.7250
G01 Z-0.3000
G01 X26.4250Y6.6500
G01 X27.4250Y13.6500
G01 X30.9250Y13.6500
G01 X30.9500Y12.1500
G01 X43.5750Y12.4000
G01 X43.5500Y18.9000
G01 X28.1250Y18.8250
G01 X28.1250Y19.8250
G01 X12.5500Y19.8500
G01 X12.5500Y6.7250
G00 Z1.0000
G00 X75.0750Y21.0750
G01 Z-0.3000
G01 X22.3500Y21.4250
G01 X22.3000Y27.0000
G01 X10.5250Y27.5500
G01 X2.3000Y25.7750
G01 X1.8750Y0.4250
G01 X74.3250Y-0.1750
G01 X77.9000Y0.7000
G01 X83.3500Y1.0750
G01 X83.6250Y6.5250
G01 X75.0500Y7.6500
G01 X75.1750Y21.0750
G00 Z1.0000
(Initialize HP-GL/2-mode)
(PT0)
G21
G90
G94
F80.00
G00 Z1.0000
G00 X12.5750Y6.7250
G01 Z-0.6000
G01 X26.4250Y6.6500
G01 X27.4250Y13.6500
G01 X30.9250Y13.6500
G01 X30.9500Y12.1500
G01 X43.5750Y12.4000
G01 X43.5500Y18.9000
G01 X28.1250Y18.8250
G01 X28.1250Y19.8250
G01 X12.5500Y19.8500
G01 X12.5500Y6.7250
G00 Z1.0000
G00 X75.0750Y21.0750
G01 Z-0.6000
G01 X22.3500Y21.4250
G01 X22.3000Y27.0000
G01 X10.5250Y27.5500
G01 X2.3000Y25.7750
G01 X1.8750Y0.4250
G01 X74.3250Y-0.1750
G01 X77.9000Y0.7000
G01 X83.3500Y1.0750
G01 X83.6250Y6.5250
G01 X75.0500Y7.6500
G01 X75.1750Y21.0750
G00 Z1.0000
(Initialize HP-GL/2-mode)
(PT0)
G21
G90
G94
F80.00
G00 Z1.0000
G00 X12.5750Y6.7250
G01 Z-0.9000
G01 X26.4250Y6.6500
G01 X27.4250Y13.6500
G01 X30.9250Y13.6500
G01 X30.9500Y12.1500
G01 X43.5750Y12.4000
G01 X43.5500Y18.9000
G01 X28.1250Y18.8250
G01 X28.1250Y19.8250
G01 X12.5500Y19.8500
G01 X12.5500Y6.7250
G00 Z1.0000
G00 X75.0750Y21.0750
G01 Z-0.9000
G01 X22.3500Y21.4250
G01 X22.3000Y27.0000
G01 X10.5250Y27.5500
G01 X2.3000Y25.7750
G01 X1.8750Y0.4250
G01 X74.3250Y-0.1750
G01 X77.9000Y0.7000
G01 X83.3500Y1.0750
G01 X83.6250Y6.5250
G01 X75.0500Y7.6500
G01 X75.1750Y21.0750
G00 Z1.0000
(Initialize HP-GL/2-mode)
(PT0)
G21
G90
G94
F80.00
G00 Z1.0000
G00 X12.5750Y6.7250
G01 Z-1.2000
G01 X26.4250Y6.6500
G01 X27.4250Y13.6500
G01 X30.9250Y13.6500
G01 X30.9500Y12.1500
G01 X43.5750Y12.4000
G01 X43.5500Y18.9000
G01 X28.1250Y18.8250
G01 X28.1250Y19.8250
G01 X12.5500Y19.8500
G01 X12.5500Y6.7250
G00 Z1.0000
G00 X75.0750Y21.0750
G01 Z-1.2000
G01 X22.3500Y21.4250
G01 X22.3000Y27.0000
G01 X10.5250Y27.5500
G01 X2.3000Y25.7750
G01 X1.8750Y0.4250
G01 X74.3250Y-0.1750
G01 X77.9000Y0.7000
G01 X83.3500Y1.0750
G01 X83.6250Y6.5250
G01 X75.0500Y7.6500
G01 X75.1750Y21.0750
G00 Z1.0000
(Initialize HP-GL/2-mode)
(PT0)
G21
G90
G94
F80.00
G00 Z1.0000
G00 X12.5750Y6.7250
G01 Z-1.5000
G01 X26.4250Y6.6500
G01 X27.4250Y13.6500
G01 X30.9250Y13.6500
G01 X30.9500Y12.1500
G01 X43.5750Y12.4000
G01 X43.5500Y18.9000
G01 X28.1250Y18.8250
G01 X28.1250Y19.8250
G01 X12.5500Y19.8500
G01 X12.5500Y6.7250
G00 Z1.0000
G00 X75.0750Y21.0750
G01 Z-1.5000
G01 X22.3500Y21.4250
G01 X22.3000Y27.0000
G01 X10.5250Y27.5500
G01 X2.3000Y25.7750
G01 X1.8750Y0.4250
G01 X74.3250Y-0.1750
G01 X77.9000Y0.7000
G01 X83.3500Y1.0750
G01 X83.6250Y6.5250
G01 X75.0500Y7.6500
G01 X75.1750Y21.0750
G00 Z1.0000
(Ende)
G80
G90
G00 Z10 X0 Y0
M05
M09
M30