%Generated by HPGL2GCODE
(Start)
M03 S500
G4 P1
M03 S750
G4 P1
M03 S1000
G4 P2
(Initialize HP-GL/2-mode)
(PT0)
G21
G90
G94
F80.00
G00 Z1.0000
G00 X8.8750Y21.4500
G01 Z-0.3000
G01 X22.7250Y21.5250
G01 X23.7250Y14.5250
G01 X27.2250Y14.5250
G01 X27.2500Y16.0250
G01 X39.8750Y15.7750
G01 X39.8500Y9.2750
G01 X24.4250Y9.3500
G01 X24.4250Y8.3500
G01 X8.8500Y8.3250
G01 X8.8500Y21.4500
G00 Z1.0000
G00 X71.3750Y7.1000
G01 Z-0.3000
G01 X19.0000Y6.7750
G01 X19.0000Y0.5750
G01 X7.0250Y0.4250
G01 X1.0000Y2.2750
G01 X0.5000Y27.7750
G01 X70.6250Y28.3500
G01 X74.2000Y27.8750
G01 X80.3000Y27.8750
G01 X80.3000Y20.7750
G01 X71.3500Y20.5250
G01 X71.4750Y7.1000
G00 Z1.0000
G00 X47.1750Y10.1000
G01 Z-0.3000
G01 X60.0000Y10.0000
G01 X60.1500Y25.1000
G01 X47.3000Y25.2000
G01 X47.1750Y10.1000
G00 Z1.0000
(Initialize HP-GL/2-mode)
(PT0)
G21
G90
G94
F80.00
G00 Z1.0000
G00 X8.8750Y21.4500
G01 Z-0.6000
G01 X22.7250Y21.5250
G01 X23.7250Y14.5250
G01 X27.2250Y14.5250
G01 X27.2500Y16.0250
G01 X39.8750Y15.7750
G01 X39.8500Y9.2750
G01 X24.4250Y9.3500
G01 X24.4250Y8.3500
G01 X8.8500Y8.3250
G01 X8.8500Y21.4500
G00 Z1.0000
G00 X71.3750Y7.1000
G01 Z-0.6000
G01 X19.0000Y6.7750
G01 X19.0000Y0.5750
G01 X7.0250Y0.4250
G01 X1.0000Y2.2750
G01 X0.5000Y27.7750
G01 X70.6250Y28.3500
G01 X74.2000Y27.8750
G01 X80.3000Y27.8750
G01 X80.3000Y20.7750
G01 X71.3500Y20.5250
G01 X71.4750Y7.1000
G00 Z1.0000
G00 X47.1750Y10.1000
G01 Z-0.6000
G01 X60.0000Y10.0000
G01 X60.1500Y25.1000
G01 X47.3000Y25.2000
G01 X47.1750Y10.1000
G00 Z1.0000
(Initialize HP-GL/2-mode)
(PT0)
G21
G90
G94
F80.00
G00 Z1.0000
G00 X8.8750Y21.4500
G01 Z-0.9000
G01 X22.7250Y21.5250
G01 X23.7250Y14.5250
G01 X27.2250Y14.5250
G01 X27.2500Y16.0250
G01 X39.8750Y15.7750
G01 X39.8500Y9.2750
G01 X24.4250Y9.3500
G01 X24.4250Y8.3500
G01 X8.8500Y8.3250
G01 X8.8500Y21.4500
G00 Z1.0000
G00 X71.3750Y7.1000
G01 Z-0.9000
G01 X19.0000Y6.7750
G01 X19.0000Y0.5750
G01 X7.0250Y0.4250
G01 X1.0000Y2.2750
G01 X0.5000Y27.7750
G01 X70.6250Y28.3500
G01 X74.2000Y27.8750
G01 X80.3000Y27.8750
G01 X80.3000Y20.7750
G01 X71.3500Y20.5250
G01 X71.4750Y7.1000
G00 Z1.0000
G00 X47.1750Y10.1000
G01 Z-0.9000
G01 X60.0000Y10.0000
G01 X60.1500Y25.1000
G01 X47.3000Y25.2000
G01 X47.1750Y10.1000
G00 Z1.0000
(Initialize HP-GL/2-mode)
(PT0)
G21
G90
G94
F80.00
G00 Z1.0000
G00 X8.8750Y21.4500
G01 Z-1.2000
G01 X22.7250Y21.5250
G01 X23.7250Y14.5250
G01 X27.2250Y14.5250
G01 X27.2500Y16.0250
G01 X39.8750Y15.7750
G01 X39.8500Y9.2750
G01 X24.4250Y9.3500
G01 X24.4250Y8.3500
G01 X8.8500Y8.3250
G01 X8.8500Y21.4500
G00 Z1.0000
G00 X71.3750Y7.1000
G01 Z-1.2000
G01 X19.0000Y6.7750
G01 X19.0000Y0.5750
G01 X7.0250Y0.4250
G01 X1.0000Y2.2750
G01 X0.5000Y27.7750
G01 X70.6250Y28.3500
G01 X74.2000Y27.8750
G01 X80.3000Y27.8750
G01 X80.3000Y20.7750
G01 X71.3500Y20.5250
G01 X71.4750Y7.1000
G00 Z1.0000
G00 X47.1750Y10.1000
G01 Z-1.2000
G01 X60.0000Y10.0000
G01 X60.1500Y25.1000
G01 X47.3000Y25.2000
G01 X47.1750Y10.1000
G00 Z1.0000
(Initialize HP-GL/2-mode)
(PT0)
G21
G90
G94
F80.00
G00 Z1.0000
G00 X8.8750Y21.4500
G01 Z-1.5000
G01 X22.7250Y21.5250
G01 X23.7250Y14.5250
G01 X27.2250Y14.5250
G01 X27.2500Y16.0250
G01 X39.8750Y15.7750
G01 X39.8500Y9.2750
G01 X24.4250Y9.3500
G01 X24.4250Y8.3500
G01 X8.8500Y8.3250
G01 X8.8500Y21.4500
G00 Z1.0000
G00 X71.3750Y7.1000
G01 Z-1.5000
G01 X19.0000Y6.7750
G01 X19.0000Y0.5750
G01 X7.0250Y0.4250
G01 X1.0000Y2.2750
G01 X0.5000Y27.7750
G01 X70.6250Y28.3500
G01 X74.2000Y27.8750
G01 X80.3000Y27.8750
G01 X80.3000Y20.7750
G01 X71.3500Y20.5250
G01 X71.4750Y7.1000
G00 Z1.0000
G00 X47.1750Y10.1000
G01 Z-1.5000
G01 X60.0000Y10.0000
G01 X60.1500Y25.1000
G01 X47.3000Y25.2000
G01 X47.1750Y10.1000
G00 Z1.0000
(Ende)
G80
G90
G00 Z10 X0 Y0
M05
M09
M30